ikatsov/phy-harness/artifacts/shoulder_rotation/joints.csv
episode,sim_step,time_sec,shoulder_pan_joint,shoulder_lift_joint,elbow_joint,wrist_1_joint,wrist_2_joint,wrist_3_joint,left_driver_joint,left_spring_link_joint,left_follower,right_driver_joint,right_spring_link_joint,right_follower_joint,grasp_box_free.px,grasp_box_free.py,grasp_box_free.pz,grasp_box_free.qw,grasp_box_free.qx,grasp_box_free.qy,grasp_box_free.qz,target_a_shoulder_pan,ctrl_a_shoulder_pan,target_a_shoulder_lift,ctrl_a_shoulder_lift,target_a_elbow,ctrl_a_elbow,target_a_wrist_1,ctrl_a_wrist_1,target_a_wrist_2,ctrl_a_wrist_2,target_a_wrist_3,ctrl_a_wrist_3,target_a_gripper,ctrl_a_gripper
1,0,0.0,0.0,0.0,0.0,0.0,0.0,0.0,0.0,0.0,0.0,0.0,0.0,0.0,0.52171,0.00831,0.035,1.0,0.0,0.0,0.0,-1.5708,-1.5708,-1.5708,-1.5708,1.5708,1.5708,-1.5708,-1.5708,-1.5708,-1.5708,0.0,0.0,220.0,220.0
1,1,0.02,-1e-05,-0.00136,-0.00033,0.00101,-3e-05,6e-05,0.05166,0.05145,0.05032,0.05166,0.05147,0.0504,0.52171,0.00831,0.03284,1.0,0.0,0.0,0.0,0.0,0.0,-0.01326,-0.01326,-0.00509,-0.00509,0.0025,0.0025,-5e-05,-5e-05,0.00014,0.00014,220.0,220.0
1,2,0.04,-1e-05,-0.0063,-0.00195,0.00265,-8e-05,0.00018,0.18467,0.18454,0.18364,0.18467,0.18455,0.18371,0.52171,0.00831,0.02676,1.0,0.0,0.0,0.0,0.0,0.0,-0.0265,-0.0265,-0.01022,-0.01022,0.00498,0.00498,-0.00011,-0.00011,0.00032,0.00032,220.0,220.0
1,3,0.06,1e-05,-0.01504,-0.00524,0.00461,-0.00012,0.00035,0.38434,0.38428,0.38366,0.38433,0.38428,0.38371,0.52171,0.00831,0.02179,1.0,0.0,-0.0,0.0,0.0,0.0,-0.03972,-0.03972,-0.01541,-0.01541,0.00743,0.00743,-0.00016,-0.00016,0.00056,0.00056,220.0,220.0
1,4,0.08,2e-05,-0.02634,-0.00973,0.00674,-0.00016,0.00055,0.6383,0.6383,0.63787,0.6383,0.6383,0.6379,0.52171,0.00831,0.02253,1.0,0.0,-0.0,0.0,0.0,0.0,-0.05291,-0.05291,-0.02064,-0.02064,0.00985,0.00985,-0.00021,-0.00021,0.00085,0.00085,220.0,220.0
1,5,0.1,4e-05,-0.03898,-0.01485,0.00896,-0.00019,0.00081,0.83588,0.83073,0.83251,0.83611,0.83196,0.83012,0.52171,0.00831,0.0236,1.0,0.0,-0.0,-0.0,1e-05,1e-05,-0.06608,-0.06608,-0.02592,-0.02592,0.01224,0.01224,-0.00025,-0.00025,0.00119,0.00119,220.0,220.0
1,6,0.12,2e-05,-0.05216,-0.02024,0.01123,-0.00024,0.00112,0.82568,0.82443,0.82457,0.82569,0.82447,0.82479,0.52171,0.00831,0.02426,1.0,0.0,-0.0,-0.0,1e-05,1e-05,-0.07922,-0.07922,-0.03124,-0.03124,0.0146,0.0146,-0.0003,-0.0003,0.00158,0.00158,220.0,220.0
1,7,0.14,-1e-05,-0.06548,-0.0257,0.01352,-0.00028,0.00149,0.82552,0.82424,0.82609,0.82551,0.82429,0.8261,0.52171,0.00831,0.0246,1.0,0.0,-0.0,-0.0,1e-05,1e-05,-0.09235,-0.09235,-0.03661,-0.03661,0.01692,0.01692,-0.00034,-0.00034,0.00203,0.00203,220.0,220.0
1,8,0.16,-3e-05,-0.07876,-0.03116,0.01582,-0.00032,0.00191,0.82576,0.82432,0.82729,0.82575,0.82439,0.82721,0.52171,0.00831,0.02476,1.0,0.0,-0.0,-0.0,1e-05,1e-05,-0.10545,-0.10545,-0.04202,-0.04202,0.01921,0.01921,-0.00038,-0.00038,0.00254,0.00254,220.0,220.0
1,9,0.18,-4e-05,-0.09196,-0.03662,0.0181,-0.00037,0.00239,0.82577,0.82433,0.82733,0.82576,0.8244,0.82725,0.52171,0.00831,0.02483,1.0,0.0,-0.0,-0.0,1e-05,1e-05,-0.11854,-0.11854,-0.04748,-0.04748,0.02147,0.02147,-0.00042,-0.00042,0.00311,0.00311,220.0,220.0
1,10,0.2,-4e-05,-0.1051,-0.04209,0.02036,-0.00041,0.00293,0.82576,0.82433,0.82733,0.82576,0.8244,0.82724,0.52171,0.00831,0.02486,1.0,0.0,0.0,-0.0,1e-05,1e-05,-0.13161,-0.13161,-0.05298,-0.05298,0.02368,0.02368,-0.00045,-0.00045,0.00373,0.00373,220.0,220.0
1,11,0.22,-4e-05,-0.1182,-0.04758,0.02258,-0.00045,0.00353,0.82576,0.82432,0.82734,0.82576,0.82439,0.82724,0.52171,0.00831,0.02488,1.0,0.0,0.0,-0.0,1e-05,1e-05,-0.14465,-0.14465,-0.05851,-0.05851,0.02585,0.02585,-0.00049,-0.00049,0.00442,0.00442,220.0,220.0
1,12,0.24,-4e-05,-0.13127,-0.0531,0.02478,-0.00049,0.00418,0.82577,0.82433,0.82734,0.82576,0.8244,0.82724,0.52171,0.00831,0.02489,1.0,0.0,0.0,-0.0,1e-05,1e-05,-0.15768,-0.15768,-0.06408,-0.06408,0.02798,0.02798,-0.00052,-0.00052,0.00516,0.00516,220.0,220.0
1,13,0.26,-4e-05,-0.14431,-0.05866,0.02693,-0.00053,0.0049,0.82576,0.82432,0.82733,0.82576,0.82439,0.82724,0.52171,0.00831,0.02489,1.0,0.0,0.0,-0.0,2e-05,2e-05,-0.17069,-0.17069,-0.06969,-0.06969,0.03006,0.03006,-0.00055,-0.00055,0.00597,0.00597,220.0,220.0
1,14,0.28,-4e-05,-0.15734,-0.06425,0.02904,-0.00056,0.00568,0.82577,0.82434,0.82734,0.82577,0.82441,0.82725,0.52171,0.00831,0.02489,1.0,0.0,0.0,-0.0,2e-05,2e-05,-0.18369,-0.18369,-0.07532,-0.07532,0.0321,0.0321,-0.00057,-0.00057,0.00684,0.00684,220.0,220.0
1,15,0.3,-3e-05,-0.17036,-0.06987,0.0311,-0.0006,0.00652,0.82576,0.82433,0.82733,0.82576,0.8244,0.82724,0.52171,0.00831,0.02489,1.0,0.0,0.0,-0.0,2e-05,2e-05,-0.19667,-0.19667,-0.08099,-0.08099,0.03409,0.03409,-0.0006,-0.0006,0.00777,0.00777,220.0,220.0
1,16,0.32,-3e-05,-0.18336,-0.07552,0.03312,-0.00063,0.00742,0.82576,0.82432,0.82733,0.82576,0.82439,0.82724,0.52171,0.00831,0.02489,1.0,0.0,-0.0,-0.0,2e-05,2e-05,-0.20964,-0.20964,-0.08669,-0.08669,0.03602,0.03602,-0.00062,-0.00062,0.00877,0.00877,220.0,220.0
1,17,0.34,-3e-05,-0.19635,-0.08121,0.03508,-0.00065,0.00839,0.82576,0.82432,0.82733,0.82575,0.82439,0.82724,0.52171,0.00831,0.02489,1.0,0.0,-0.0,-0.0,2e-05,2e-05,-0.2226,-0.2226,-0.0924,-0.0924,0.03791,0.03791,-0.00064,-0.00064,0.00983,0.00983,220.0,220.0
1,18,0.36,-3e-05,-0.20934,-0.08692,0.037,-0.00068,0.00942,0.82576,0.82432,0.82733,0.82576,0.82439,0.82724,0.52171,0.00831,0.02489,1.0,0.0,-0.0,-0.0,2e-05,2e-05,-0.23555,-0.23555,-0.09815,-0.09815,0.03973,0.03973,-0.00065,-0.00065,0.01095,0.01095,220.0,220.0
1,19,0.38,-3e-05,-0.22231,-0.09265,0.03886,-0.0007,0.01051,0.82577,0.82433,0.82734,0.82577,0.8244,0.82725,0.52171,0.00831,0.02489,1.0,0.0,-0.0,-0.0,2e-05,2e-05,-0.24848,-0.24848,-0.10391,-0.10391,0.04151,0.04151,-0.00066,-0.00066,0.01214,0.01214,220.0,220.0
1,20,0.4,-3e-05,-0.23527,-0.09841,0.04066,-0.00072,0.01167,0.82576,0.82433,0.82734,0.82576,0.8244,0.82724,0.52171,0.00831,0.02489,1.0,0.0,-0.0,-0.0,2e-05,2e-05,-0.26141,-0.26141,-0.10968,-0.10968,0.04322,0.04322,-0.00067,-0.00067,0.0134,0.0134,220.0,220.0
1,21,0.42,-2e-05,-0.24823,-0.10418,0.04241,-0.00074,0.01289,0.82575,0.82432,0.82733,0.82575,0.82439,0.82723,0.52171,0.00831,0.02489,1.0,0.0,-0.0,-0.0,3e-05,3e-05,-0.27433,-0.27433,-0.11548,-0.11548,0.04488,0.04488,-0.00068,-0.00068,0.01471,0.01471,220.0,220.0
1,22,0.44,-2e-05,-0.26118,-0.10997,0.04411,-0.00075,0.01418,0.82575,0.82432,0.82733,0.82575,0.82439,0.82723,0.52171,0.00831,0.02489,1.0,0.0,-0.0,-0.0,3e-05,3e-05,-0.28725,-0.28725,-0.12128,-0.12128,0.04648,0.04648,-0.00068,-0.00068,0.01609,0.01609,220.0,220.0
1,23,0.46,-2e-05,-0.27413,-0.11578,0.04574,-0.00076,0.01553,0.82577,0.82433,0.82734,0.82576,0.8244,0.82725,0.52171,0.00831,0.02489,1.0,0.0,-0.0,-0.0,3e-05,3e-05,-0.30016,-0.30016,-0.12708,-0.12708,0.04801,0.04801,-0.00068,-0.00068,0.01754,0.01754,220.0,220.0
1,24,0.48,-2e-05,-0.28708,-0.12159,0.04731,-0.00077,0.01694,0.82576,0.82432,0.82733,0.82575,0.82439,0.82724,0.52171,0.00831,0.02489,1.0,0.0,-0.0,-0.0,3e-05,3e-05,-0.31308,-0.31308,-0.1329,-0.1329,0.04948,0.04948,-0.00068,-0.00068,0.01904,0.01904,220.0,220.0
1,25,0.5,-2e-05,-0.30002,-0.12741,0.04882,-0.00078,0.01841,0.82577,0.82433,0.82734,0.82576,0.8244,0.82725,0.52171,0.00831,0.02489,1.0,0.0,-0.0,-0.0,3e-05,3e-05,-0.32599,-0.32599,-0.13871,-0.13871,0.05089,0.05089,-0.00068,-0.00068,0.02061,0.02061,220.0,220.0
1,26,0.52,-2e-05,-0.31296,-0.13323,0.05027,-0.00078,0.01995,0.82576,0.82432,0.82733,0.82575,0.82439,0.82724,0.52171,0.00831,0.02489,1.0,0.0,-0.0,-0.0,3e-05,3e-05,-0.3389,-0.3389,-0.14452,-0.14452,0.05224,0.05224,-0.00067,-0.00067,0.02224,0.02224,220.0,220.0
1,27,0.54,-1e-05,-0.32591,-0.13905,0.05165,-0.00078,0.02155,0.82575,0.82432,0.82733,0.82575,0.82439,0.82723,0.52171,0.00831,0.02489,1.0,0.0,-0.0,-0.0,3e-05,3e-05,-0.35181,-0.35181,-0.15032,-0.15032,0.05352,0.05352,-0.00066,-0.00066,0.02393,0.02393,220.0,220.0
1,28,0.56,-1e-05,-0.33885,-0.14487,0.05297,-0.00077,0.02321,0.82577,0.82434,0.82735,0.82577,0.8244,0.82725,0.52171,0.00831,0.02489,1.0,0.0,-0.0,-0.0,4e-05,4e-05,-0.36473,-0.36473,-0.15612,-0.15612,0.05474,0.05474,-0.00065,-0.00065,0.02568,0.02568,220.0,220.0
1,29,0.58,-1e-05,-0.35181,-0.15069,0.05423,-0.00077,0.02492,0.82577,0.82433,0.82734,0.82576,0.8244,0.82724,0.52171,0.00831,0.02489,1.0,0.0,-0.0,-0.0,4e-05,4e-05,-0.37765,-0.37765,-0.16191,-0.16191,0.05589,0.05589,-0.00063,-0.00063,0.02748,0.02748,220.0,220.0
1,30,0.6,-1e-05,-0.36476,-0.15649,0.05542,-0.00076,0.0267,0.82577,0.82433,0.82734,0.82576,0.8244,0.82724,0.52171,0.00831,0.02489,1.0,0.0,-0.0,-0.0,4e-05,4e-05,-0.39057,-0.39057,-0.16768,-0.16768,0.05697,0.05697,-0.00061,-0.00061,0.02934,0.02934,220.0,220.0
1,31,0.62,-1e-05,-0.37773,-0.16228,0.05654,-0.00074,0.02853,0.82577,0.82433,0.82734,0.82576,0.8244,0.82724,0.52171,0.00831,0.02489,1.0,0.0,-0.0,-0.0,4e-05,4e-05,-0.40351,-0.40351,-0.17343,-0.17343,0.05799,0.05799,-0.00059,-0.00059,0.03126,0.03126,220.0,220.0
1,32,0.64,-1e-05,-0.3907,-0.16806,0.0576,-0.00073,0.03042,0.82576,0.82433,0.82734,0.82576,0.8244,0.82724,0.52171,0.00831,0.02489,1.0,0.0,-0.0,-0.0,4e-05,4e-05,-0.41645,-0.41645,-0.17917,-0.17917,0.05894,0.05894,-0.00056,-0.00056,0.03323,0.03323,220.0,220.0
1,33,0.66,-0.0,-0.40369,-0.17382,0.05859,-0.00071,0.03236,0.82576,0.82433,0.82734,0.82576,0.8244,0.82724,0.52171,0.00831,0.02489,1.0,0.0,-0.0,-0.0,4e-05,4e-05,-0.42941,-0.42941,-0.18488,-0.18488,0.05983,0.05983,-0.00054,-0.00054,0.03525,0.03525,220.0,220.0
1,34,0.68,-0.0,-0.41668,-0.17956,0.05952,-0.00069,0.03436,0.82577,0.82433,0.82734,0.82576,0.8244,0.82724,0.52171,0.00831,0.02489,1.0,0.0,-0.0,-0.0,4e-05,4e-05,-0.44237,-0.44237,-0.19056,-0.19056,0.06065,0.06065,-0.00051,-0.00051,0.03732,0.03732,220.0,220.0
1,35,0.7,0.0,-0.42969,-0.18528,0.06038,-0.00067,0.0364,0.82577,0.82433,0.82734,0.82576,0.8244,0.82724,0.52171,0.00831,0.02489,1.0,0.0,-0.0,-0.0,5e-05,5e-05,-0.45535,-0.45535,-0.19622,-0.19622,0.06141,0.06141,-0.00047,-0.00047,0.03945,0.03945,220.0,220.0
1,36,0.72,0.0,-0.44271,-0.19097,0.06118,-0.00064,0.0385,0.82575,0.82432,0.82733,0.82575,0.82438,0.82723,0.52171,0.00831,0.02489,1.0,0.0,0.0,-0.0,5e-05,5e-05,-0.46834,-0.46834,-0.20185,-0.20185,0.0621,0.0621,-0.00044,-0.00044,0.04161,0.04161,220.0,220.0
1,37,0.74,1e-05,-0.45574,-0.19664,0.06191,-0.00061,0.04064,0.82576,0.82433,0.82734,0.82576,0.82439,0.82724,0.52171,0.00831,0.02489,1.0,0.0,-0.0,-0.0,5e-05,5e-05,-0.48135,-0.48135,-0.20745,-0.20745,0.06273,0.06273,-0.0004,-0.0004,0.04383,0.04383,220.0,220.0
1,38,0.76,1e-05,-0.46879,-0.20227,0.06258,-0.00058,0.04283,0.82575,0.82432,0.82733,0.82575,0.82438,0.82723,0.52171,0.00831,0.02489,1.0,0.0,0.0,-0.0,5e-05,5e-05,-0.49437,-0.49437,-0.21301,-0.21301,0.06329,0.06329,-0.00036,-0.00036,0.04608,0.04608,220.0,220.0
1,39,0.78,1e-05,-0.48186,-0.20788,0.06319,-0.00055,0.04506,0.82575,0.82432,0.82733,0.82575,0.82438,0.82723,0.52171,0.00831,0.02489,1.0,0.0,-0.0,-0.0,5e-05,5e-05,-0.50741,-0.50741,-0.21853,-0.21853,0.0638,0.0638,-0.00032,-0.00032,0.04838,0.04838,220.0,220.0
1,40,0.8,1e-05,-0.49494,-0.21345,0.06373,-0.00051,0.04734,0.82575,0.82432,0.82733,0.82575,0.82439,0.82723,0.52171,0.00831,0.02489,1.0,0.0,0.0,-0.0,6e-05,6e-05,-0.52046,-0.52046,-0.22402,-0.22402,0.06424,0.06424,-0.00027,-0.00027,0.05072,0.05072,220.0,220.0
1,41,0.82,2e-05,-0.50804,-0.21898,0.06421,-0.00047,0.04965,0.82575,0.82432,0.82733,0.82575,0.82438,0.82722,0.52171,0.00831,0.02489,1.0,0.0,-0.0,-0.0,6e-05,6e-05,-0.53354,-0.53354,-0.22947,-0.22947,0.06462,0.06462,-0.00023,-0.00023,0.05309,0.05309,220.0,220.0
1,42,0.84,2e-05,-0.52116,-0.22447,0.06464,-0.00043,0.052,0.82576,0.82433,0.82734,0.82576,0.82439,0.82723,0.52171,0.00831,0.02489,1.0,0.0,0.0,-0.0,6e-05,6e-05,-0.54663,-0.54663,-0.23488,-0.23488,0.06495,0.06495,-0.00018,-0.00018,0.05551,0.05551,220.0,220.0
1,43,0.86,2e-05,-0.5343,-0.22993,0.065,-0.00039,0.0544,0.82576,0.82433,0.82734,0.82576,0.82439,0.82723,0.52171,0.00831,0.02489,1.0,0.0,-0.0,-0.0,6e-05,6e-05,-0.55974,-0.55974,-0.24025,-0.24025,0.06521,0.06521,-0.00012,-0.00012,0.05795,0.05795,220.0,220.0
1,44,0.88,2e-05,-0.54746,-0.23535,0.0653,-0.00034,0.05682,0.82576,0.82433,0.82734,0.82575,0.82439,0.82723,0.52171,0.00831,0.02489,1.0,0.0,0.0,-0.0,6e-05,6e-05,-0.57287,-0.57287,-0.24558,-0.24558,0.06542,0.06542,-7e-05,-7e-05,0.06043,0.06043,220.0,220.0
1,45,0.9,3e-05,-0.56064,-0.24073,0.06555,-0.00029,0.05928,0.82577,0.82434,0.82735,0.82577,0.8244,0.82724,0.52171,0.00831,0.02489,1.0,0.0,-0.0,-0.0,7e-05,7e-05,-0.58602,-0.58602,-0.25086,-0.25086,0.06557,0.06557,-1e-05,-1e-05,0.06294,0.06294,220.0,220.0
1,46,0.92,3e-05,-0.57384,-0.24606,0.06574,-0.00024,0.06177,0.82576,0.82433,0.82734,0.82576,0.82439,0.82724,0.52171,0.00831,0.02489,1.0,0.0,0.0,-0.0,7e-05,7e-05,-0.59919,-0.59919,-0.25609,-0.25609,0.06567,0.06567,4e-05,4e-05,0.06548,0.06548,220.0,220.0
1,47,0.94,3e-05,-0.58706,-0.25135,0.06587,-0.00019,0.0643,0.82576,0.82433,0.82734,0.82576,0.82439,0.82724,0.52171,0.00831,0.02489,1.0,0.0,-0.0,-0.0,7e-05,7e-05,-0.61238,-0.61238,-0.26128,-0.26128,0.06572,0.06572,0.0001,0.0001,0.06805,0.06805,220.0,220.0
1,48,0.96,4e-05,-0.60031,-0.2566,0.06595,-0.00014,0.06685,0.82576,0.82433,0.82734,0.82575,0.82439,0.82723,0.52171,0.00831,0.02489,1.0,0.0,0.0,-0.0,8e-05,8e-05,-0.62559,-0.62559,-0.26643,-0.26643,0.06571,0.06571,0.00017,0.00017,0.07064,0.07064,220.0,220.0
1,49,0.98,4e-05,-0.61358,-0.2618,0.06598,-8e-05,0.06942,0.82576,0.82433,0.82734,0.82575,0.82439,0.82723,0.52171,0.00831,0.02489,1.0,0.0,-0.0,-0.0,8e-05,8e-05,-0.63882,-0.63882,-0.27153,-0.27153,0.06565,0.06565,0.00023,0.00023,0.07326,0.07326,220.0,220.0
1,50,1.0,5e-05,-0.62686,-0.26695,0.06596,-2e-05,0.07203,0.82576,0.82433,0.82734,0.82576,0.82439,0.82723,0.52171,0.00831,0.02489,1.0,0.0,0.0,-0.0,8e-05,8e-05,-0.65208,-0.65208,-0.27658,-0.27658,0.06555,0.06555,0.00029,0.00029,0.0759,0.0759,220.0,220.0
1,51,1.02,5e-05,-0.64018,-0.27206,0.06588,4e-05,0.07465,0.82576,0.82433,0.82734,0.82575,0.82439,0.82723,0.52171,0.00831,0.02489,1.0,0.0,-0.0,-0.0,9e-05,9e-05,-0.66535,-0.66535,-0.28158,-0.28158,0.06539,0.06539,0.00036,0.00036,0.07856,0.07856,220.0,220.0
1,52,1.04,6e-05,-0.65351,-0.27713,0.06576,0.0001,0.0773,0.82576,0.82433,0.82734,0.82576,0.82439,0.82723,0.52171,0.00831,0.02489,1.0,0.0,0.0,-0.0,9e-05,9e-05,-0.67865,-0.67865,-0.28654,-0.28654,0.06519,0.06519,0.00043,0.00043,0.08124,0.08124,220.0,220.0
1,53,1.06,6e-05,-0.66687,-0.28214,0.06559,0.00016,0.07997,0.82576,0.82433,0.82734,0.82576,0.82439,0.82723,0.52171,0.00831,0.02489,1.0,0.0,0.0,-0.0,9e-05,9e-05,-0.69197,-0.69197,-0.29145,-0.29145,0.06494,0.06494,0.0005,0.0005,0.08394,0.08394,220.0,220.0
1,54,1.08,6e-05,-0.68025,-0.28711,0.06538,0.00023,0.08266,0.82576,0.82433,0.82734,0.82576,0.82439,0.82723,0.52171,0.00831,0.02489,1.0,0.0,-0.0,-0.0,0.0001,0.0001,-0.70531,-0.70531,-0.29631,-0.29631,0.06465,0.06465,0.00057,0.00057,0.08666,0.08666,220.0,220.0
1,55,1.1,7e-05,-0.69365,-0.29204,0.06511,0.00029,0.08537,0.82576,0.82433,0.82734,0.82576,0.82439,0.82723,0.52171,0.00831,0.02489,1.0,0.0,0.0,-0.0,0.0001,0.0001,-0.71867,-0.71867,-0.30112,-0.30112,0.06432,0.06432,0.00064,0.00064,0.0894,0.0894,220.0,220.0
1,56,1.12,8e-05,-0.70708,-0.29691,0.06481,0.00036,0.0881,0.82576,0.82433,0.82734,0.82576,0.82439,0.82723,0.52171,0.00831,0.02489,1.0,0.0,0.0,-0.0,0.00011,0.00011,-0.73205,-0.73205,-0.30589,-0.30589,0.06394,0.06394,0.00072,0.00072,0.09215,0.09215,220.0,220.0
1,57,1.14,8e-05,-0.72052,-0.30174,0.06446,0.00043,0.09084,0.82576,0.82433,0.82734,0.82576,0.82439,0.82723,0.52171,0.00831,0.02489,1.0,0.0,-0.0,-0.0,0.00011,0.00011,-0.74546,-0.74546,-0.3106,-0.3106,0.06353,0.06353,0.00079,0.00079,0.09491,0.09491,220.0,220.0
1,58,1.16,9e-05,-0.734,-0.30652,0.06408,0.0005,0.09359,0.82576,0.82433,0.82734,0.82576,0.82439,0.82723,0.52171,0.00831,0.02489,1.0,0.0,0.0,-0.0,0.00012,0.00012,-0.75889,-0.75889,-0.31527,-0.31527,0.06307,0.06307,0.00087,0.00087,0.09769,0.09769,220.0,220.0
1,59,1.18,0.0001,-0.74749,-0.31126,0.06365,0.00057,0.09636,0.82576,0.82433,0.82735,0.82576,0.82439,0.82724,0.52171,0.00831,0.02489,1.0,0.0,-0.0,-0.0,0.00013,0.00013,-0.77233,-0.77233,-0.3199,-0.3199,0.06258,0.06258,0.00095,0.00095,0.10048,0.10048,220.0,220.0
1,60,1.2,0.0001,-0.76101,-0.31595,0.06318,0.00065,0.09915,0.82575,0.82432,0.82734,0.82575,0.82438,0.82723,0.52171,0.00831,0.02489,1.0,0.0,0.0,-0.0,0.00013,0.00013,-0.7858,-0.7858,-0.32447,-0.32447,0.06205,0.06205,0.00102,0.00102,0.10328,0.10328,220.0,220.0
1,61,1.22,0.00011,-0.77454,-0.32059,0.06268,0.00072,0.10194,0.82577,0.82434,0.82735,0.82576,0.82439,0.82724,0.52171,0.00831,0.02489,1.0,0.0,-0.0,-0.0,0.00014,0.00014,-0.79929,-0.79929,-0.329,-0.329,0.06148,0.06148,0.0011,0.0011,0.10609,0.10609,220.0,220.0
1,62,1.24,0.00012,-0.7881,-0.32518,0.06213,0.0008,0.10475,0.82576,0.82433,0.82734,0.82576,0.82439,0.82723,0.52171,0.00831,0.02489,1.0,0.0,0.0,-0.0,0.00015,0.00015,-0.8128,-0.8128,-0.33349,-0.33349,0.06088,0.06088,0.00119,0.00119,0.10891,0.10891,220.0,220.0
1,63,1.26,0.00013,-0.80169,-0.32974,0.06156,0.00087,0.10756,0.82577,0.82434,0.82735,0.82577,0.8244,0.82724,0.52171,0.00831,0.02489,1.0,0.0,-0.0,-0.0,0.00015,0.00015,-0.82634,-0.82634,-0.33792,-0.33792,0.06025,0.06025,0.00127,0.00127,0.11174,0.11174,220.0,220.0
1,64,1.28,0.00014,-0.81529,-0.33424,0.06095,0.00095,0.11038,0.82576,0.82433,0.82735,0.82576,0.82439,0.82723,0.52171,0.00831,0.02489,1.0,0.0,0.0,-0.0,0.00016,0.00016,-0.83989,-0.83989,-0.34232,-0.34232,0.05958,0.05958,0.00135,0.00135,0.11458,0.11458,220.0,220.0
1,65,1.3,0.00015,-0.82892,-0.3387,0.0603,0.00103,0.11321,0.82575,0.82432,0.82734,0.82575,0.82438,0.82723,0.52171,0.00831,0.02489,1.0,0.0,-0.0,-0.0,0.00017,0.00017,-0.85346,-0.85346,-0.34666,-0.34666,0.05888,0.05888,0.00143,0.00143,0.11742,0.11742,220.0,220.0
1,66,1.32,0.00016,-0.84257,-0.34312,0.05962,0.00111,0.11605,0.82576,0.82433,0.82734,0.82576,0.82439,0.82723,0.52171,0.00831,0.02489,1.0,0.0,0.0,-0.0,0.00018,0.00018,-0.86705,-0.86705,-0.35097,-0.35097,0.05815,0.05815,0.00152,0.00152,0.12027,0.12027,220.0,220.0
1,67,1.34,0.00017,-0.85623,-0.34749,0.05891,0.00119,0.1189,0.82576,0.82433,0.82734,0.82575,0.82438,0.82723,0.52171,0.00831,0.02489,1.0,0.0,-0.0,-0.0,0.00019,0.00019,-0.88066,-0.88066,-0.35523,-0.35523,0.05739,0.05739,0.0016,0.0016,0.12313,0.12313,220.0,220.0
1,68,1.36,0.00018,-0.86992,-0.35182,0.05818,0.00128,0.12175,0.82576,0.82433,0.82735,0.82576,0.82439,0.82723,0.52171,0.00831,0.02489,1.0,0.0,0.0,-0.0,0.0002,0.0002,-0.89429,-0.89429,-0.35944,-0.35944,0.0566,0.0566,0.00169,0.00169,0.12599,0.12599,220.0,220.0
1,69,1.38,0.00019,-0.88363,-0.3561,0.05741,0.00136,0.1246,0.82576,0.82434,0.82734,0.82576,0.82439,0.82723,0.52171,0.00831,0.02489,1.0,0.0,-0.0,-0.0,0.00022,0.00022,-0.90794,-0.90794,-0.36362,-0.36362,0.05578,0.05578,0.00178,0.00178,0.12885,0.12885,220.0,220.0
1,70,1.4,0.00021,-0.89736,-0.36034,0.05661,0.00144,0.12746,0.82576,0.82434,0.82735,0.82576,0.82439,0.82723,0.52171,0.00831,0.02489,1.0,0.0,-0.0,-0.0,0.00023,0.00023,-0.92161,-0.92161,-0.36775,-0.36775,0.05494,0.05494,0.00186,0.00186,0.13172,0.13172,220.0,220.0
1,71,1.42,0.00022,-0.91111,-0.36454,0.05578,0.00153,0.13033,0.82576,0.82433,0.82734,0.82575,0.82438,0.82723,0.52171,0.00831,0.02489,1.0,0.0,-0.0,-0.0,0.00025,0.00025,-0.9353,-0.9353,-0.37184,-0.37184,0.05407,0.05407,0.00195,0.00195,0.13459,0.13459,220.0,220.0
1,72,1.44,0.00024,-0.92488,-0.3687,0.05493,0.00161,0.1332,0.82577,0.82434,0.82735,0.82576,0.8244,0.82724,0.52171,0.00831,0.02489,1.0,0.0,-0.0,-0.0,0.00026,0.00026,-0.94901,-0.94901,-0.37588,-0.37588,0.05317,0.05317,0.00204,0.00204,0.13746,0.13746,220.0,220.0
1,73,1.46,0.00026,-0.93867,-0.37282,0.05405,0.0017,0.13607,0.82576,0.82433,0.82734,0.82575,0.82438,0.82723,0.52171,0.00831,0.02489,1.0,0.0,-0.0,-0.0,0.00028,0.00028,-0.96273,-0.96273,-0.37989,-0.37989,0.05225,0.05225,0.00213,0.00213,0.14033,0.14033,220.0,220.0
1,74,1.48,0.00028,-0.95248,-0.37689,0.05315,0.00178,0.13894,0.82577,0.82434,0.82735,0.82576,0.82439,0.82723,0.52171,0.00831,0.02489,1.0,0.0,-0.0,-0.0,0.0003,0.0003,-0.97647,-0.97647,-0.38386,-0.38386,0.05131,0.05131,0.00222,0.00222,0.14321,0.14321,220.0,220.0
1,75,1.5,0.0003,-0.96631,-0.38093,0.05222,0.00187,0.14181,0.82576,0.82434,0.82735,0.82576,0.82439,0.82723,0.52171,0.00831,0.02489,1.0,0.0,0.0,-0.0,0.00032,0.00032,-0.99023,-0.99023,-0.38778,-0.38778,0.05034,0.05034,0.00231,0.00231,0.14609,0.14609,220.0,220.0
1,76,1.52,0.00032,-0.98015,-0.38492,0.05126,0.00196,0.14469,0.82576,0.82433,0.82734,0.82576,0.82439,0.82723,0.52171,0.00831,0.02489,1.0,0.0,0.0,-0.0,0.00035,0.00035,-1.004,-1.004,-0.39167,-0.39167,0.04934,0.04934,0.0024,0.0024,0.14896,0.14896,220.0,220.0
1,77,1.54,0.00035,-0.99401,-0.38888,0.05029,0.00205,0.14757,0.82576,0.82433,0.82734,0.82576,0.82438,0.82723,0.52171,0.00831,0.02489,1.0,0.0,-0.0,-0.0,0.00037,0.00037,-1.0178,-1.0178,-0.39552,-0.39552,0.04833,0.04833,0.00249,0.00249,0.15184,0.15184,220.0,220.0
1,78,1.56,0.00038,-1.0079,-0.3928,0.04929,0.00213,0.15044,0.82577,0.82434,0.82735,0.82576,0.82439,0.82724,0.52171,0.00831,0.02489,1.0,0.0,0.0,-0.0,0.0004,0.0004,-1.03161,-1.03161,-0.39933,-0.39933,0.04729,0.04729,0.00258,0.00258,0.15472,0.15472,220.0,220.0
1,79,1.58,0.00041,-1.02179,-0.39668,0.04827,0.00222,0.15332,0.82577,0.82434,0.82735,0.82576,0.82439,0.82724,0.52171,0.00831,0.02489,1.0,0.0,-0.0,-0.0,0.00043,0.00043,-1.04543,-1.04543,-0.4031,-0.4031,0.04624,0.04624,0.00267,0.00267,0.1576,0.1576,220.0,220.0
1,80,1.6,0.00044,-1.03571,-0.40052,0.04722,0.00231,0.1562,0.82576,0.82433,0.82734,0.82576,0.82438,0.82723,0.52171,0.00831,0.02489,1.0,0.0,0.0,-0.0,0.00047,0.00047,-1.05927,-1.05927,-0.40683,-0.40683,0.04516,0.04516,0.00276,0.00276,0.16048,0.16048,220.0,220.0
1,81,1.62,0.00048,-1.04964,-0.40432,0.04616,0.0024,0.15908,0.82575,0.82433,0.82734,0.82575,0.82438,0.82722,0.52171,0.00831,0.02489,1.0,0.0,0.0,-0.0,0.00051,0.00051,-1.07313,-1.07313,-0.41053,-0.41053,0.04406,0.04406,0.00285,0.00285,0.16335,0.16335,220.0,220.0
1,82,1.64,0.00052,-1.06359,-0.40809,0.04507,0.00249,0.16195,0.82576,0.82433,0.82734,0.82575,0.82438,0.82722,0.52171,0.00831,0.02489,1.0,0.0,-0.0,-0.0,0.00055,0.00055,-1.087,-1.087,-0.41419,-0.41419,0.04294,0.04294,0.00294,0.00294,0.16622,0.16622,220.0,220.0
1,83,1.66,0.00056,-1.07755,-0.41182,0.04396,0.00258,0.16482,0.82576,0.82434,0.82735,0.82576,0.82439,0.82723,0.52171,0.00831,0.02489,1.0,0.0,0.0,-0.0,0.0006,0.0006,-1.10089,-1.10089,-0.41781,-0.41781,0.0418,0.0418,0.00302,0.00302,0.1691,0.1691,220.0,220.0
1,84,1.68,0.00061,-1.09154,-0.41551,0.04284,0.00266,0.1677,0.82576,0.82433,0.82734,0.82575,0.82438,0.82722,0.52171,0.00831,0.02489,1.0,0.0,-0.0,-0.0,0.00065,0.00065,-1.11479,-1.11479,-0.4214,-0.4214,0.04065,0.04065,0.00311,0.00311,0.17197,0.17197,220.0,220.0
1,85,1.7,0.00067,-1.10553,-0.41917,0.04169,0.00275,0.17057,0.82576,0.82433,0.82734,0.82575,0.82438,0.82723,0.52171,0.00831,0.02489,1.0,0.0,-0.0,-0.0,0.00072,0.00072,-1.1287,-1.1287,-0.42496,-0.42496,0.03947,0.03947,0.0032,0.0032,0.17483,0.17483,220.0,220.0
1,86,1.72,0.00073,-1.11954,-0.42279,0.04052,0.00284,0.17343,0.82577,0.82434,0.82735,0.82576,0.82439,0.82723,0.52171,0.00831,0.02489,1.0,0.0,0.0,-0.0,0.00079,0.00079,-1.14263,-1.14263,-0.42847,-0.42847,0.03827,0.03827,0.00328,0.00328,0.1777,0.1777,220.0,220.0
1,87,1.74,0.0008,-1.13357,-0.42638,0.03934,0.00292,0.1763,0.82577,0.82434,0.82735,0.82577,0.82439,0.82724,0.52171,0.00831,0.02489,1.0,0.0,-0.0,-0.0,0.00087,0.00087,-1.15657,-1.15657,-0.43195,-0.43195,0.03706,0.03706,0.00337,0.00337,0.18056,0.18056,220.0,220.0
1,88,1.76,0.00088,-1.1476,-0.42993,0.03814,0.003,0.17916,0.82576,0.82433,0.82734,0.82575,0.82438,0.82723,0.52171,0.00831,0.02489,1.0,0.0,0.0,-0.0,0.00096,0.00096,-1.17052,-1.17052,-0.4354,-0.4354,0.03583,0.03583,0.00345,0.00345,0.18341,0.18341,220.0,220.0
1,89,1.78,0.00097,-1.16166,-0.43345,0.03691,0.00308,0.18202,0.82576,0.82433,0.82734,0.82575,0.82438,0.82722,0.52171,0.00831,0.02489,1.0,0.0,-0.0,-0.0,0.00106,0.00106,-1.18449,-1.18449,-0.43881,-0.43881,0.03458,0.03458,0.00352,0.00352,0.18627,0.18627,220.0,220.0
1,90,1.8,0.00107,-1.17572,-0.43693,0.03567,0.00316,0.18487,0.82577,0.82434,0.82735,0.82577,0.82439,0.82724,0.52171,0.00831,0.02489,1.0,0.0,0.0,-0.0,0.00118,0.00118,-1.19846,-1.19846,-0.44219,-0.44219,0.03331,0.03331,0.0036,0.0036,0.18912,0.18912,220.0,220.0
1,91,1.82,0.00119,-1.1898,-0.44037,0.03441,0.00324,0.18772,0.82577,0.82434,0.82735,0.82576,0.82439,0.82724,0.52171,0.00831,0.02489,1.0,0.0,-0.0,-0.0,0.00132,0.00132,-1.21245,-1.21245,-0.44553,-0.44553,0.03202,0.03202,0.00367,0.00367,0.19196,0.19196,220.0,220.0
1,92,1.84,0.00133,-1.20388,-0.44379,0.03313,0.00331,0.19057,0.82578,0.82435,0.82736,0.82577,0.8244,0.82725,0.52171,0.00831,0.02489,1.0,0.0,0.0,-0.0,0.00147,0.00147,-1.22645,-1.22645,-0.44884,-0.44884,0.03071,0.03071,0.00373,0.00373,0.1948,0.1948,220.0,220.0
1,93,1.86,0.00148,-1.21798,-0.44716,0.03183,0.00337,0.19341,0.82577,0.82434,0.82735,0.82576,0.82439,0.82723,0.52171,0.00831,0.02489,1.0,0.0,0.0,-0.0,0.00166,0.00166,-1.24045,-1.24045,-0.45211,-0.45211,0.02938,0.02938,0.00379,0.00379,0.19763,0.19763,220.0,220.0
1,94,1.88,0.00166,-1.23209,-0.4505,0.03051,0.00343,0.19624,0.82576,0.82433,0.82734,0.82575,0.82438,0.82723,0.52171,0.00831,0.02489,1.0,0.0,0.0,-0.0,0.00187,0.00187,-1.25447,-1.25447,-0.45535,-0.45535,0.02803,0.02803,0.00383,0.00383,0.20045,0.20045,220.0,220.0
1,95,1.9,0.00187,-1.2462,-0.45381,0.02917,0.00347,0.19906,0.82575,0.82432,0.82733,0.82575,0.82437,0.82722,0.52171,0.00831,0.02489,1.0,0.0,0.0,-0.0,0.00213,0.00213,-1.26849,-1.26849,-0.45855,-0.45855,0.02666,0.02666,0.00387,0.00387,0.20326,0.20326,220.0,220.0
1,96,1.92,0.00212,-1.26033,-0.45707,0.02781,0.00351,0.20188,0.82576,0.82434,0.82735,0.82576,0.82439,0.82723,0.52171,0.00831,0.02489,1.0,0.0,-0.0,-0.0,0.00242,0.00242,-1.28251,-1.28251,-0.46171,-0.46171,0.02526,0.02526,0.00388,0.00388,0.20607,0.20607,220.0,220.0
1,97,1.94,0.00241,-1.27445,-0.46031,0.02642,0.00353,0.20469,0.82576,0.82434,0.82735,0.82576,0.82439,0.82723,0.52171,0.00831,0.02489,1.0,0.0,0.0,-0.0,0.00277,0.00277,-1.29653,-1.29653,-0.46483,-0.46483,0.02384,0.02384,0.00389,0.00389,0.20886,0.20886,220.0,220.0
1,98,1.96,0.00275,-1.28858,-0.4635,0.02501,0.00354,0.20748,0.82577,0.82434,0.82735,0.82577,0.8244,0.82724,0.52171,0.00831,0.02489,1.0,0.0,0.0,-0.0,0.00319,0.00319,-1.31056,-1.31056,-0.46792,-0.46792,0.0224,0.0224,0.00386,0.00386,0.21164,0.21164,220.0,220.0
1,99,1.98,0.00315,-1.30272,-0.46666,0.02357,0.00352,0.21027,0.82576,0.82433,0.82734,0.82576,0.82439,0.82723,0.52171,0.00831,0.02489,1.0,0.0,0.0,-0.0,0.00368,0.00368,-1.32458,-1.32458,-0.47097,-0.47097,0.02093,0.02093,0.00381,0.00381,0.2144,0.2144,220.0,220.0
1,100,2.0,0.00362,-1.31684,-0.46977,0.02211,0.00348,0.21304,0.82576,0.82434,0.82735,0.82577,0.8244,0.82723,0.52171,0.00831,0.02489,1.0,0.0,0.0,-0.0,0.00426,0.00426,-1.33859,-1.33859,-0.47398,-0.47398,0.01943,0.01943,0.00372,0.00372,0.21715,0.21715,220.0,220.0
1,101,2.02,0.00418,-1.33097,-0.47286,0.02062,0.0034,0.21579,0.82577,0.82434,0.82736,0.82577,0.8244,0.82724,0.52171,0.00831,0.02489,1.0,0.0,-0.0,-0.0,0.00494,0.00494,-1.3526,-1.3526,-0.47695,-0.47695,0.0179,0.0179,0.00359,0.00359,0.21988,0.21988,220.0,220.0
1,102,2.04,0.00483,-1.34508,-0.4759,0.01911,0.00328,0.21853,0.82576,0.82433,0.82734,0.82576,0.8244,0.82723,0.52171,0.00831,0.02489,1.0,0.0,0.0,-0.0,0.00572,0.00572,-1.36658,-1.36658,-0.4799,-0.4799,0.01635,0.01635,0.00341,0.00341,0.22259,0.22259,220.0,220.0
1,103,2.06,0.00557,-1.35918,-0.47892,0.01757,0.00312,0.22125,0.82575,0.82432,0.82734,0.82576,0.82439,0.82723,0.52171,0.00831,0.02489,1.0,0.0,-0.0,-0.0,0.0066,0.0066,-1.38056,-1.38056,-0.48281,-0.48281,0.01477,0.01477,0.00318,0.00318,0.22529,0.22529,220.0,220.0
1,104,2.08,0.0064,-1.37327,-0.48191,0.01601,0.0029,0.22395,0.82576,0.82433,0.82735,0.82577,0.82441,0.82724,0.52171,0.00831,0.02489,1.0,0.0,0.0,-0.0,0.00756,0.00756,-1.39452,-1.39452,-0.48572,-0.48572,0.01319,0.01319,0.0029,0.0029,0.22796,0.22796,220.0,220.0
1,105,2.1,0.00729,-1.38734,-0.48489,0.01444,0.00265,0.22663,0.82575,0.82432,0.82734,0.82576,0.8244,0.82723,0.52171,0.00831,0.02489,1.0,0.0,-0.0,-0.0,0.00854,0.00854,-1.40847,-1.40847,-0.48863,-0.48863,0.01162,0.01162,0.00257,0.00257,0.23063,0.23063,220.0,220.0
1,106,2.12,0.00819,-1.40142,-0.48786,0.01288,0.00236,0.22931,0.82575,0.82432,0.82735,0.82577,0.8244,0.82723,0.52171,0.00831,0.02489,1.0,0.0,0.0,-0.0,0.00945,0.00945,-1.42243,-1.42243,-0.49155,-0.49155,0.01008,0.01008,0.00223,0.00223,0.23328,0.23328,220.0,220.0
1,107,2.14,0.00903,-1.41551,-0.49085,0.01136,0.00206,0.23198,0.82574,0.8243,0.82734,0.82576,0.8244,0.82722,0.52171,0.00831,0.02489,1.0,0.0,-0.0,-0.0,0.01018,0.01018,-1.43643,-1.43643,-0.49451,-0.49451,0.0086,0.0086,0.00192,0.00192,0.23594,0.23594,220.0,220.0
1,108,2.16,0.0097,-1.42963,-0.49385,0.00989,0.00178,0.23464,0.82575,0.82431,0.82735,0.82577,0.82441,0.82722,0.52171,0.00831,0.02489,1.0,0.0,-0.0,-0.0,0.01062,0.01062,-1.4505,-1.4505,-0.4975,-0.4975,0.00722,0.00722,0.00168,0.00168,0.23861,0.23861,220.0,220.0
1,109,2.18,0.01014,-1.44381,-0.49688,0.0085,0.00158,0.23732,0.82574,0.8243,0.82734,0.82576,0.8244,0.82721,0.52171,0.00831,0.02489,1.0,0.0,0.0,-0.0,0.01069,0.01069,-1.46467,-1.46467,-0.50051,-0.50051,0.00594,0.00594,0.00157,0.00157,0.24129,0.24129,220.0,220.0
1,110,2.2,0.01028,-1.45806,-0.49992,0.00718,0.00146,0.24,0.82575,0.82431,0.82735,0.82576,0.82441,0.82722,0.52171,0.00831,0.02489,1.0,0.0,-0.0,-0.0,0.01038,0.01038,-1.47893,-1.47893,-0.50353,-0.50353,0.00475,0.00475,0.0016,0.0016,0.244,0.244,220.0,220.0
1,111,2.22,0.01011,-1.4724,-0.50298,0.00594,0.00146,0.24271,0.82574,0.82431,0.82735,0.82576,0.8244,0.82721,0.52171,0.00831,0.02489,1.0,0.0,0.0,-0.0,0.00977,0.00977,-1.49328,-1.49328,-0.50655,-0.50655,0.00362,0.00362,0.00176,0.00176,0.24672,0.24672,220.0,220.0
1,112,2.24,0.00969,-1.48682,-0.50603,0.00474,0.00157,0.24543,0.82575,0.82432,0.82735,0.82577,0.82441,0.82722,0.52171,0.00831,0.02489,1.0,0.0,-0.0,-0.0,0.00896,0.00896,-1.50769,-1.50769,-0.50954,-0.50954,0.00249,0.00249,0.00202,0.00202,0.24948,0.24948,220.0,220.0
1,113,2.26,0.00908,-1.50129,-0.50907,0.00356,0.00176,0.24818,0.82576,0.82432,0.82736,0.82577,0.82441,0.82723,0.52171,0.00831,0.02489,1.0,0.0,0.0,-0.0,0.00808,0.00808,-1.52213,-1.52213,-0.51251,-0.51251,0.00135,0.00135,0.00235,0.00235,0.25226,0.25226,220.0,220.0
1,114,2.28,0.00836,-1.51581,-0.51209,0.00238,0.00203,0.25095,0.82575,0.82432,0.82735,0.82576,0.8244,0.82722,0.52171,0.00831,0.02489,1.0,0.0,0.0,-0.0,0.0072,0.0072,-1.53659,-1.53659,-0.51544,-0.51544,0.00016,0.00016,0.0027,0.0027,0.25506,0.25506,220.0,220.0
1,115,2.3,0.00759,-1.53034,-0.51508,0.00117,0.00233,0.25373,0.82575,0.82432,0.82735,0.82576,0.8244,0.82722,0.52171,0.00831,0.02489,1.0,0.0,-0.0,-0.0,0.00638,0.00638,-1.55104,-1.55104,-0.51833,-0.51833,-0.00108,-0.00108,0.00306,0.00306,0.25787,0.25787,220.0,220.0
1,116,2.32,0.00684,-1.54489,-0.51804,-7e-05,0.00265,0.25653,0.82576,0.82433,0.82735,0.82577,0.82441,0.82723,0.52171,0.00831,0.02489,1.0,0.0,-0.0,-0.0,0.00564,0.00564,-1.56548,-1.56548,-0.52119,-0.52119,-0.00237,-0.00237,0.00341,0.00341,0.26068,0.26068,220.0,220.0
1,117,2.34,0.00613,-1.55944,-0.52096,-0.00135,0.00297,0.25933,0.82575,0.82432,0.82734,0.82576,0.8244,0.82722,0.52171,0.00831,0.02489,1.0,0.0,0.0,-0.0,0.00499,0.00499,-1.57992,-1.57992,-0.52401,-0.52401,-0.0037,-0.0037,0.00373,0.00373,0.26349,0.26349,220.0,220.0
1,118,2.36,0.00548,-1.57399,-0.52384,-0.00267,0.00329,0.26213,0.82575,0.82432,0.82735,0.82576,0.8244,0.82723,0.52171,0.00831,0.02489,1.0,0.0,0.0,-0.0,0.00443,0.00443,-1.59434,-1.59434,-0.52679,-0.52679,-0.00507,-0.00507,0.00404,0.00404,0.2663,0.2663,220.0,220.0
1,119,2.38,0.0049,-1.58852,-0.5267,-0.00402,0.00359,0.26493,0.82575,0.82432,0.82735,0.82576,0.8244,0.82723,0.52171,0.00831,0.02489,1.0,0.0,-0.0,-0.0,0.00395,0.00395,-1.60876,-1.60876,-0.52955,-0.52955,-0.00647,-0.00647,0.00432,0.00432,0.26909,0.26909,220.0,220.0
1,120,2.4,0.00438,-1.60306,-0.52952,-0.0054,0.00388,0.26773,0.82575,0.82432,0.82735,0.82576,0.8244,0.82723,0.52171,0.00831,0.02489,1.0,0.0,0.0,-0.0,0.00353,0.00353,-1.62317,-1.62317,-0.53227,-0.53227,-0.00789,-0.00789,0.00458,0.00458,0.27188,0.27188,220.0,220.0
1,121,2.42,0.00393,-1.61758,-0.5323,-0.00682,0.00416,0.27051,0.82574,0.82431,0.82733,0.82575,0.82439,0.82722,0.52171,0.00831,0.02489,1.0,0.0,-0.0,-0.0,0.00318,0.00318,-1.63758,-1.63758,-0.53496,-0.53496,-0.00934,-0.00934,0.00482,0.00482,0.27466,0.27466,220.0,220.0
1,122,2.44,0.00353,-1.63211,-0.53506,-0.00825,0.00441,0.27329,0.82575,0.82431,0.82734,0.82576,0.8244,0.82722,0.52171,0.00831,0.02489,1.0,0.0,0.0,-0.0,0.00287,0.00287,-1.65199,-1.65199,-0.53763,-0.53763,-0.01081,-0.01081,0.00505,0.00505,0.27742,0.27742,220.0,220.0
1,123,2.46,0.00319,-1.64663,-0.53779,-0.00971,0.00465,0.27606,0.82575,0.82432,0.82735,0.82576,0.8244,0.82723,0.52171,0.00831,0.02489,1.0,0.0,-0.0,-0.0,0.0026,0.0026,-1.66639,-1.66639,-0.54027,-0.54027,-0.01229,-0.01229,0.00526,0.00526,0.28018,0.28018,220.0,220.0
1,124,2.48,0.00289,-1.66115,-0.54049,-0.01119,0.00487,0.27882,0.82575,0.82432,0.82734,0.82576,0.82441,0.82723,0.52171,0.00831,0.02489,1.0,0.0,0.0,-0.0,0.00237,0.00237,-1.6808,-1.6808,-0.54288,-0.54288,-0.01379,-0.01379,0.00546,0.00546,0.28293,0.28293,220.0,220.0
1,125,2.5,0.00263,-1.67567,-0.54316,-0.01268,0.00508,0.28157,0.82575,0.82432,0.82734,0.82576,0.8244,0.82723,0.52171,0.00831,0.02489,1.0,0.0,0.0,-0.0,0.00217,0.00217,-1.69521,-1.69521,-0.54547,-0.54547,-0.0153,-0.0153,0.00565,0.00565,0.28566,0.28566,220.0,220.0
1,126,2.52,0.00241,-1.69019,-0.54582,-0.01419,0.00528,0.28432,0.82575,0.82432,0.82735,0.82576,0.8244,0.82723,0.52171,0.00831,0.02489,1.0,0.0,-0.0,-0.0,0.002,0.002,-1.70962,-1.70962,-0.54804,-0.54804,-0.01682,-0.01682,0.00583,0.00583,0.28839,0.28839,220.0,220.0
1,127,2.54,0.00221,-1.70471,-0.54844,-0.0157,0.00547,0.28705,0.82576,0.82432,0.82735,0.82577,0.82441,0.82724,0.52171,0.00831,0.02489,1.0,0.0,0.0,-0.0,0.00184,0.00184,-1.72404,-1.72404,-0.55059,-0.55059,-0.01835,-0.01835,0.006,0.006,0.29111,0.29111,220.0,220.0
1,128,2.56,0.00204,-1.71923,-0.55105,-0.01723,0.00565,0.28977,0.82576,0.82432,0.82735,0.82577,0.82441,0.82724,0.52171,0.00831,0.02489,1.0,0.0,-0.0,-0.0,0.0017,0.0017,-1.73846,-1.73846,-0.55312,-0.55312,-0.01989,-0.01989,0.00616,0.00616,0.29382,0.29382,220.0,220.0
1,129,2.58,0.00188,-1.73376,-0.55363,-0.01877,0.00583,0.29249,0.82574,0.82431,0.82734,0.82576,0.8244,0.82722,0.52171,0.00831,0.02489,1.0,0.0,0.0,-0.0,0.00158,0.00158,-1.75288,-1.75288,-0.55563,-0.55563,-0.02143,-0.02143,0.00632,0.00632,0.29653,0.29653,220.0,220.0
1,130,2.6,0.00175,-1.74829,-0.55619,-0.02032,0.00599,0.2952,0.82576,0.82432,0.82735,0.82577,0.82441,0.82724,0.52171,0.00831,0.02489,1.0,0.0,0.0,-0.0,0.00148,0.00148,-1.76731,-1.76731,-0.55812,-0.55812,-0.02298,-0.02298,0.00647,0.00647,0.29922,0.29922,220.0,220.0
1,131,2.62,0.00163,-1.76282,-0.55874,-0.02187,0.00615,0.2979,0.82575,0.82432,0.82735,0.82577,0.82441,0.82723,0.52171,0.00831,0.02489,1.0,0.0,-0.0,-0.0,0.00138,0.00138,-1.78175,-1.78175,-0.56059,-0.56059,-0.02454,-0.02454,0.00662,0.00662,0.30191,0.30191,220.0,220.0
1,132,2.64,0.00152,-1.77736,-0.56126,-0.02343,0.00631,0.30059,0.82575,0.82431,0.82735,0.82576,0.8244,0.82723,0.52171,0.00831,0.02489,1.0,0.0,0.0,-0.0,0.00129,0.00129,-1.79619,-1.79619,-0.56304,-0.56304,-0.0261,-0.0261,0.00676,0.00676,0.3046,0.3046,220.0,220.0
1,133,2.66,0.00143,-1.79191,-0.56376,-0.025,0.00646,0.30328,0.82575,0.82432,0.82734,0.82576,0.82441,0.82723,0.52171,0.00831,0.02489,1.0,0.0,-0.0,-0.0,0.00121,0.00121,-1.81063,-1.81063,-0.56547,-0.56547,-0.02767,-0.02767,0.0069,0.0069,0.30727,0.30727,220.0,220.0
1,134,2.68,0.00134,-1.80646,-0.56624,-0.02657,0.0066,0.30596,0.82576,0.82433,0.82736,0.82577,0.82441,0.82724,0.52171,0.00831,0.02489,1.0,0.0,0.0,-0.0,0.00114,0.00114,-1.82508,-1.82508,-0.56788,-0.56788,-0.02925,-0.02925,0.00703,0.00703,0.30994,0.30994,220.0,220.0
1,135,2.7,0.00126,-1.82101,-0.56871,-0.02815,0.00675,0.30863,0.82575,0.82431,0.82735,0.82576,0.8244,0.82723,0.52171,0.00831,0.02489,1.0,0.0,0.0,-0.0,0.00108,0.00108,-1.83954,-1.83954,-0.57028,-0.57028,-0.03083,-0.03083,0.00716,0.00716,0.3126,0.3126,220.0,220.0
1,136,2.72,0.00119,-1.83557,-0.57115,-0.02974,0.00689,0.31129,0.82575,0.82432,0.82735,0.82577,0.82441,0.82723,0.52171,0.00831,0.02489,1.0,0.0,-0.0,-0.0,0.00102,0.00102,-1.854,-1.854,-0.57266,-0.57266,-0.03241,-0.03241,0.00729,0.00729,0.31526,0.31526,220.0,220.0
1,137,2.74,0.00113,-1.85013,-0.57358,-0.03132,0.00702,0.31395,0.82576,0.82432,0.82735,0.82577,0.82441,0.82723,0.52171,0.00831,0.02489,1.0,0.0,0.0,-0.0,0.00097,0.00097,-1.86847,-1.86847,-0.57502,-0.57502,-0.034,-0.034,0.00742,0.00742,0.3179,0.3179,220.0,220.0
1,138,2.76,0.00107,-1.8647,-0.57599,-0.03292,0.00716,0.3166,0.82576,0.82433,0.82735,0.82577,0.82441,0.82724,0.52171,0.00831,0.02489,1.0,0.0,0.0,-0.0,0.00092,0.00092,-1.88295,-1.88295,-0.57736,-0.57736,-0.03559,-0.03559,0.00755,0.00755,0.32055,0.32055,220.0,220.0
1,139,2.78,0.00102,-1.87928,-0.57839,-0.03452,0.00729,0.31925,0.82574,0.82431,0.82734,0.82576,0.8244,0.82722,0.52171,0.00831,0.02489,1.0,0.0,0.0,-0.0,0.00088,0.00088,-1.89743,-1.89743,-0.57969,-0.57969,-0.03719,-0.03719,0.00767,0.00767,0.32318,0.32318,220.0,220.0
1,140,2.8,0.00097,-1.89386,-0.58076,-0.03612,0.00742,0.32189,0.82575,0.82431,0.82735,0.82576,0.8244,0.82723,0.52171,0.00831,0.02489,1.0,0.0,-0.0,-0.0,0.00084,0.00084,-1.91191,-1.91191,-0.58201,-0.58201,-0.03879,-0.03879,0.00779,0.00779,0.32581,0.32581,220.0,220.0
1,141,2.82,0.00093,-1.90844,-0.58312,-0.03773,0.00754,0.32452,0.82576,0.82433,0.82736,0.82577,0.82441,0.82724,0.52171,0.00831,0.02489,1.0,0.0,0.0,-0.0,0.0008,0.0008,-1.92641,-1.92641,-0.5843,-0.5843,-0.0404,-0.0404,0.00791,0.00791,0.32844,0.32844,220.0,220.0
1,142,2.84,0.00089,-1.92303,-0.58546,-0.03934,0.00767,0.32715,0.82575,0.82432,0.82735,0.82576,0.8244,0.82723,0.52171,0.00831,0.02489,1.0,0.0,-0.0,-0.0,0.00077,0.00077,-1.94091,-1.94091,-0.58658,-0.58658,-0.042,-0.042,0.00803,0.00803,0.33106,0.33106,220.0,220.0
1,143,2.86,0.00085,-1.93763,-0.58779,-0.04095,0.0078,0.32977,0.82575,0.82432,0.82734,0.82576,0.8244,0.82723,0.52171,0.00831,0.02489,1.0,0.0,0.0,-0.0,0.00073,0.00073,-1.95541,-1.95541,-0.58885,-0.58885,-0.04362,-0.04362,0.00815,0.00815,0.33367,0.33367,220.0,220.0
1,144,2.88,0.00082,-1.95223,-0.5901,-0.04257,0.00792,0.33239,0.82575,0.82432,0.82735,0.82577,0.82441,0.82723,0.52171,0.00831,0.02489,1.0,0.0,-0.0,-0.0,0.0007,0.0007,-1.96992,-1.96992,-0.5911,-0.5911,-0.04523,-0.04523,0.00826,0.00826,0.33627,0.33627,220.0,220.0
1,145,2.9,0.00079,-1.96684,-0.59239,-0.0442,0.00804,0.335,0.82576,0.82432,0.82735,0.82577,0.82441,0.82724,0.52171,0.00831,0.02489,1.0,0.0,0.0,-0.0,0.00068,0.00068,-1.98444,-1.98444,-0.59334,-0.59334,-0.04685,-0.04685,0.00838,0.00838,0.33887,0.33887,220.0,220.0
1,146,2.92,0.00076,-1.98145,-0.59467,-0.04582,0.00816,0.3376,0.82575,0.82431,0.82735,0.82576,0.8244,0.82723,0.52171,0.00831,0.02489,1.0,0.0,-0.0,-0.0,0.00065,0.00065,-1.99896,-1.99896,-0.59556,-0.59556,-0.04847,-0.04847,0.00849,0.00849,0.34147,0.34147,220.0,220.0
1,147,2.94,0.00073,-1.99606,-0.59693,-0.04745,0.00828,0.3402,0.82575,0.82432,0.82735,0.82577,0.82441,0.82723,0.52171,0.00831,0.02489,1.0,0.0,0.0,-0.0,0.00063,0.00063,-2.01349,-2.01349,-0.59776,-0.59776,-0.0501,-0.0501,0.0086,0.0086,0.34406,0.34406,220.0,220.0
1,148,2.96,0.0007,-2.01069,-0.59918,-0.04908,0.0084,0.34279,0.82576,0.82433,0.82736,0.82577,0.82442,0.82724,0.52171,0.00831,0.02489,1.0,0.0,-0.0,-0.0,0.0006,0.0006,-2.02803,-2.02803,-0.59995,-0.59995,-0.05172,-0.05172,0.00872,0.00872,0.34664,0.34664,220.0,220.0
1,149,2.98,0.00068,-2.02531,-0.60141,-0.05072,0.00852,0.34538,0.82575,0.82432,0.82735,0.82577,0.82441,0.82723,0.52171,0.00831,0.02489,1.0,0.0,0.0,-0.0,0.00058,0.00058,-2.04257,-2.04257,-0.60213,-0.60213,-0.05335,-0.05335,0.00883,0.00883,0.34922,0.34922,220.0,220.0
1,150,3.0,0.00066,-2.03994,-0.60362,-0.05236,0.00864,0.34796,0.82575,0.82431,0.82734,0.82576,0.8244,0.82722,0.52171,0.00831,0.02489,1.0,0.0,-0.0,-0.0,0.00056,0.00056,-2.05711,-2.05711,-0.60429,-0.60429,-0.05499,-0.05499,0.00894,0.00894,0.35179,0.35179,220.0,220.0
1,151,3.02,0.00064,-2.05458,-0.60582,-0.054,0.00876,0.35053,0.82576,0.82433,0.82736,0.82577,0.82441,0.82724,0.52171,0.00831,0.02489,1.0,0.0,0.0,-0.0,0.00055,0.00055,-2.07166,-2.07166,-0.60644,-0.60644,-0.05662,-0.05662,0.00905,0.00905,0.35436,0.35436,220.0,220.0
1,152,3.04,0.00062,-2.06922,-0.60801,-0.05564,0.00887,0.3531,0.82575,0.82432,0.82735,0.82577,0.8244,0.82723,0.52171,0.00831,0.02489,1.0,0.0,-0.0,-0.0,0.00053,0.00053,-2.08622,-2.08622,-0.60857,-0.60857,-0.05826,-0.05826,0.00916,0.00916,0.35692,0.35692,220.0,220.0
1,153,3.06,0.0006,-2.08387,-0.61018,-0.05729,0.00899,0.35566,0.82576,0.82432,0.82736,0.82577,0.82441,0.82724,0.52171,0.00831,0.02489,1.0,0.0,-0.0,-0.0,0.00051,0.00051,-2.10079,-2.10079,-0.61069,-0.61069,-0.0599,-0.0599,0.00927,0.00927,0.35948,0.35948,220.0,220.0
1,154,3.08,0.00058,-2.09852,-0.61233,-0.05894,0.0091,0.35822,0.82575,0.82432,0.82735,0.82577,0.82441,0.82723,0.52171,0.00831,0.02489,1.0,0.0,0.0,-0.0,0.0005,0.0005,-2.11535,-2.11535,-0.6128,-0.6128,-0.06155,-0.06155,0.00938,0.00938,0.36203,0.36203,220.0,220.0
1,155,3.1,0.00057,-2.11317,-0.61448,-0.06059,0.00922,0.36078,0.82575,0.82432,0.82735,0.82576,0.8244,0.82723,0.52171,0.00831,0.02489,1.0,0.0,-0.0,-0.0,0.00048,0.00048,-2.12993,-2.12993,-0.61489,-0.61489,-0.06319,-0.06319,0.00948,0.00948,0.36457,0.36457,220.0,220.0
1,156,3.12,0.00055,-2.12783,-0.6166,-0.06224,0.00933,0.36332,0.82575,0.82431,0.82734,0.82576,0.8244,0.82722,0.52171,0.00831,0.02489,1.0,0.0,-0.0,-0.0,0.00047,0.00047,-2.14451,-2.14451,-0.61697,-0.61697,-0.06484,-0.06484,0.00959,0.00959,0.36711,0.36711,220.0,220.0
1,157,3.14,0.00054,-2.14249,-0.61872,-0.0639,0.00944,0.36586,0.82575,0.82431,0.82735,0.82576,0.8244,0.82723,0.52171,0.00831,0.02489,1.0,0.0,0.0,-0.0,0.00046,0.00046,-2.15909,-2.15909,-0.61904,-0.61904,-0.06649,-0.06649,0.0097,0.0097,0.36964,0.36964,220.0,220.0
1,158,3.16,0.00052,-2.15716,-0.62082,-0.06556,0.00956,0.3684,0.82575,0.82432,0.82735,0.82576,0.8244,0.82723,0.52171,0.00831,0.02489,1.0,0.0,-0.0,-0.0,0.00045,0.00045,-2.17369,-2.17369,-0.62109,-0.62109,-0.06814,-0.06814,0.0098,0.0098,0.37217,0.37217,220.0,220.0
1,159,3.18,0.00051,-2.17183,-0.6229,-0.06722,0.00967,0.37093,0.82575,0.82432,0.82735,0.82576,0.8244,0.82723,0.52171,0.00831,0.02489,1.0,0.0,0.0,-0.0,0.00043,0.00043,-2.18828,-2.18828,-0.62313,-0.62313,-0.0698,-0.0698,0.00991,0.00991,0.37469,0.37469,220.0,220.0
1,160,3.2,0.0005,-2.18651,-0.62497,-0.06888,0.00978,0.37346,0.82575,0.82431,0.82735,0.82576,0.8244,0.82723,0.52171,0.00831,0.02489,1.0,0.0,0.0,-0.0,0.00042,0.00042,-2.20288,-2.20288,-0.62516,-0.62516,-0.07145,-0.07145,0.01001,0.01001,0.37721,0.37721,220.0,220.0
1,161,3.22,0.00049,-2.20119,-0.62703,-0.07055,0.00989,0.37598,0.82576,0.82432,0.82736,0.82577,0.82441,0.82723,0.52171,0.00831,0.02489,1.0,0.0,-0.0,-0.0,0.00041,0.00041,-2.21749,-2.21749,-0.62717,-0.62717,-0.07311,-0.07311,0.01012,0.01012,0.37972,0.37972,220.0,220.0
1,162,3.24,0.00048,-2.21587,-0.62907,-0.07222,0.01001,0.37849,0.82575,0.82432,0.82735,0.82576,0.82441,0.82723,0.52171,0.00831,0.02489,1.0,0.0,0.0,-0.0,0.0004,0.0004,-2.2321,-2.2321,-0.62917,-0.62917,-0.07477,-0.07477,0.01022,0.01022,0.38223,0.38223,220.0,220.0
1,163,3.26,0.00047,-2.23056,-0.63111,-0.07389,0.01012,0.381,0.82575,0.82431,0.82734,0.82576,0.8244,0.82722,0.52171,0.00831,0.02489,1.0,0.0,0.0,-0.0,0.00039,0.00039,-2.24672,-2.24672,-0.63116,-0.63116,-0.07643,-0.07643,0.01033,0.01033,0.38473,0.38473,220.0,220.0
1,164,3.28,0.00046,-2.24526,-0.63312,-0.07556,0.01023,0.3835,0.82575,0.82432,0.82734,0.82576,0.8244,0.82723,0.52171,0.00831,0.02489,1.0,0.0,-0.0,-0.0,0.00038,0.00038,-2.26134,-2.26134,-0.63314,-0.63314,-0.0781,-0.0781,0.01043,0.01043,0.38723,0.38723,220.0,220.0
1,165,3.3,0.00045,-2.25995,-0.63513,-0.07723,0.01034,0.386,0.82575,0.82431,0.82734,0.82576,0.8244,0.82722,0.52171,0.00831,0.02489,1.0,0.0,-0.0,-0.0,0.00038,0.00038,-2.27597,-2.27597,-0.63511,-0.63511,-0.07976,-0.07976,0.01054,0.01054,0.38972,0.38972,220.0,220.0
1,166,3.32,0.00044,-2.27465,-0.63712,-0.0789,0.01045,0.3885,0.82575,0.82431,0.82735,0.82576,0.8244,0.82723,0.52171,0.00831,0.02489,1.0,0.0,-0.0,-0.0,0.00037,0.00037,-2.2906,-2.2906,-0.63706,-0.63706,-0.08143,-0.08143,0.01064,0.01064,0.3922,0.3922,220.0,220.0
1,167,3.34,0.00043,-2.28936,-0.6391,-0.08058,0.01056,0.39098,0.82575,0.82431,0.82734,0.82576,0.8244,0.82722,0.52171,0.00831,0.02489,1.0,0.0,0.0,-0.0,0.00036,0.00036,-2.30524,-2.30524,-0.639,-0.639,-0.0831,-0.0831,0.01074,0.01074,0.39468,0.39468,220.0,220.0
1,168,3.36,0.00042,-2.30407,-0.64106,-0.08226,0.01067,0.39347,0.82576,0.82432,0.82735,0.82577,0.82441,0.82723,0.52171,0.00831,0.02489,1.0,0.0,0.0,-0.0,0.00035,0.00035,-2.31988,-2.31988,-0.64093,-0.64093,-0.08477,-0.08477,0.01085,0.01085,0.39716,0.39716,220.0,220.0
1,169,3.38,0.00042,-2.31878,-0.64301,-0.08394,0.01078,0.39594,0.82576,0.82432,0.82736,0.82578,0.82441,0.82724,0.52171,0.00831,0.02489,1.0,0.0,-0.0,-0.0,0.00035,0.00035,-2.33453,-2.33453,-0.64285,-0.64285,-0.08644,-0.08644,0.01095,0.01095,0.39963,0.39963,220.0,220.0
1,170,3.4,0.00041,-2.33349,-0.64495,-0.08562,0.01089,0.39842,0.82575,0.82431,0.82735,0.82576,0.8244,0.82722,0.52171,0.00831,0.02489,1.0,0.0,0.0,-0.0,0.00034,0.00034,-2.34919,-2.34919,-0.64475,-0.64475,-0.08811,-0.08811,0.01105,0.01105,0.40209,0.40209,220.0,220.0
1,171,3.42,0.0004,-2.34821,-0.64688,-0.0873,0.011,0.40088,0.82575,0.82432,0.82735,0.82577,0.82441,0.82723,0.52171,0.00831,0.02489,1.0,0.0,-0.0,-0.0,0.00033,0.00033,-2.36384,-2.36384,-0.64665,-0.64665,-0.08978,-0.08978,0.01115,0.01115,0.40455,0.40455,220.0,220.0
1,172,3.44,0.0004,-2.36294,-0.6488,-0.08898,0.01111,0.40334,0.82576,0.82432,0.82736,0.82577,0.82441,0.82724,0.52171,0.00831,0.02489,1.0,0.0,0.0,-0.0,0.00033,0.00033,-2.37851,-2.37851,-0.64853,-0.64853,-0.09146,-0.09146,0.01126,0.01126,0.407,0.407,220.0,220.0
1,173,3.46,0.00039,-2.37766,-0.6507,-0.09067,0.01121,0.4058,0.82577,0.82433,0.82736,0.82578,0.82442,0.82724,0.52171,0.00831,0.02489,1.0,0.0,-0.0,-0.0,0.00032,0.00032,-2.39317,-2.39317,-0.6504,-0.6504,-0.09313,-0.09313,0.01136,0.01136,0.40945,0.40945,220.0,220.0
1,174,3.48,0.00038,-2.39239,-0.65259,-0.09235,0.01132,0.40825,0.82576,0.82433,0.82736,0.82578,0.82442,0.82724,0.52171,0.00831,0.02489,1.0,0.0,0.0,-0.0,0.00032,0.00032,-2.40785,-2.40785,-0.65226,-0.65226,-0.09481,-0.09481,0.01146,0.01146,0.41189,0.41189,220.0,220.0
1,175,3.5,0.00038,-2.40712,-0.65447,-0.09404,0.01143,0.4107,0.82576,0.82432,0.82735,0.82577,0.82441,0.82723,0.52171,0.00831,0.02489,1.0,0.0,-0.0,-0.0,0.00031,0.00031,-2.42252,-2.42252,-0.65411,-0.65411,-0.09649,-0.09649,0.01156,0.01156,0.41433,0.41433,220.0,220.0
1,176,3.52,0.00037,-2.42186,-0.65634,-0.09573,0.01154,0.41314,0.82575,0.82431,0.82735,0.82577,0.82441,0.82723,0.52171,0.00831,0.02489,1.0,0.0,0.0,-0.0,0.00031,0.00031,-2.4372,-2.4372,-0.65595,-0.65595,-0.09817,-0.09817,0.01166,0.01166,0.41676,0.41676,220.0,220.0
1,177,3.54,0.00037,-2.4366,-0.65819,-0.09742,0.01165,0.41557,0.82575,0.82431,0.82735,0.82576,0.8244,0.82722,0.52171,0.00831,0.02489,1.0,0.0,-0.0,-0.0,0.0003,0.0003,-2.45189,-2.45189,-0.65777,-0.65777,-0.09985,-0.09985,0.01176,0.01176,0.41919,0.41919,220.0,220.0
1,178,3.56,0.00036,-2.45134,-0.66003,-0.09911,0.01175,0.418,0.82575,0.82432,0.82735,0.82577,0.82441,0.82723,0.52171,0.00831,0.02489,1.0,0.0,0.0,-0.0,0.0003,0.0003,-2.46658,-2.46658,-0.65959,-0.65959,-0.10153,-0.10153,0.01186,0.01186,0.42161,0.42161,220.0,220.0
1,179,3.58,0.00036,-2.46609,-0.66186,-0.1008,0.01186,0.42043,0.82575,0.82432,0.82735,0.82577,0.82441,0.82723,0.52171,0.00831,0.02489,1.0,0.0,-0.0,-0.0,0.00029,0.00029,-2.48128,-2.48128,-0.6614,-0.6614,-0.10321,-0.10321,0.01196,0.01196,0.42403,0.42403,220.0,220.0
1,180,3.6,0.00035,-2.48084,-0.66368,-0.10249,0.01197,0.42285,0.82576,0.82432,0.82735,0.82577,0.82441,0.82723,0.52171,0.00831,0.02489,1.0,0.0,0.0,-0.0,0.00029,0.00029,-2.49598,-2.49598,-0.66319,-0.66319,-0.1049,-0.1049,0.01206,0.01206,0.42644,0.42644,220.0,220.0
1,181,3.62,0.00035,-2.49559,-0.66549,-0.10418,0.01207,0.42526,0.82576,0.82433,0.82736,0.82578,0.82442,0.82724,0.52171,0.00831,0.02489,1.0,0.0,-0.0,-0.0,0.00028,0.00028,-2.51068,-2.51068,-0.66497,-0.66497,-0.10658,-0.10658,0.01216,0.01216,0.42885,0.42885,220.0,220.0
1,182,3.64,0.00035,-2.51035,-0.66729,-0.10588,0.01218,0.42767,0.82575,0.82431,0.82735,0.82577,0.82441,0.82723,0.52171,0.00831,0.02489,1.0,0.0,-0.0,-0.0,0.00028,0.00028,-2.52539,-2.52539,-0.66675,-0.66675,-0.10826,-0.10826,0.01226,0.01226,0.43125,0.43125,220.0,220.0
1,183,3.66,0.00034,-2.5251,-0.66907,-0.10757,0.01229,0.43007,0.82576,0.82433,0.82736,0.82578,0.82442,0.82724,0.52171,0.00831,0.02489,1.0,0.0,0.0,-0.0,0.00028,0.00028,-2.5401,-2.5401,-0.66851,-0.66851,-0.10995,-0.10995,0.01236,0.01236,0.43365,0.43365,220.0,220.0
1,184,3.68,0.00034,-2.53986,-0.67084,-0.10927,0.01239,0.43247,0.82576,0.82432,0.82736,0.82577,0.82442,0.82723,0.52171,0.00831,0.02489,1.0,0.0,-0.0,-0.0,0.00027,0.00027,-2.55482,-2.55482,-0.67026,-0.67026,-0.11164,-0.11164,0.01246,0.01246,0.43604,0.43604,220.0,220.0
1,185,3.7,0.00033,-2.55463,-0.67261,-0.11096,0.0125,0.43487,0.82576,0.82433,0.82736,0.82578,0.82442,0.82724,0.52171,0.00831,0.02489,1.0,0.0,-0.0,-0.0,0.00027,0.00027,-2.56954,-2.56954,-0.672,-0.672,-0.11332,-0.11332,0.01256,0.01256,0.43842,0.43842,220.0,220.0
1,186,3.72,0.00033,-2.5694,-0.67436,-0.11266,0.0126,0.43726,0.82574,0.8243,0.82734,0.82576,0.8244,0.82722,0.52171,0.00831,0.02489,1.0,0.0,-0.0,-0.0,0.00027,0.00027,-2.58427,-2.58427,-0.67374,-0.67374,-0.11501,-0.11501,0.01266,0.01266,0.44081,0.44081,220.0,220.0
1,187,3.74,0.00033,-2.58416,-0.6761,-0.11436,0.01271,0.43964,0.82574,0.82431,0.82735,0.82576,0.8244,0.82722,0.52171,0.00831,0.02489,1.0,0.0,0.0,-0.0,0.00026,0.00026,-2.599,-2.599,-0.67546,-0.67546,-0.1167,-0.1167,0.01276,0.01276,0.44318,0.44318,220.0,220.0
1,188,3.76,0.00032,-2.59894,-0.67783,-0.11606,0.01282,0.44202,0.82575,0.82431,0.82735,0.82576,0.82441,0.82722,0.52171,0.00831,0.02489,1.0,0.0,0.0,-0.0,0.00026,0.00026,-2.61373,-2.61373,-0.67717,-0.67717,-0.11839,-0.11839,0.01286,0.01286,0.44555,0.44555,220.0,220.0
1,189,3.78,0.00032,-2.61371,-0.67954,-0.11775,0.01292,0.44439,0.82575,0.82432,0.82735,0.82577,0.82441,0.82723,0.52171,0.00831,0.02489,1.0,0.0,-0.0,-0.0,0.00026,0.00026,-2.62847,-2.62847,-0.67887,-0.67887,-0.12007,-0.12007,0.01296,0.01296,0.44792,0.44792,220.0,220.0
1,190,3.8,0.00032,-2.62849,-0.68125,-0.11945,0.01303,0.44676,0.82575,0.82431,0.82735,0.82576,0.82441,0.82722,0.52171,0.00831,0.02489,1.0,0.0,0.0,-0.0,0.00025,0.00025,-2.64322,-2.64322,-0.68057,-0.68057,-0.12176,-0.12176,0.01306,0.01306,0.45028,0.45028,220.0,220.0
1,191,3.82,0.00031,-2.64327,-0.68295,-0.12115,0.01313,0.44912,0.82576,0.82432,0.82736,0.82577,0.82441,0.82723,0.52171,0.00831,0.02489,1.0,0.0,-0.0,-0.0,0.00025,0.00025,-2.65796,-2.65796,-0.68225,-0.68225,-0.12345,-0.12345,0.01315,0.01315,0.45263,0.45263,220.0,220.0
1,192,3.84,0.00031,-2.65805,-0.68463,-0.12285,0.01324,0.45148,0.82575,0.82431,0.82735,0.82577,0.82441,0.82722,0.52171,0.00831,0.02489,1.0,0.0,0.0,-0.0,0.00025,0.00025,-2.67271,-2.67271,-0.68392,-0.68392,-0.12514,-0.12514,0.01325,0.01325,0.45498,0.45498,220.0,220.0
1,193,3.86,0.00031,-2.67284,-0.68631,-0.12455,0.01334,0.45383,0.82574,0.82431,0.82735,0.82576,0.8244,0.82722,0.52171,0.00831,0.02489,1.0,0.0,-0.0,-0.0,0.00024,0.00024,-2.68747,-2.68747,-0.68558,-0.68558,-0.12683,-0.12683,0.01335,0.01335,0.45733,0.45733,220.0,220.0
1,194,3.88,0.00031,-2.68763,-0.68797,-0.12625,0.01344,0.45618,0.82575,0.82431,0.82735,0.82576,0.82441,0.82722,0.52171,0.00831,0.02489,1.0,0.0,0.0,-0.0,0.00024,0.00024,-2.70223,-2.70223,-0.68724,-0.68724,-0.12852,-0.12852,0.01345,0.01345,0.45967,0.45967,220.0,220.0
1,195,3.9,0.0003,-2.70242,-0.68963,-0.12795,0.01355,0.45852,0.82575,0.82431,0.82735,0.82576,0.8244,0.82722,0.52171,0.00831,0.02489,1.0,0.0,-0.0,-0.0,0.00024,0.00024,-2.71699,-2.71699,-0.68888,-0.68888,-0.13021,-0.13021,0.01355,0.01355,0.462,0.462,220.0,220.0
1,196,3.92,0.0003,-2.71721,-0.69127,-0.12965,0.01365,0.46086,0.82575,0.82431,0.82735,0.82577,0.82441,0.82723,0.52171,0.00831,0.02489,1.0,0.0,-0.0,-0.0,0.00024,0.00024,-2.73176,-2.73176,-0.69052,-0.69052,-0.13191,-0.13191,0.01365,0.01365,0.46433,0.46433,220.0,220.0
1,197,3.94,0.0003,-2.732,-0.69291,-0.13135,0.01376,0.46319,0.82574,0.8243,0.82734,0.82576,0.8244,0.82721,0.52171,0.00831,0.02489,1.0,0.0,0.0,-0.0,0.00023,0.00023,-2.74653,-2.74653,-0.69214,-0.69214,-0.1336,-0.1336,0.01374,0.01374,0.46666,0.46666,220.0,220.0
1,198,3.96,0.0003,-2.7468,-0.69453,-0.13305,0.01386,0.46552,0.82576,0.82432,0.82736,0.82578,0.82442,0.82723,0.52171,0.00831,0.02489,1.0,0.0,-0.0,-0.0,0.00023,0.00023,-2.76131,-2.76131,-0.69376,-0.69376,-0.13529,-0.13529,0.01384,0.01384,0.46898,0.46898,220.0,220.0
1,199,3.98,0.00029,-2.7616,-0.69614,-0.13475,0.01396,0.46784,0.82575,0.82432,0.82735,0.82577,0.82441,0.82723,0.52171,0.00831,0.02489,1.0,0.0,0.0,-0.0,0.00023,0.00023,-2.77609,-2.77609,-0.69536,-0.69536,-0.13698,-0.13698,0.01394,0.01394,0.47129,0.47129,220.0,220.0
1,200,4.0,0.00029,-2.7764,-0.69775,-0.13645,0.01407,0.47016,0.82574,0.8243,0.82735,0.82576,0.8244,0.82722,0.52171,0.00831,0.02489,1.0,0.0,0.0,-0.0,0.00023,0.00023,-2.79087,-2.79087,-0.69696,-0.69696,-0.13867,-0.13867,0.01404,0.01404,0.4736,0.4736,220.0,220.0
1,201,4.02,0.00035,-2.78747,-0.69985,-0.13764,0.01421,0.47154,0.82575,0.8243,0.82736,0.82576,0.8244,0.82721,0.52171,0.00831,0.02489,1.0,0.0,0.0,-0.0,0.00023,0.00023,-2.79087,-2.79087,-0.69696,-0.69696,-0.13867,-0.13867,0.01404,0.01404,0.4736,0.4736,220.0,220.0
1,202,4.04,0.0004,-2.79384,-0.70101,-0.13832,0.01429,0.47236,0.82575,0.82432,0.82736,0.82577,0.82441,0.82722,0.52171,0.00831,0.02489,1.0,0.0,-0.0,-0.0,0.00023,0.00023,-2.79087,-2.79087,-0.69696,-0.69696,-0.13867,-0.13867,0.01404,0.01404,0.4736,0.4736,220.0,220.0
1,203,4.06,0.00039,-2.79684,-0.70128,-0.13867,0.0143,0.47286,0.82576,0.82432,0.82735,0.82576,0.8244,0.82722,0.52171,0.00831,0.02489,1.0,0.0,0.0,-0.0,0.00023,0.00023,-2.79087,-2.79087,-0.69696,-0.69696,-0.13867,-0.13867,0.01404,0.01404,0.4736,0.4736,220.0,220.0
1,204,4.08,0.00035,-2.79797,-0.70109,-0.13883,0.01429,0.47315,0.82576,0.82432,0.82735,0.82576,0.8244,0.82723,0.52171,0.00831,0.02489,1.0,0.0,0.0,-0.0,0.00023,0.00023,-2.79087,-2.79087,-0.69696,-0.69696,-0.13867,-0.13867,0.01404,0.01404,0.4736,0.4736,220.0,220.0
1,205,4.1,0.00031,-2.79823,-0.70075,-0.1389,0.01426,0.47333,0.82576,0.82432,0.82734,0.82576,0.8244,0.82723,0.52171,0.00831,0.02489,1.0,0.0,-0.0,-0.0,0.00023,0.00023,-2.79087,-2.79087,-0.69696,-0.69696,-0.13867,-0.13867,0.01404,0.01404,0.4736,0.4736,220.0,220.0
1,206,4.12,0.00028,-2.7982,-0.70045,-0.13892,0.01424,0.47344,0.82576,0.82433,0.82735,0.82576,0.8244,0.82724,0.52171,0.00831,0.02489,1.0,0.0,0.0,-0.0,0.00023,0.00023,-2.79087,-2.79087,-0.69696,-0.69696,-0.13867,-0.13867,0.01404,0.01404,0.4736,0.4736,220.0,220.0
1,207,4.14,0.00025,-2.79811,-0.70024,-0.13893,0.01422,0.47351,0.82576,0.82433,0.82735,0.82576,0.8244,0.82724,0.52171,0.00831,0.02489,1.0,0.0,-0.0,-0.0,0.00023,0.00023,-2.79087,-2.79087,-0.69696,-0.69696,-0.13867,-0.13867,0.01404,0.01404,0.4736,0.4736,220.0,220.0
1,208,4.16,0.00024,-2.79805,-0.7001,-0.13893,0.01421,0.47355,0.82575,0.82431,0.82733,0.82575,0.82439,0.82723,0.52171,0.00831,0.02489,1.0,0.0,0.0,-0.0,0.00023,0.00023,-2.79087,-2.79087,-0.69696,-0.69696,-0.13867,-0.13867,0.01404,0.01404,0.4736,0.4736,220.0,220.0
1,209,4.18,0.00023,-2.79801,-0.70003,-0.13893,0.01421,0.47357,0.82576,0.82432,0.82734,0.82576,0.8244,0.82723,0.52171,0.00831,0.02489,1.0,0.0,-0.0,-0.0,0.00023,0.00023,-2.79087,-2.79087,-0.69696,-0.69696,-0.13867,-0.13867,0.01404,0.01404,0.4736,0.4736,220.0,220.0
1,210,4.2,0.00023,-2.798,-0.69999,-0.13894,0.0142,0.47358,0.82576,0.82432,0.82734,0.82576,0.8244,0.82724,0.52171,0.00831,0.02489,1.0,0.0,0.0,-0.0,0.00023,0.00023,-2.79087,-2.79087,-0.69696,-0.69696,-0.13867,-0.13867,0.01404,0.01404,0.4736,0.4736,220.0,220.0
1,211,4.22,0.00023,-2.798,-0.69997,-0.13894,0.0142,0.47359,0.82576,0.82432,0.82734,0.82576,0.8244,0.82724,0.52171,0.00831,0.02489,1.0,0.0,0.0,-0.0,0.00023,0.00023,-2.79087,-2.79087,-0.69696,-0.69696,-0.13867,-0.13867,0.01404,0.01404,0.4736,0.4736,220.0,220.0
1,212,4.24,0.00023,-2.79801,-0.69996,-0.13894,0.0142,0.4736,0.82575,0.82432,0.82733,0.82575,0.82439,0.82723,0.52171,0.00831,0.02489,1.0,0.0,0.0,-0.0,0.00023,0.00023,-2.79087,-2.79087,-0.69696,-0.69696,-0.13867,-0.13867,0.01404,0.01404,0.4736,0.4736,220.0,220.0
1,213,4.26,0.00023,-2.79801,-0.69995,-0.13894,0.0142,0.4736,0.82576,0.82432,0.82734,0.82576,0.8244,0.82723,0.52171,0.00831,0.02489,1.0,0.0,0.0,-0.0,0.00023,0.00023,-2.79087,-2.79087,-0.69696,-0.69696,-0.13867,-0.13867,0.01404,0.01404,0.4736,0.4736,220.0,220.0
1,214,4.28,0.00023,-2.79802,-0.69995,-0.13894,0.0142,0.4736,0.82576,0.82432,0.82734,0.82576,0.8244,0.82724,0.52171,0.00831,0.02489,1.0,0.0,0.0,-0.0,0.00023,0.00023,-2.79087,-2.79087,-0.69696,-0.69696,-0.13867,-0.13867,0.01404,0.01404,0.4736,0.4736,220.0,220.0
1,215,4.3,0.00023,-2.79802,-0.69995,-0.13894,0.0142,0.4736,0.82577,0.82433,0.82735,0.82577,0.8244,0.82724,0.52171,0.00831,0.02489,1.0,0.0,-0.0,-0.0,0.00023,0.00023,-2.79087,-2.79087,-0.69696,-0.69696,-0.13867,-0.13867,0.01404,0.01404,0.4736,0.4736,220.0,220.0
1,216,4.32,0.00023,-2.79802,-0.69995,-0.13894,0.0142,0.4736,0.82575,0.82432,0.82733,0.82575,0.82439,0.82723,0.52171,0.00831,0.02489,1.0,0.0,-0.0,-0.0,0.00023,0.00023,-2.79087,-2.79087,-0.69696,-0.69696,-0.13867,-0.13867,0.01404,0.01404,0.4736,0.4736,220.0,220.0
1,217,4.34,0.00023,-2.79802,-0.69995,-0.13894,0.0142,0.4736,0.82576,0.82432,0.82734,0.82576,0.8244,0.82723,0.52171,0.00831,0.02489,1.0,0.0,0.0,-0.0,0.00023,0.00023,-2.79087,-2.79087,-0.69696,-0.69696,-0.13867,-0.13867,0.01404,0.01404,0.4736,0.4736,220.0,220.0
1,218,4.36,0.00023,-2.79802,-0.69995,-0.13894,0.0142,0.4736,0.82576,0.82433,0.82734,0.82576,0.8244,0.82724,0.52171,0.00831,0.02489,1.0,0.0,-0.0,-0.0,0.00023,0.00023,-2.79087,-2.79087,-0.69696,-0.69696,-0.13867,-0.13867,0.01404,0.01404,0.4736,0.4736,220.0,220.0
1,219,4.38,0.00023,-2.79802,-0.69995,-0.13894,0.0142,0.4736,0.82576,0.82432,0.82734,0.82576,0.8244,0.82723,0.52171,0.00831,0.02489,1.0,0.0,-0.0,-0.0,0.00023,0.00023,-2.79087,-2.79087,-0.69696,-0.69696,-0.13867,-0.13867,0.01404,0.01404,0.4736,0.4736,220.0,220.0
1,220,4.4,0.00023,-2.79802,-0.69995,-0.13894,0.0142,0.4736,0.82576,0.82432,0.82734,0.82576,0.8244,0.82724,0.52171,0.00831,0.02489,1.0,0.0,-0.0,-0.0,0.00023,0.00023,-2.79087,-2.79087,-0.69696,-0.69696,-0.13867,-0.13867,0.01404,0.01404,0.4736,0.4736,220.0,220.0
1,221,4.42,0.00023,-2.79802,-0.69995,-0.13894,0.0142,0.4736,0.82576,0.82433,0.82734,0.82576,0.8244,0.82724,0.52171,0.00831,0.02489,1.0,0.0,-0.0,-0.0,0.00023,0.00023,-2.79087,-2.79087,-0.69696,-0.69696,-0.13867,-0.13867,0.01404,0.01404,0.4736,0.4736,220.0,220.0
1,222,4.44,0.00023,-2.79802,-0.69995,-0.13894,0.0142,0.4736,0.82577,0.82433,0.82735,0.82577,0.82441,0.82725,0.52171,0.00831,0.02489,1.0,0.0,0.0,-0.0,0.00023,0.00023,-2.79087,-2.79087,-0.69696,-0.69696,-0.13867,-0.13867,0.01404,0.01404,0.4736,0.4736,220.0,220.0
1,223,4.46,0.00023,-2.79802,-0.69995,-0.13894,0.0142,0.4736,0.82576,0.82433,0.82734,0.82576,0.8244,0.82724,0.52171,0.00831,0.02489,1.0,0.0,-0.0,-0.0,0.00023,0.00023,-2.79087,-2.79087,-0.69696,-0.69696,-0.13867,-0.13867,0.01404,0.01404,0.4736,0.4736,220.0,220.0
1,224,4.48,0.00023,-2.79802,-0.69995,-0.13894,0.0142,0.4736,0.82576,0.82433,0.82735,0.82576,0.8244,0.82724,0.52171,0.00831,0.02489,1.0,0.0,0.0,-0.0,0.00023,0.00023,-2.79087,-2.79087,-0.69696,-0.69696,-0.13867,-0.13867,0.01404,0.01404,0.4736,0.4736,220.0,220.0
1,225,4.5,0.00023,-2.79802,-0.69995,-0.13894,0.0142,0.4736,0.82576,0.82432,0.82734,0.82576,0.8244,0.82723,0.52171,0.00831,0.02489,1.0,0.0,-0.0,-0.0,0.00023,0.00023,-2.79087,-2.79087,-0.69696,-0.69696,-0.13867,-0.13867,0.01404,0.01404,0.4736,0.4736,220.0,220.0
1,226,4.52,0.00023,-2.79802,-0.69995,-0.13894,0.0142,0.4736,0.82576,0.82433,0.82735,0.82576,0.8244,0.82724,0.52171,0.00831,0.02489,1.0,0.0,0.0,-0.0,0.00023,0.00023,-2.79087,-2.79087,-0.69696,-0.69696,-0.13867,-0.13867,0.01404,0.01404,0.4736,0.4736,220.0,220.0
1,227,4.54,0.00023,-2.79802,-0.69995,-0.13894,0.0142,0.4736,0.82576,0.82433,0.82734,0.82577,0.8244,0.82724,0.52171,0.00831,0.02489,1.0,0.0,-0.0,-0.0,0.00023,0.00023,-2.79087,-2.79087,-0.69696,-0.69696,-0.13867,-0.13867,0.01404,0.01404,0.4736,0.4736,220.0,220.0
1,228,4.56,0.00023,-2.79802,-0.69995,-0.13894,0.0142,0.4736,0.82575,0.82431,0.82733,0.82575,0.82439,0.82722,0.52171,0.00831,0.02489,1.0,0.0,-0.0,-0.0,0.00023,0.00023,-2.79087,-2.79087,-0.69696,-0.69696,-0.13867,-0.13867,0.01404,0.01404,0.4736,0.4736,220.0,220.0
1,229,4.58,0.00023,-2.79802,-0.69995,-0.13894,0.0142,0.4736,0.82576,0.82432,0.82734,0.82576,0.82439,0.82723,0.52171,0.00831,0.02489,1.0,0.0,-0.0,-0.0,0.00023,0.00023,-2.79087,-2.79087,-0.69696,-0.69696,-0.13867,-0.13867,0.01404,0.01404,0.4736,0.4736,220.0,220.0
1,230,4.6,0.00023,-2.79802,-0.69995,-0.13894,0.0142,0.4736,0.82576,0.82432,0.82734,0.82576,0.8244,0.82723,0.52171,0.00831,0.02489,1.0,0.0,-0.0,-0.0,0.00023,0.00023,-2.79087,-2.79087,-0.69696,-0.69696,-0.13867,-0.13867,0.01404,0.01404,0.4736,0.4736,220.0,220.0
1,231,4.62,0.00023,-2.79802,-0.69995,-0.13894,0.0142,0.4736,0.82577,0.82433,0.82735,0.82577,0.82441,0.82725,0.52171,0.00831,0.02489,1.0,0.0,0.0,-0.0,0.00023,0.00023,-2.79087,-2.79087,-0.69696,-0.69696,-0.13867,-0.13867,0.01404,0.01404,0.4736,0.4736,220.0,220.0
1,232,4.64,0.00023,-2.79802,-0.69995,-0.13894,0.0142,0.4736,0.82576,0.82432,0.82734,0.82576,0.8244,0.82724,0.52171,0.00831,0.02489,1.0,0.0,-0.0,-0.0,0.00023,0.00023,-2.79087,-2.79087,-0.69696,-0.69696,-0.13867,-0.13867,0.01404,0.01404,0.4736,0.4736,220.0,220.0
1,233,4.66,0.00023,-2.79802,-0.69995,-0.13894,0.0142,0.4736,0.82576,0.82433,0.82734,0.82576,0.8244,0.82724,0.52171,0.00831,0.02489,1.0,0.0,0.0,-0.0,0.00023,0.00023,-2.79087,-2.79087,-0.69696,-0.69696,-0.13867,-0.13867,0.01404,0.01404,0.4736,0.4736,220.0,220.0
1,234,4.68,0.00023,-2.79802,-0.69995,-0.13894,0.0142,0.4736,0.82576,0.82432,0.82734,0.82576,0.8244,0.82724,0.52171,0.00831,0.02489,1.0,0.0,-0.0,-0.0,0.00023,0.00023,-2.79087,-2.79087,-0.69696,-0.69696,-0.13867,-0.13867,0.01404,0.01404,0.4736,0.4736,220.0,220.0
1,235,4.7,0.00023,-2.79802,-0.69995,-0.13894,0.0142,0.4736,0.82576,0.82432,0.82734,0.82576,0.8244,0.82724,0.52171,0.00831,0.02489,1.0,0.0,0.0,-0.0,0.00023,0.00023,-2.79087,-2.79087,-0.69696,-0.69696,-0.13867,-0.13867,0.01404,0.01404,0.4736,0.4736,220.0,220.0
1,236,4.72,0.00023,-2.79802,-0.69995,-0.13894,0.0142,0.4736,0.82577,0.82433,0.82735,0.82577,0.8244,0.82724,0.52171,0.00831,0.02489,1.0,0.0,0.0,-0.0,0.00023,0.00023,-2.79087,-2.79087,-0.69696,-0.69696,-0.13867,-0.13867,0.01404,0.01404,0.4736,0.4736,220.0,220.0
1,237,4.74,0.00023,-2.79802,-0.69995,-0.13894,0.0142,0.4736,0.82576,0.82433,0.82734,0.82576,0.8244,0.82724,0.52171,0.00831,0.02489,1.0,0.0,0.0,-0.0,0.00023,0.00023,-2.79087,-2.79087,-0.69696,-0.69696,-0.13867,-0.13867,0.01404,0.01404,0.4736,0.4736,220.0,220.0
1,238,4.76,0.00023,-2.79802,-0.69995,-0.13894,0.0142,0.4736,0.82576,0.82433,0.82735,0.82576,0.8244,0.82724,0.52171,0.00831,0.02489,1.0,0.0,0.0,-0.0,0.00023,0.00023,-2.79087,-2.79087,-0.69696,-0.69696,-0.13867,-0.13867,0.01404,0.01404,0.4736,0.4736,220.0,220.0
1,239,4.78,0.00023,-2.79802,-0.69995,-0.13894,0.0142,0.4736,0.82575,0.82431,0.82733,0.82575,0.82439,0.82723,0.52171,0.00831,0.02489,1.0,0.0,-0.0,-0.0,0.00023,0.00023,-2.79087,-2.79087,-0.69696,-0.69696,-0.13867,-0.13867,0.01404,0.01404,0.4736,0.4736,220.0,220.0
1,240,4.8,0.00023,-2.79802,-0.69995,-0.13894,0.0142,0.4736,0.82575,0.82432,0.82733,0.82575,0.82439,0.82723,0.52171,0.00831,0.02489,1.0,0.0,0.0,-0.0,0.00023,0.00023,-2.79087,-2.79087,-0.69696,-0.69696,-0.13867,-0.13867,0.01404,0.01404,0.4736,0.4736,220.0,220.0
1,241,4.82,0.00023,-2.79802,-0.69995,-0.13894,0.0142,0.4736,0.82576,0.82432,0.82734,0.82576,0.8244,0.82723,0.52171,0.00831,0.02489,1.0,0.0,-0.0,-0.0,0.00023,0.00023,-2.79087,-2.79087,-0.69696,-0.69696,-0.13867,-0.13867,0.01404,0.01404,0.4736,0.4736,220.0,220.0
1,242,4.84,0.00023,-2.79802,-0.69995,-0.13894,0.0142,0.4736,0.82575,0.82431,0.82733,0.82575,0.82439,0.82723,0.52171,0.00831,0.02489,1.0,0.0,0.0,-0.0,0.00023,0.00023,-2.79087,-2.79087,-0.69696,-0.69696,-0.13867,-0.13867,0.01404,0.01404,0.4736,0.4736,220.0,220.0
1,243,4.86,0.00023,-2.79802,-0.69995,-0.13894,0.0142,0.4736,0.82575,0.82432,0.82734,0.82575,0.82439,0.82723,0.52171,0.00831,0.02489,1.0,0.0,0.0,-0.0,0.00023,0.00023,-2.79087,-2.79087,-0.69696,-0.69696,-0.13867,-0.13867,0.01404,0.01404,0.4736,0.4736,220.0,220.0
1,244,4.88,0.00023,-2.79802,-0.69995,-0.13894,0.0142,0.4736,0.82576,0.82432,0.82734,0.82576,0.82439,0.82723,0.52171,0.00831,0.02489,1.0,0.0,-0.0,-0.0,0.00023,0.00023,-2.79087,-2.79087,-0.69696,-0.69696,-0.13867,-0.13867,0.01404,0.01404,0.4736,0.4736,220.0,220.0
1,245,4.9,0.00023,-2.79802,-0.69995,-0.13894,0.0142,0.4736,0.82576,0.82433,0.82734,0.82576,0.8244,0.82724,0.52171,0.00831,0.02489,1.0,0.0,0.0,-0.0,0.00023,0.00023,-2.79087,-2.79087,-0.69696,-0.69696,-0.13867,-0.13867,0.01404,0.01404,0.4736,0.4736,220.0,220.0
1,246,4.92,0.00023,-2.79802,-0.69995,-0.13894,0.0142,0.4736,0.82576,0.82433,0.82734,0.82576,0.8244,0.82724,0.52171,0.00831,0.02489,1.0,0.0,-0.0,-0.0,0.00023,0.00023,-2.79087,-2.79087,-0.69696,-0.69696,-0.13867,-0.13867,0.01404,0.01404,0.4736,0.4736,220.0,220.0
1,247,4.94,0.00023,-2.79802,-0.69995,-0.13894,0.0142,0.4736,0.82576,0.82432,0.82734,0.82576,0.82439,0.82723,0.52171,0.00831,0.02489,1.0,0.0,-0.0,-0.0,0.00023,0.00023,-2.79087,-2.79087,-0.69696,-0.69696,-0.13867,-0.13867,0.01404,0.01404,0.4736,0.4736,220.0,220.0
1,248,4.96,0.00023,-2.79802,-0.69995,-0.13894,0.0142,0.4736,0.82575,0.82431,0.82733,0.82575,0.82439,0.82723,0.52171,0.00831,0.02489,1.0,0.0,0.0,-0.0,0.00023,0.00023,-2.79087,-2.79087,-0.69696,-0.69696,-0.13867,-0.13867,0.01404,0.01404,0.4736,0.4736,220.0,220.0
1,249,4.98,0.00023,-2.79802,-0.69995,-0.13894,0.0142,0.4736,0.82576,0.82432,0.82734,0.82576,0.8244,0.82724,0.52171,0.00831,0.02489,1.0,0.0,-0.0,-0.0,0.00023,0.00023,-2.79087,-2.79087,-0.69696,-0.69696,-0.13867,-0.13867,0.01404,0.01404,0.4736,0.4736,220.0,220.0
1,250,5.0,0.00023,-2.79802,-0.69995,-0.13894,0.0142,0.4736,0.82576,0.82433,0.82734,0.82576,0.8244,0.82724,0.52171,0.00831,0.02489,1.0,0.0,0.0,-0.0,0.00023,0.00023,-2.79087,-2.79087,-0.69696,-0.69696,-0.13867,-0.13867,0.01404,0.01404,0.4736,0.4736,220.0,220.0
1,251,5.02,0.00023,-2.79802,-0.69995,-0.13894,0.0142,0.4736,0.82577,0.82433,0.82735,0.82577,0.8244,0.82724,0.52171,0.00831,0.02489,1.0,0.0,-0.0,-0.0,0.00023,0.00023,-2.79087,-2.79087,-0.69696,-0.69696,-0.13867,-0.13867,0.01404,0.01404,0.4736,0.4736,220.0,220.0
1,252,5.04,0.00023,-2.79802,-0.69995,-0.13894,0.0142,0.4736,0.82575,0.82431,0.82733,0.82575,0.82439,0.82723,0.52171,0.00831,0.02489,1.0,0.0,0.0,-0.0,0.00023,0.00023,-2.79087,-2.79087,-0.69696,-0.69696,-0.13867,-0.13867,0.01404,0.01404,0.4736,0.4736,220.0,220.0
1,253,5.06,0.00023,-2.79802,-0.69995,-0.13894,0.0142,0.4736,0.82577,0.82434,0.82735,0.82577,0.82441,0.82725,0.52171,0.00831,0.02489,1.0,0.0,-0.0,-0.0,0.00023,0.00023,-2.79087,-2.79087,-0.69696,-0.69696,-0.13867,-0.13867,0.01404,0.01404,0.4736,0.4736,220.0,220.0
1,254,5.08,0.00023,-2.79802,-0.69995,-0.13894,0.0142,0.4736,0.82576,0.82432,0.82734,0.82576,0.8244,0.82724,0.52171,0.00831,0.02489,1.0,0.0,-0.0,-0.0,0.00023,0.00023,-2.79087,-2.79087,-0.69696,-0.69696,-0.13867,-0.13867,0.01404,0.01404,0.4736,0.4736,220.0,220.0
1,255,5.1,0.00023,-2.79802,-0.69995,-0.13894,0.0142,0.4736,0.82576,0.82432,0.82734,0.82576,0.8244,0.82724,0.52171,0.00831,0.02489,1.0,0.0,0.0,-0.0,0.00023,0.00023,-2.79087,-2.79087,-0.69696,-0.69696,-0.13867,-0.13867,0.01404,0.01404,0.4736,0.4736,220.0,220.0
1,256,5.12,0.00023,-2.79802,-0.69995,-0.13894,0.0142,0.4736,0.82575,0.82432,0.82733,0.82575,0.82439,0.82723,0.52171,0.00831,0.02489,1.0,0.0,-0.0,-0.0,0.00023,0.00023,-2.79087,-2.79087,-0.69696,-0.69696,-0.13867,-0.13867,0.01404,0.01404,0.4736,0.4736,220.0,220.0
1,257,5.14,0.00023,-2.79802,-0.69995,-0.13894,0.0142,0.4736,0.82576,0.82433,0.82734,0.82576,0.8244,0.82724,0.52171,0.00831,0.02489,1.0,0.0,0.0,-0.0,0.00023,0.00023,-2.79087,-2.79087,-0.69696,-0.69696,-0.13867,-0.13867,0.01404,0.01404,0.4736,0.4736,220.0,220.0
1,258,5.16,0.00023,-2.79802,-0.69995,-0.13894,0.0142,0.4736,0.82576,0.82433,0.82734,0.82576,0.8244,0.82724,0.52171,0.00831,0.02489,1.0,0.0,-0.0,-0.0,0.00023,0.00023,-2.79087,-2.79087,-0.69696,-0.69696,-0.13867,-0.13867,0.01404,0.01404,0.4736,0.4736,220.0,220.0
1,259,5.18,0.00023,-2.79802,-0.69995,-0.13894,0.0142,0.4736,0.82576,0.82433,0.82734,0.82576,0.8244,0.82724,0.52171,0.00831,0.02489,1.0,0.0,0.0,-0.0,0.00023,0.00023,-2.79087,-2.79087,-0.69696,-0.69696,-0.13867,-0.13867,0.01404,0.01404,0.4736,0.4736,220.0,220.0
1,260,5.2,0.00023,-2.79802,-0.69995,-0.13894,0.0142,0.4736,0.82576,0.82433,0.82734,0.82576,0.8244,0.82724,0.52171,0.00831,0.02489,1.0,0.0,-0.0,-0.0,0.00023,0.00023,-2.79087,-2.79087,-0.69696,-0.69696,-0.13867,-0.13867,0.01404,0.01404,0.4736,0.4736,220.0,220.0
1,261,5.22,0.00023,-2.79802,-0.69995,-0.13894,0.0142,0.4736,0.82575,0.82432,0.82733,0.82575,0.82439,0.82723,0.52171,0.00831,0.02489,1.0,0.0,0.0,-0.0,0.00023,0.00023,-2.79087,-2.79087,-0.69696,-0.69696,-0.13867,-0.13867,0.01404,0.01404,0.4736,0.4736,220.0,220.0
1,262,5.24,0.00023,-2.79802,-0.69995,-0.13894,0.0142,0.4736,0.82576,0.82432,0.82734,0.82576,0.8244,0.82723,0.52171,0.00831,0.02489,1.0,0.0,-0.0,-0.0,0.00023,0.00023,-2.79087,-2.79087,-0.69696,-0.69696,-0.13867,-0.13867,0.01404,0.01404,0.4736,0.4736,220.0,220.0
1,263,5.26,0.00023,-2.79802,-0.69995,-0.13894,0.0142,0.4736,0.82576,0.82433,0.82735,0.82576,0.8244,0.82724,0.52171,0.00831,0.02489,1.0,0.0,-0.0,-0.0,0.00023,0.00023,-2.79087,-2.79087,-0.69696,-0.69696,-0.13867,-0.13867,0.01404,0.01404,0.4736,0.4736,220.0,220.0
1,264,5.28,0.00023,-2.79802,-0.69995,-0.13894,0.0142,0.4736,0.82577,0.82433,0.82735,0.82577,0.82441,0.82724,0.52171,0.00831,0.02489,1.0,0.0,0.0,-0.0,0.00023,0.00023,-2.79087,-2.79087,-0.69696,-0.69696,-0.13867,-0.13867,0.01404,0.01404,0.4736,0.4736,220.0,220.0
1,265,5.3,0.00023,-2.79802,-0.69995,-0.13894,0.0142,0.4736,0.82576,0.82433,0.82734,0.82576,0.8244,0.82724,0.52171,0.00831,0.02489,1.0,0.0,-0.0,-0.0,0.00023,0.00023,-2.79087,-2.79087,-0.69696,-0.69696,-0.13867,-0.13867,0.01404,0.01404,0.4736,0.4736,220.0,220.0
1,266,5.32,0.00023,-2.79802,-0.69995,-0.13894,0.0142,0.4736,0.82576,0.82433,0.82735,0.82577,0.8244,0.82724,0.52171,0.00831,0.02489,1.0,0.0,0.0,-0.0,0.00023,0.00023,-2.79087,-2.79087,-0.69696,-0.69696,-0.13867,-0.13867,0.01404,0.01404,0.4736,0.4736,220.0,220.0
1,267,5.34,0.00023,-2.79802,-0.69995,-0.13894,0.0142,0.4736,0.82576,0.82433,0.82734,0.82576,0.8244,0.82724,0.52171,0.00831,0.02489,1.0,0.0,-0.0,-0.0,0.00023,0.00023,-2.79087,-2.79087,-0.69696,-0.69696,-0.13867,-0.13867,0.01404,0.01404,0.4736,0.4736,220.0,220.0
1,268,5.36,0.00023,-2.79802,-0.69995,-0.13894,0.0142,0.4736,0.82577,0.82433,0.82735,0.82577,0.82441,0.82724,0.52171,0.00831,0.02489,1.0,0.0,-0.0,-0.0,0.00023,0.00023,-2.79087,-2.79087,-0.69696,-0.69696,-0.13867,-0.13867,0.01404,0.01404,0.4736,0.4736,220.0,220.0
1,269,5.38,0.00023,-2.79802,-0.69995,-0.13894,0.0142,0.4736,0.82577,0.82433,0.82735,0.82577,0.82441,0.82724,0.52171,0.00831,0.02489,1.0,0.0,0.0,-0.0,0.00023,0.00023,-2.79087,-2.79087,-0.69696,-0.69696,-0.13867,-0.13867,0.01404,0.01404,0.4736,0.4736,220.0,220.0
1,270,5.4,0.00023,-2.79802,-0.69995,-0.13894,0.0142,0.4736,0.82575,0.82432,0.82734,0.82575,0.82439,0.82723,0.52171,0.00831,0.02489,1.0,0.0,-0.0,-0.0,0.00023,0.00023,-2.79087,-2.79087,-0.69696,-0.69696,-0.13867,-0.13867,0.01404,0.01404,0.4736,0.4736,220.0,220.0
1,271,5.42,0.00023,-2.79802,-0.69995,-0.13894,0.0142,0.4736,0.82576,0.82433,0.82734,0.82576,0.8244,0.82724,0.52171,0.00831,0.02489,1.0,0.0,0.0,-0.0,0.00023,0.00023,-2.79087,-2.79087,-0.69696,-0.69696,-0.13867,-0.13867,0.01404,0.01404,0.4736,0.4736,220.0,220.0
1,272,5.44,0.00023,-2.79802,-0.69995,-0.13894,0.0142,0.4736,0.82575,0.82432,0.82733,0.82575,0.82439,0.82723,0.52171,0.00831,0.02489,1.0,0.0,-0.0,-0.0,0.00023,0.00023,-2.79087,-2.79087,-0.69696,-0.69696,-0.13867,-0.13867,0.01404,0.01404,0.4736,0.4736,220.0,220.0
1,273,5.46,0.00023,-2.79802,-0.69995,-0.13894,0.0142,0.4736,0.82576,0.82433,0.82735,0.82576,0.8244,0.82724,0.52171,0.00831,0.02489,1.0,0.0,-0.0,-0.0,0.00023,0.00023,-2.79087,-2.79087,-0.69696,-0.69696,-0.13867,-0.13867,0.01404,0.01404,0.4736,0.4736,220.0,220.0
1,274,5.48,0.00023,-2.79802,-0.69995,-0.13894,0.0142,0.4736,0.82576,0.82432,0.82734,0.82576,0.8244,0.82724,0.52171,0.00831,0.02489,1.0,0.0,0.0,-0.0,0.00023,0.00023,-2.79087,-2.79087,-0.69696,-0.69696,-0.13867,-0.13867,0.01404,0.01404,0.4736,0.4736,220.0,220.0
1,275,5.5,0.00023,-2.79802,-0.69995,-0.13894,0.0142,0.4736,0.82576,0.82433,0.82734,0.82576,0.8244,0.82724,0.52171,0.00831,0.02489,1.0,0.0,-0.0,-0.0,0.00023,0.00023,-2.79087,-2.79087,-0.69696,-0.69696,-0.13867,-0.13867,0.01404,0.01404,0.4736,0.4736,220.0,220.0
1,276,5.52,0.00023,-2.79802,-0.69995,-0.13894,0.0142,0.4736,0.82577,0.82433,0.82735,0.82577,0.8244,0.82724,0.52171,0.00831,0.02489,1.0,0.0,0.0,-0.0,0.00023,0.00023,-2.79087,-2.79087,-0.69696,-0.69696,-0.13867,-0.13867,0.01404,0.01404,0.4736,0.4736,220.0,220.0
1,277,5.54,0.00023,-2.79802,-0.69995,-0.13894,0.0142,0.4736,0.82577,0.82433,0.82735,0.82577,0.82441,0.82724,0.52171,0.00831,0.02489,1.0,0.0,-0.0,-0.0,0.00023,0.00023,-2.79087,-2.79087,-0.69696,-0.69696,-0.13867,-0.13867,0.01404,0.01404,0.4736,0.4736,220.0,220.0
1,278,5.56,0.00023,-2.79802,-0.69995,-0.13894,0.0142,0.4736,0.82577,0.82434,0.82735,0.82577,0.82441,0.82725,0.52171,0.00831,0.02489,1.0,0.0,0.0,-0.0,0.00023,0.00023,-2.79087,-2.79087,-0.69696,-0.69696,-0.13867,-0.13867,0.01404,0.01404,0.4736,0.4736,220.0,220.0
1,279,5.58,0.00023,-2.79802,-0.69995,-0.13894,0.0142,0.4736,0.82577,0.82433,0.82735,0.82577,0.82441,0.82725,0.52171,0.00831,0.02489,1.0,0.0,0.0,-0.0,0.00023,0.00023,-2.79087,-2.79087,-0.69696,-0.69696,-0.13867,-0.13867,0.01404,0.01404,0.4736,0.4736,220.0,220.0
1,280,5.6,0.00023,-2.79802,-0.69995,-0.13894,0.0142,0.4736,0.82577,0.82433,0.82735,0.82577,0.82441,0.82725,0.52171,0.00831,0.02489,1.0,0.0,-0.0,-0.0,0.00023,0.00023,-2.79087,-2.79087,-0.69696,-0.69696,-0.13867,-0.13867,0.01404,0.01404,0.4736,0.4736,220.0,220.0
1,281,5.62,0.00023,-2.79802,-0.69995,-0.13894,0.0142,0.4736,0.82575,0.82432,0.82734,0.82575,0.82439,0.82723,0.52171,0.00831,0.02489,1.0,0.0,0.0,-0.0,0.00023,0.00023,-2.79087,-2.79087,-0.69696,-0.69696,-0.13867,-0.13867,0.01404,0.01404,0.4736,0.4736,220.0,220.0
1,282,5.64,0.00023,-2.79802,-0.69995,-0.13894,0.0142,0.4736,0.82576,0.82432,0.82734,0.82576,0.8244,0.82723,0.52171,0.00831,0.02489,1.0,0.0,-0.0,-0.0,0.00023,0.00023,-2.79087,-2.79087,-0.69696,-0.69696,-0.13867,-0.13867,0.01404,0.01404,0.4736,0.4736,220.0,220.0
1,283,5.66,0.00023,-2.79802,-0.69995,-0.13894,0.0142,0.4736,0.82576,0.82432,0.82734,0.82576,0.82439,0.82723,0.52171,0.00831,0.02489,1.0,0.0,0.0,-0.0,0.00023,0.00023,-2.79087,-2.79087,-0.69696,-0.69696,-0.13867,-0.13867,0.01404,0.01404,0.4736,0.4736,220.0,220.0
1,284,5.68,0.00023,-2.79802,-0.69995,-0.13894,0.0142,0.4736,0.82576,0.82432,0.82734,0.82576,0.82439,0.82723,0.52171,0.00831,0.02489,1.0,0.0,-0.0,-0.0,0.00023,0.00023,-2.79087,-2.79087,-0.69696,-0.69696,-0.13867,-0.13867,0.01404,0.01404,0.4736,0.4736,220.0,220.0
1,285,5.7,0.00023,-2.79802,-0.69995,-0.13894,0.0142,0.4736,0.82576,0.82432,0.82734,0.82576,0.8244,0.82723,0.52171,0.00831,0.02489,1.0,0.0,0.0,-0.0,0.00023,0.00023,-2.79087,-2.79087,-0.69696,-0.69696,-0.13867,-0.13867,0.01404,0.01404,0.4736,0.4736,220.0,220.0
1,286,5.72,0.00023,-2.79802,-0.69995,-0.13894,0.0142,0.4736,0.82576,0.82433,0.82734,0.82576,0.8244,0.82724,0.52171,0.00831,0.02489,1.0,0.0,-0.0,-0.0,0.00023,0.00023,-2.79087,-2.79087,-0.69696,-0.69696,-0.13867,-0.13867,0.01404,0.01404,0.4736,0.4736,220.0,220.0
1,287,5.74,0.00023,-2.79802,-0.69995,-0.13894,0.0142,0.4736,0.82576,0.82432,0.82733,0.82576,0.82439,0.82723,0.52171,0.00831,0.02489,1.0,0.0,0.0,-0.0,0.00023,0.00023,-2.79087,-2.79087,-0.69696,-0.69696,-0.13867,-0.13867,0.01404,0.01404,0.4736,0.4736,220.0,220.0
1,288,5.76,0.00023,-2.79802,-0.69995,-0.13894,0.0142,0.4736,0.82576,0.82432,0.82734,0.82576,0.8244,0.82724,0.52171,0.00831,0.02489,1.0,0.0,-0.0,-0.0,0.00023,0.00023,-2.79087,-2.79087,-0.69696,-0.69696,-0.13867,-0.13867,0.01404,0.01404,0.4736,0.4736,220.0,220.0
1,289,5.78,0.00023,-2.79802,-0.69995,-0.13894,0.0142,0.4736,0.82576,0.82432,0.82734,0.82576,0.8244,0.82724,0.52171,0.00831,0.02489,1.0,0.0,0.0,-0.0,0.00023,0.00023,-2.79087,-2.79087,-0.69696,-0.69696,-0.13867,-0.13867,0.01404,0.01404,0.4736,0.4736,220.0,220.0
1,290,5.8,0.00023,-2.79802,-0.69995,-0.13894,0.0142,0.4736,0.82575,0.82431,0.82733,0.82575,0.82439,0.82723,0.52171,0.00831,0.02489,1.0,0.0,-0.0,-0.0,0.00023,0.00023,-2.79087,-2.79087,-0.69696,-0.69696,-0.13867,-0.13867,0.01404,0.01404,0.4736,0.4736,220.0,220.0
1,291,5.82,0.00023,-2.79802,-0.69995,-0.13894,0.0142,0.4736,0.82576,0.82432,0.82734,0.82576,0.82439,0.82723,0.52171,0.00831,0.02489,1.0,0.0,0.0,-0.0,0.00023,0.00023,-2.79087,-2.79087,-0.69696,-0.69696,-0.13867,-0.13867,0.01404,0.01404,0.4736,0.4736,220.0,220.0
1,292,5.84,0.00023,-2.79802,-0.69995,-0.13894,0.0142,0.4736,0.82576,0.82432,0.82734,0.82576,0.8244,0.82723,0.52171,0.00831,0.02489,1.0,0.0,-0.0,-0.0,0.00023,0.00023,-2.79087,-2.79087,-0.69696,-0.69696,-0.13867,-0.13867,0.01404,0.01404,0.4736,0.4736,220.0,220.0
1,293,5.86,0.00023,-2.79802,-0.69995,-0.13894,0.0142,0.4736,0.82575,0.82431,0.82733,0.82575,0.82439,0.82723,0.52171,0.00831,0.02489,1.0,0.0,-0.0,-0.0,0.00023,0.00023,-2.79087,-2.79087,-0.69696,-0.69696,-0.13867,-0.13867,0.01404,0.01404,0.4736,0.4736,220.0,220.0
1,294,5.88,0.00023,-2.79802,-0.69995,-0.13894,0.0142,0.4736,0.82576,0.82432,0.82734,0.82576,0.82439,0.82723,0.52171,0.00831,0.02489,1.0,0.0,-0.0,-0.0,0.00023,0.00023,-2.79087,-2.79087,-0.69696,-0.69696,-0.13867,-0.13867,0.01404,0.01404,0.4736,0.4736,220.0,220.0
1,295,5.9,0.00023,-2.79802,-0.69995,-0.13894,0.0142,0.4736,0.82576,0.82433,0.82734,0.82576,0.8244,0.82724,0.52171,0.00831,0.02489,1.0,0.0,-0.0,-0.0,0.00023,0.00023,-2.79087,-2.79087,-0.69696,-0.69696,-0.13867,-0.13867,0.01404,0.01404,0.4736,0.4736,220.0,220.0
1,296,5.92,0.00023,-2.79802,-0.69995,-0.13894,0.0142,0.4736,0.82577,0.82433,0.82735,0.82577,0.8244,0.82724,0.52171,0.00831,0.02489,1.0,0.0,-0.0,-0.0,0.00023,0.00023,-2.79087,-2.79087,-0.69696,-0.69696,-0.13867,-0.13867,0.01404,0.01404,0.4736,0.4736,220.0,220.0
1,297,5.94,0.00023,-2.79802,-0.69995,-0.13894,0.0142,0.4736,0.82575,0.82432,0.82734,0.82575,0.82439,0.82723,0.52171,0.00831,0.02489,1.0,0.0,0.0,-0.0,0.00023,0.00023,-2.79087,-2.79087,-0.69696,-0.69696,-0.13867,-0.13867,0.01404,0.01404,0.4736,0.4736,220.0,220.0
1,298,5.96,0.00023,-2.79802,-0.69995,-0.13894,0.0142,0.4736,0.82576,0.82432,0.82734,0.82576,0.8244,0.82724,0.52171,0.00831,0.02489,1.0,0.0,-0.0,-0.0,0.00023,0.00023,-2.79087,-2.79087,-0.69696,-0.69696,-0.13867,-0.13867,0.01404,0.01404,0.4736,0.4736,220.0,220.0
1,299,5.98,0.00023,-2.79802,-0.69995,-0.13894,0.0142,0.4736,0.82575,0.82432,0.82734,0.82575,0.82439,0.82723,0.52171,0.00831,0.02489,1.0,0.0,-0.0,-0.0,0.00023,0.00023,-2.79087,-2.79087,-0.69696,-0.69696,-0.13867,-0.13867,0.01404,0.01404,0.4736,0.4736,220.0,220.0
1,300,6.0,0.00023,-2.79802,-0.69995,-0.13894,0.0142,0.4736,0.82576,0.82432,0.82734,0.82576,0.8244,0.82724,0.52171,0.00831,0.02489,1.0,0.0,0.0,-0.0,0.00023,0.00023,-2.79087,-2.79087,-0.69696,-0.69696,-0.13867,-0.13867,0.01404,0.01404,0.4736,0.4736,220.0,220.0
1,301,6.02,0.00023,-2.79802,-0.69995,-0.13894,0.0142,0.4736,0.82575,0.82432,0.82734,0.82575,0.82439,0.82723,0.52171,0.00831,0.02489,1.0,0.0,-0.0,-0.0,0.00023,0.00023,-2.79087,-2.79087,-0.69696,-0.69696,-0.13867,-0.13867,0.01404,0.01404,0.4736,0.4736,220.0,220.0
1,302,6.04,0.00023,-2.79802,-0.69995,-0.13894,0.0142,0.4736,0.82576,0.82432,0.82734,0.82576,0.8244,0.82724,0.52171,0.00831,0.02489,1.0,0.0,0.0,-0.0,0.00023,0.00023,-2.79087,-2.79087,-0.69696,-0.69696,-0.13867,-0.13867,0.01404,0.01404,0.4736,0.4736,220.0,220.0
1,303,6.06,0.00023,-2.79802,-0.69995,-0.13894,0.0142,0.4736,0.82575,0.82432,0.82734,0.82576,0.82439,0.82723,0.52171,0.00831,0.02489,1.0,0.0,0.0,-0.0,0.00023,0.00023,-2.79087,-2.79087,-0.69696,-0.69696,-0.13867,-0.13867,0.01404,0.01404,0.4736,0.4736,220.0,220.0
1,304,6.08,0.00023,-2.79802,-0.69995,-0.13894,0.0142,0.4736,0.82576,0.82432,0.82734,0.82576,0.8244,0.82724,0.52171,0.00831,0.02489,1.0,0.0,-0.0,-0.0,0.00023,0.00023,-2.79087,-2.79087,-0.69696,-0.69696,-0.13867,-0.13867,0.01404,0.01404,0.4736,0.4736,220.0,220.0
1,305,6.1,0.00023,-2.79802,-0.69995,-0.13894,0.0142,0.4736,0.82576,0.82433,0.82734,0.82576,0.8244,0.82724,0.52171,0.00831,0.02489,1.0,0.0,0.0,-0.0,0.00023,0.00023,-2.79087,-2.79087,-0.69696,-0.69696,-0.13867,-0.13867,0.01404,0.01404,0.4736,0.4736,220.0,220.0
1,306,6.12,0.00023,-2.79802,-0.69995,-0.13894,0.0142,0.4736,0.82576,0.82432,0.82734,0.82576,0.8244,0.82724,0.52171,0.00831,0.02489,1.0,0.0,-0.0,-0.0,0.00023,0.00023,-2.79087,-2.79087,-0.69696,-0.69696,-0.13867,-0.13867,0.01404,0.01404,0.4736,0.4736,220.0,220.0
1,307,6.14,0.00023,-2.79802,-0.69995,-0.13894,0.0142,0.4736,0.82577,0.82433,0.82735,0.82577,0.8244,0.82724,0.52171,0.00831,0.02489,1.0,0.0,0.0,-0.0,0.00023,0.00023,-2.79087,-2.79087,-0.69696,-0.69696,-0.13867,-0.13867,0.01404,0.01404,0.4736,0.4736,220.0,220.0
1,308,6.16,0.00023,-2.79802,-0.69995,-0.13894,0.0142,0.4736,0.82576,0.82432,0.82734,0.82576,0.8244,0.82724,0.52171,0.00831,0.02489,1.0,0.0,-0.0,-0.0,0.00023,0.00023,-2.79087,-2.79087,-0.69696,-0.69696,-0.13867,-0.13867,0.01404,0.01404,0.4736,0.4736,220.0,220.0
1,309,6.18,0.00023,-2.79802,-0.69995,-0.13894,0.0142,0.4736,0.82576,0.82432,0.82734,0.82576,0.82439,0.82723,0.52171,0.00831,0.02489,1.0,0.0,0.0,-0.0,0.00023,0.00023,-2.79087,-2.79087,-0.69696,-0.69696,-0.13867,-0.13867,0.01404,0.01404,0.4736,0.4736,220.0,220.0
1,310,6.2,0.00023,-2.79802,-0.69995,-0.13894,0.0142,0.4736,0.82575,0.82432,0.82733,0.82575,0.82439,0.82723,0.52171,0.00831,0.02489,1.0,0.0,-0.0,-0.0,0.00023,0.00023,-2.79087,-2.79087,-0.69696,-0.69696,-0.13867,-0.13867,0.01404,0.01404,0.4736,0.4736,220.0,220.0
1,311,6.22,0.00023,-2.79802,-0.69995,-0.13894,0.0142,0.4736,0.82577,0.82433,0.82735,0.82577,0.8244,0.82724,0.52171,0.00831,0.02489,1.0,0.0,-0.0,-0.0,0.00023,0.00023,-2.79087,-2.79087,-0.69696,-0.69696,-0.13867,-0.13867,0.01404,0.01404,0.4736,0.4736,220.0,220.0
1,312,6.24,0.00023,-2.79802,-0.69995,-0.13894,0.0142,0.4736,0.82577,0.82433,0.82735,0.82577,0.82441,0.82724,0.52171,0.00831,0.02489,1.0,0.0,-0.0,-0.0,0.00023,0.00023,-2.79087,-2.79087,-0.69696,-0.69696,-0.13867,-0.13867,0.01404,0.01404,0.4736,0.4736,220.0,220.0
1,313,6.26,0.00023,-2.79802,-0.69995,-0.13894,0.0142,0.4736,0.82576,0.82433,0.82734,0.82576,0.8244,0.82724,0.52171,0.00831,0.02489,1.0,0.0,0.0,-0.0,0.00023,0.00023,-2.79087,-2.79087,-0.69696,-0.69696,-0.13867,-0.13867,0.01404,0.01404,0.4736,0.4736,220.0,220.0
1,314,6.28,0.00023,-2.79802,-0.69995,-0.13894,0.0142,0.4736,0.82576,0.82432,0.82734,0.82576,0.8244,0.82724,0.52171,0.00831,0.02489,1.0,0.0,-0.0,-0.0,0.00023,0.00023,-2.79087,-2.79087,-0.69696,-0.69696,-0.13867,-0.13867,0.01404,0.01404,0.4736,0.4736,220.0,220.0
1,315,6.3,0.00023,-2.79802,-0.69995,-0.13894,0.0142,0.4736,0.82576,0.82432,0.82734,0.82576,0.8244,0.82724,0.52171,0.00831,0.02489,1.0,0.0,0.0,-0.0,0.00023,0.00023,-2.79087,-2.79087,-0.69696,-0.69696,-0.13867,-0.13867,0.01404,0.01404,0.4736,0.4736,220.0,220.0
1,316,6.32,0.00023,-2.79802,-0.69995,-0.13894,0.0142,0.4736,0.82577,0.82433,0.82735,0.82577,0.82441,0.82724,0.52171,0.00831,0.02489,1.0,0.0,-0.0,-0.0,0.00023,0.00023,-2.79087,-2.79087,-0.69696,-0.69696,-0.13867,-0.13867,0.01404,0.01404,0.4736,0.4736,220.0,220.0
1,317,6.34,0.00023,-2.79802,-0.69995,-0.13894,0.0142,0.4736,0.82576,0.82433,0.82734,0.82576,0.8244,0.82724,0.52171,0.00831,0.02489,1.0,0.0,0.0,-0.0,0.00023,0.00023,-2.79087,-2.79087,-0.69696,-0.69696,-0.13867,-0.13867,0.01404,0.01404,0.4736,0.4736,220.0,220.0
1,318,6.36,0.00023,-2.79802,-0.69995,-0.13894,0.0142,0.4736,0.82576,0.82432,0.82734,0.82576,0.8244,0.82724,0.52171,0.00831,0.02489,1.0,0.0,-0.0,-0.0,0.00023,0.00023,-2.79087,-2.79087,-0.69696,-0.69696,-0.13867,-0.13867,0.01404,0.01404,0.4736,0.4736,220.0,220.0
1,319,6.38,0.00023,-2.79802,-0.69995,-0.13894,0.0142,0.4736,0.82576,0.82432,0.82734,0.82576,0.8244,0.82723,0.52171,0.00831,0.02489,1.0,0.0,0.0,-0.0,0.00023,0.00023,-2.79087,-2.79087,-0.69696,-0.69696,-0.13867,-0.13867,0.01404,0.01404,0.4736,0.4736,220.0,220.0
1,320,6.4,0.00023,-2.79802,-0.69995,-0.13894,0.0142,0.4736,0.82576,0.82433,0.82734,0.82576,0.8244,0.82724,0.52171,0.00831,0.02489,1.0,0.0,-0.0,-0.0,0.00023,0.00023,-2.79087,-2.79087,-0.69696,-0.69696,-0.13867,-0.13867,0.01404,0.01404,0.4736,0.4736,220.0,220.0
1,321,6.42,0.00023,-2.79802,-0.69995,-0.13894,0.0142,0.4736,0.82576,0.82432,0.82734,0.82576,0.82439,0.82723,0.52171,0.00831,0.02489,1.0,0.0,-0.0,-0.0,0.00023,0.00023,-2.79087,-2.79087,-0.69696,-0.69696,-0.13867,-0.13867,0.01404,0.01404,0.4736,0.4736,220.0,220.0
1,322,6.44,0.00023,-2.79802,-0.69995,-0.13894,0.0142,0.4736,0.82576,0.82432,0.82734,0.82576,0.8244,0.82724,0.52171,0.00831,0.02489,1.0,0.0,0.0,-0.0,0.00023,0.00023,-2.79087,-2.79087,-0.69696,-0.69696,-0.13867,-0.13867,0.01404,0.01404,0.4736,0.4736,220.0,220.0
1,323,6.46,0.00023,-2.79802,-0.69995,-0.13894,0.0142,0.4736,0.82577,0.82433,0.82735,0.82577,0.82441,0.82725,0.52171,0.00831,0.02489,1.0,0.0,-0.0,-0.0,0.00023,0.00023,-2.79087,-2.79087,-0.69696,-0.69696,-0.13867,-0.13867,0.01404,0.01404,0.4736,0.4736,220.0,220.0
1,324,6.48,0.00023,-2.79802,-0.69995,-0.13894,0.0142,0.4736,0.82575,0.82432,0.82734,0.82575,0.82439,0.82723,0.52171,0.00831,0.02489,1.0,0.0,0.0,-0.0,0.00023,0.00023,-2.79087,-2.79087,-0.69696,-0.69696,-0.13867,-0.13867,0.01404,0.01404,0.4736,0.4736,220.0,220.0
1,325,6.5,0.00023,-2.79802,-0.69995,-0.13894,0.0142,0.4736,0.82576,0.82433,0.82735,0.82576,0.8244,0.82724,0.52171,0.00831,0.02489,1.0,0.0,-0.0,-0.0,0.00023,0.00023,-2.79087,-2.79087,-0.69696,-0.69696,-0.13867,-0.13867,0.01404,0.01404,0.4736,0.4736,220.0,220.0
1,326,6.52,0.00023,-2.79802,-0.69995,-0.13894,0.0142,0.4736,0.82575,0.82432,0.82733,0.82575,0.82439,0.82723,0.52171,0.00831,0.02489,1.0,0.0,0.0,-0.0,0.00023,0.00023,-2.79087,-2.79087,-0.69696,-0.69696,-0.13867,-0.13867,0.01404,0.01404,0.4736,0.4736,220.0,220.0
1,327,6.54,0.00023,-2.79802,-0.69995,-0.13894,0.0142,0.4736,0.82577,0.82433,0.82735,0.82577,0.8244,0.82724,0.52171,0.00831,0.02489,1.0,0.0,-0.0,-0.0,0.00023,0.00023,-2.79087,-2.79087,-0.69696,-0.69696,-0.13867,-0.13867,0.01404,0.01404,0.4736,0.4736,220.0,220.0
1,328,6.56,0.00023,-2.79802,-0.69995,-0.13894,0.0142,0.4736,0.82577,0.82433,0.82735,0.82577,0.8244,0.82724,0.52171,0.00831,0.02489,1.0,0.0,0.0,-0.0,0.00023,0.00023,-2.79087,-2.79087,-0.69696,-0.69696,-0.13867,-0.13867,0.01404,0.01404,0.4736,0.4736,220.0,220.0
1,329,6.58,0.00023,-2.79802,-0.69995,-0.13894,0.0142,0.4736,0.82575,0.82432,0.82734,0.82575,0.82439,0.82723,0.52171,0.00831,0.02489,1.0,0.0,0.0,-0.0,0.00023,0.00023,-2.79087,-2.79087,-0.69696,-0.69696,-0.13867,-0.13867,0.01404,0.01404,0.4736,0.4736,220.0,220.0
1,330,6.6,0.00023,-2.79802,-0.69995,-0.13894,0.0142,0.4736,0.82577,0.82434,0.82736,0.82577,0.82441,0.82725,0.52171,0.00831,0.02489,1.0,0.0,-0.0,-0.0,0.00023,0.00023,-2.79087,-2.79087,-0.69696,-0.69696,-0.13867,-0.13867,0.01404,0.01404,0.4736,0.4736,220.0,220.0
1,331,6.62,0.00023,-2.79802,-0.69995,-0.13894,0.0142,0.4736,0.82576,0.82432,0.82734,0.82576,0.8244,0.82723,0.52171,0.00831,0.02489,1.0,0.0,0.0,-0.0,0.00023,0.00023,-2.79087,-2.79087,-0.69696,-0.69696,-0.13867,-0.13867,0.01404,0.01404,0.4736,0.4736,220.0,220.0
1,332,6.64,0.00023,-2.79802,-0.69995,-0.13894,0.0142,0.4736,0.82576,0.82432,0.82734,0.82576,0.82439,0.82723,0.52171,0.00831,0.02489,1.0,0.0,-0.0,-0.0,0.00023,0.00023,-2.79087,-2.79087,-0.69696,-0.69696,-0.13867,-0.13867,0.01404,0.01404,0.4736,0.4736,220.0,220.0
1,333,6.66,0.00023,-2.79802,-0.69995,-0.13894,0.0142,0.4736,0.82576,0.82432,0.82734,0.82576,0.8244,0.82723,0.52171,0.00831,0.02489,1.0,0.0,0.0,-0.0,0.00023,0.00023,-2.79087,-2.79087,-0.69696,-0.69696,-0.13867,-0.13867,0.01404,0.01404,0.4736,0.4736,220.0,220.0
1,334,6.68,0.00023,-2.79802,-0.69995,-0.13894,0.0142,0.4736,0.82577,0.82433,0.82735,0.82577,0.8244,0.82724,0.52171,0.00831,0.02489,1.0,0.0,0.0,-0.0,0.00023,0.00023,-2.79087,-2.79087,-0.69696,-0.69696,-0.13867,-0.13867,0.01404,0.01404,0.4736,0.4736,220.0,220.0
1,335,6.7,0.00023,-2.79802,-0.69995,-0.13894,0.0142,0.4736,0.82576,0.82432,0.82734,0.82576,0.8244,0.82723,0.52171,0.00831,0.02489,1.0,0.0,-0.0,-0.0,0.00023,0.00023,-2.79087,-2.79087,-0.69696,-0.69696,-0.13867,-0.13867,0.01404,0.01404,0.4736,0.4736,220.0,220.0
1,336,6.72,0.00023,-2.79802,-0.69995,-0.13894,0.0142,0.4736,0.82576,0.82433,0.82734,0.82577,0.8244,0.82724,0.52171,0.00831,0.02489,1.0,0.0,0.0,-0.0,0.00023,0.00023,-2.79087,-2.79087,-0.69696,-0.69696,-0.13867,-0.13867,0.01404,0.01404,0.4736,0.4736,220.0,220.0
1,337,6.74,0.00023,-2.79802,-0.69995,-0.13894,0.0142,0.4736,0.82575,0.82432,0.82733,0.82575,0.82439,0.82723,0.52171,0.00831,0.02489,1.0,0.0,-0.0,-0.0,0.00023,0.00023,-2.79087,-2.79087,-0.69696,-0.69696,-0.13867,-0.13867,0.01404,0.01404,0.4736,0.4736,220.0,220.0
1,338,6.76,0.00023,-2.79802,-0.69995,-0.13894,0.0142,0.4736,0.82576,0.82432,0.82734,0.82576,0.8244,0.82724,0.52171,0.00831,0.02489,1.0,0.0,0.0,-0.0,0.00023,0.00023,-2.79087,-2.79087,-0.69696,-0.69696,-0.13867,-0.13867,0.01404,0.01404,0.4736,0.4736,220.0,220.0
1,339,6.78,0.00023,-2.79802,-0.69995,-0.13894,0.0142,0.4736,0.82576,0.82433,0.82734,0.82576,0.8244,0.82724,0.52171,0.00831,0.02489,1.0,0.0,-0.0,-0.0,0.00023,0.00023,-2.79087,-2.79087,-0.69696,-0.69696,-0.13867,-0.13867,0.01404,0.01404,0.4736,0.4736,220.0,220.0
1,340,6.8,0.00023,-2.79802,-0.69995,-0.13894,0.0142,0.4736,0.82577,0.82433,0.82735,0.82577,0.8244,0.82724,0.52171,0.00831,0.02489,1.0,0.0,-0.0,-0.0,0.00023,0.00023,-2.79087,-2.79087,-0.69696,-0.69696,-0.13867,-0.13867,0.01404,0.01404,0.4736,0.4736,220.0,220.0
1,341,6.82,0.00023,-2.79802,-0.69995,-0.13894,0.0142,0.4736,0.82575,0.82432,0.82733,0.82575,0.82439,0.82723,0.52171,0.00831,0.02489,1.0,0.0,-0.0,-0.0,0.00023,0.00023,-2.79087,-2.79087,-0.69696,-0.69696,-0.13867,-0.13867,0.01404,0.01404,0.4736,0.4736,220.0,220.0
1,342,6.84,0.00023,-2.79802,-0.69995,-0.13894,0.0142,0.4736,0.82575,0.82431,0.82733,0.82575,0.82438,0.82722,0.52171,0.00831,0.02489,1.0,0.0,-0.0,-0.0,0.00023,0.00023,-2.79087,-2.79087,-0.69696,-0.69696,-0.13867,-0.13867,0.01404,0.01404,0.4736,0.4736,220.0,220.0
1,343,6.86,0.00023,-2.79802,-0.69995,-0.13894,0.0142,0.4736,0.82577,0.82434,0.82735,0.82577,0.82441,0.82725,0.52171,0.00831,0.02489,1.0,0.0,0.0,-0.0,0.00023,0.00023,-2.79087,-2.79087,-0.69696,-0.69696,-0.13867,-0.13867,0.01404,0.01404,0.4736,0.4736,220.0,220.0
1,344,6.88,0.00023,-2.79802,-0.69995,-0.13894,0.0142,0.4736,0.82576,0.82432,0.82734,0.82576,0.8244,0.82724,0.52171,0.00831,0.02489,1.0,0.0,-0.0,-0.0,0.00023,0.00023,-2.79087,-2.79087,-0.69696,-0.69696,-0.13867,-0.13867,0.01404,0.01404,0.4736,0.4736,220.0,220.0
1,345,6.9,0.00023,-2.79802,-0.69995,-0.13894,0.0142,0.4736,0.82576,0.82432,0.82734,0.82576,0.82439,0.82723,0.52171,0.00831,0.02489,1.0,0.0,0.0,-0.0,0.00023,0.00023,-2.79087,-2.79087,-0.69696,-0.69696,-0.13867,-0.13867,0.01404,0.01404,0.4736,0.4736,220.0,220.0
1,346,6.92,0.00023,-2.79802,-0.69995,-0.13894,0.0142,0.4736,0.82576,0.82433,0.82734,0.82576,0.8244,0.82724,0.52171,0.00831,0.02489,1.0,0.0,-0.0,-0.0,0.00023,0.00023,-2.79087,-2.79087,-0.69696,-0.69696,-0.13867,-0.13867,0.01404,0.01404,0.4736,0.4736,220.0,220.0
1,347,6.94,0.00023,-2.79802,-0.69995,-0.13894,0.0142,0.4736,0.82576,0.82432,0.82734,0.82576,0.82439,0.82723,0.52171,0.00831,0.02489,1.0,0.0,0.0,-0.0,0.00023,0.00023,-2.79087,-2.79087,-0.69696,-0.69696,-0.13867,-0.13867,0.01404,0.01404,0.4736,0.4736,220.0,220.0
1,348,6.96,0.00023,-2.79802,-0.69995,-0.13894,0.0142,0.4736,0.82576,0.82432,0.82734,0.82576,0.8244,0.82724,0.52171,0.00831,0.02489,1.0,0.0,0.0,-0.0,0.00023,0.00023,-2.79087,-2.79087,-0.69696,-0.69696,-0.13867,-0.13867,0.01404,0.01404,0.4736,0.4736,220.0,220.0
1,349,6.98,0.00023,-2.79802,-0.69995,-0.13894,0.0142,0.4736,0.82576,0.82433,0.82734,0.82576,0.8244,0.82724,0.52171,0.00831,0.02489,1.0,0.0,0.0,-0.0,0.00023,0.00023,-2.79087,-2.79087,-0.69696,-0.69696,-0.13867,-0.13867,0.01404,0.01404,0.4736,0.4736,220.0,220.0
1,350,7.0,0.00023,-2.79802,-0.69995,-0.13894,0.0142,0.4736,0.82576,0.82432,0.82734,0.82576,0.8244,0.82724,0.52171,0.00831,0.02489,1.0,0.0,0.0,-0.0,0.00023,0.00023,-2.79087,-2.79087,-0.69696,-0.69696,-0.13867,-0.13867,0.01404,0.01404,0.4736,0.4736,220.0,220.0
1,351,7.02,0.00023,-2.79802,-0.69995,-0.13894,0.0142,0.4736,0.82576,0.82433,0.82734,0.82576,0.8244,0.82724,0.52171,0.00831,0.02489,1.0,0.0,0.0,-0.0,0.00023,0.00023,-2.79087,-2.79087,-0.69696,-0.69696,-0.13867,-0.13867,0.01404,0.01404,0.4736,0.4736,220.0,220.0
1,352,7.04,0.00023,-2.79802,-0.69995,-0.13894,0.0142,0.4736,0.82576,0.82433,0.82734,0.82576,0.8244,0.82724,0.52171,0.00831,0.02489,1.0,0.0,0.0,-0.0,0.00023,0.00023,-2.79087,-2.79087,-0.69696,-0.69696,-0.13867,-0.13867,0.01404,0.01404,0.4736,0.4736,220.0,220.0
1,353,7.06,0.00023,-2.79802,-0.69995,-0.13894,0.0142,0.4736,0.82576,0.82433,0.82734,0.82576,0.8244,0.82724,0.52171,0.00831,0.02489,1.0,0.0,-0.0,-0.0,0.00023,0.00023,-2.79087,-2.79087,-0.69696,-0.69696,-0.13867,-0.13867,0.01404,0.01404,0.4736,0.4736,220.0,220.0
1,354,7.08,0.00023,-2.79802,-0.69995,-0.13894,0.0142,0.4736,0.82575,0.82432,0.82733,0.82575,0.82439,0.82723,0.52171,0.00831,0.02489,1.0,0.0,0.0,-0.0,0.00023,0.00023,-2.79087,-2.79087,-0.69696,-0.69696,-0.13867,-0.13867,0.01404,0.01404,0.4736,0.4736,220.0,220.0
1,355,7.1,0.00023,-2.79802,-0.69995,-0.13894,0.0142,0.4736,0.82577,0.82433,0.82735,0.82577,0.82441,0.82725,0.52171,0.00831,0.02489,1.0,0.0,-0.0,-0.0,0.00023,0.00023,-2.79087,-2.79087,-0.69696,-0.69696,-0.13867,-0.13867,0.01404,0.01404,0.4736,0.4736,220.0,220.0
1,356,7.12,0.00023,-2.79802,-0.69995,-0.13894,0.0142,0.4736,0.82576,0.82432,0.82734,0.82576,0.8244,0.82724,0.52171,0.00831,0.02489,1.0,0.0,0.0,-0.0,0.00023,0.00023,-2.79087,-2.79087,-0.69696,-0.69696,-0.13867,-0.13867,0.01404,0.01404,0.4736,0.4736,220.0,220.0
1,357,7.14,0.00023,-2.79802,-0.69995,-0.13894,0.0142,0.4736,0.82576,0.82433,0.82734,0.82576,0.8244,0.82724,0.52171,0.00831,0.02489,1.0,0.0,-0.0,-0.0,0.00023,0.00023,-2.79087,-2.79087,-0.69696,-0.69696,-0.13867,-0.13867,0.01404,0.01404,0.4736,0.4736,220.0,220.0
1,358,7.16,0.00023,-2.79802,-0.69995,-0.13894,0.0142,0.4736,0.82576,0.82433,0.82734,0.82576,0.8244,0.82724,0.52171,0.00831,0.02489,1.0,0.0,0.0,-0.0,0.00023,0.00023,-2.79087,-2.79087,-0.69696,-0.69696,-0.13867,-0.13867,0.01404,0.01404,0.4736,0.4736,220.0,220.0
1,359,7.18,0.00023,-2.79802,-0.69995,-0.13894,0.0142,0.4736,0.82575,0.82432,0.82733,0.82575,0.82439,0.82723,0.52171,0.00831,0.02489,1.0,0.0,-0.0,-0.0,0.00023,0.00023,-2.79087,-2.79087,-0.69696,-0.69696,-0.13867,-0.13867,0.01404,0.01404,0.4736,0.4736,220.0,220.0
1,360,7.2,0.00023,-2.79802,-0.69995,-0.13894,0.0142,0.4736,0.82577,0.82433,0.82735,0.82577,0.82441,0.82724,0.52171,0.00831,0.02489,1.0,0.0,0.0,-0.0,0.00023,0.00023,-2.79087,-2.79087,-0.69696,-0.69696,-0.13867,-0.13867,0.01404,0.01404,0.4736,0.4736,220.0,220.0
1,361,7.22,0.00023,-2.79802,-0.69995,-0.13894,0.0142,0.4736,0.82576,0.82432,0.82734,0.82576,0.8244,0.82724,0.52171,0.00831,0.02489,1.0,0.0,0.0,-0.0,0.00023,0.00023,-2.79087,-2.79087,-0.69696,-0.69696,-0.13867,-0.13867,0.01404,0.01404,0.4736,0.4736,220.0,220.0
1,362,7.24,0.00023,-2.79802,-0.69995,-0.13894,0.0142,0.4736,0.82576,0.82432,0.82734,0.82576,0.8244,0.82724,0.52171,0.00831,0.02489,1.0,0.0,-0.0,-0.0,0.00023,0.00023,-2.79087,-2.79087,-0.69696,-0.69696,-0.13867,-0.13867,0.01404,0.01404,0.4736,0.4736,220.0,220.0
1,363,7.26,0.00023,-2.79802,-0.69995,-0.13894,0.0142,0.4736,0.82576,0.82432,0.82734,0.82576,0.8244,0.82723,0.52171,0.00831,0.02489,1.0,0.0,-0.0,-0.0,0.00023,0.00023,-2.79087,-2.79087,-0.69696,-0.69696,-0.13867,-0.13867,0.01404,0.01404,0.4736,0.4736,220.0,220.0
1,364,7.28,0.00023,-2.79802,-0.69995,-0.13894,0.0142,0.4736,0.82575,0.82432,0.82734,0.82576,0.82439,0.82723,0.52171,0.00831,0.02489,1.0,0.0,-0.0,-0.0,0.00023,0.00023,-2.79087,-2.79087,-0.69696,-0.69696,-0.13867,-0.13867,0.01404,0.01404,0.4736,0.4736,220.0,220.0
1,365,7.3,0.00023,-2.79802,-0.69995,-0.13894,0.0142,0.4736,0.82576,0.82432,0.82734,0.82576,0.8244,0.82724,0.52171,0.00831,0.02489,1.0,0.0,0.0,-0.0,0.00023,0.00023,-2.79087,-2.79087,-0.69696,-0.69696,-0.13867,-0.13867,0.01404,0.01404,0.4736,0.4736,220.0,220.0
1,366,7.32,0.00023,-2.79802,-0.69995,-0.13894,0.0142,0.4736,0.82576,0.82432,0.82734,0.82576,0.8244,0.82724,0.52171,0.00831,0.02489,1.0,0.0,-0.0,-0.0,0.00023,0.00023,-2.79087,-2.79087,-0.69696,-0.69696,-0.13867,-0.13867,0.01404,0.01404,0.4736,0.4736,220.0,220.0
1,367,7.34,0.00023,-2.79802,-0.69995,-0.13894,0.0142,0.4736,0.82575,0.82432,0.82733,0.82575,0.82439,0.82723,0.52171,0.00831,0.02489,1.0,0.0,0.0,-0.0,0.00023,0.00023,-2.79087,-2.79087,-0.69696,-0.69696,-0.13867,-0.13867,0.01404,0.01404,0.4736,0.4736,220.0,220.0
1,368,7.36,0.00023,-2.79802,-0.69995,-0.13894,0.0142,0.4736,0.82576,0.82433,0.82735,0.82576,0.8244,0.82724,0.52171,0.00831,0.02489,1.0,0.0,-0.0,-0.0,0.00023,0.00023,-2.79087,-2.79087,-0.69696,-0.69696,-0.13867,-0.13867,0.01404,0.01404,0.4736,0.4736,220.0,220.0
1,369,7.38,0.00023,-2.79802,-0.69995,-0.13894,0.0142,0.4736,0.82576,0.82432,0.82734,0.82576,0.82439,0.82724,0.52171,0.00831,0.02489,1.0,0.0,0.0,-0.0,0.00023,0.00023,-2.79087,-2.79087,-0.69696,-0.69696,-0.13867,-0.13867,0.01404,0.01404,0.4736,0.4736,220.0,220.0
1,370,7.4,0.00023,-2.79802,-0.69995,-0.13894,0.0142,0.4736,0.82576,0.82432,0.82734,0.82576,0.8244,0.82724,0.52171,0.00831,0.02489,1.0,0.0,-0.0,-0.0,0.00023,0.00023,-2.79087,-2.79087,-0.69696,-0.69696,-0.13867,-0.13867,0.01404,0.01404,0.4736,0.4736,220.0,220.0
1,371,7.42,0.00023,-2.79802,-0.69995,-0.13894,0.0142,0.4736,0.82577,0.82433,0.82735,0.82577,0.82441,0.82725,0.52171,0.00831,0.02489,1.0,0.0,0.0,-0.0,0.00023,0.00023,-2.79087,-2.79087,-0.69696,-0.69696,-0.13867,-0.13867,0.01404,0.01404,0.4736,0.4736,220.0,220.0
1,372,7.44,0.00023,-2.79802,-0.69995,-0.13894,0.0142,0.4736,0.82575,0.82432,0.82734,0.82575,0.82439,0.82723,0.52171,0.00831,0.02489,1.0,0.0,-0.0,-0.0,0.00023,0.00023,-2.79087,-2.79087,-0.69696,-0.69696,-0.13867,-0.13867,0.01404,0.01404,0.4736,0.4736,220.0,220.0
1,373,7.46,0.00023,-2.79802,-0.69995,-0.13894,0.0142,0.4736,0.82575,0.82432,0.82733,0.82575,0.82439,0.82723,0.52171,0.00831,0.02489,1.0,0.0,0.0,-0.0,0.00023,0.00023,-2.79087,-2.79087,-0.69696,-0.69696,-0.13867,-0.13867,0.01404,0.01404,0.4736,0.4736,220.0,220.0
1,374,7.48,0.00023,-2.79802,-0.69995,-0.13894,0.0142,0.4736,0.82575,0.82431,0.82733,0.82575,0.82439,0.82723,0.52171,0.00831,0.02489,1.0,0.0,-0.0,-0.0,0.00023,0.00023,-2.79087,-2.79087,-0.69696,-0.69696,-0.13867,-0.13867,0.01404,0.01404,0.4736,0.4736,220.0,220.0
1,375,7.5,0.00023,-2.79802,-0.69995,-0.13894,0.0142,0.4736,0.82576,0.82433,0.82734,0.82576,0.8244,0.82724,0.52171,0.00831,0.02489,1.0,0.0,-0.0,-0.0,0.00023,0.00023,-2.79087,-2.79087,-0.69696,-0.69696,-0.13867,-0.13867,0.01404,0.01404,0.4736,0.4736,220.0,220.0
1,376,7.52,0.00023,-2.79802,-0.69995,-0.13894,0.0142,0.4736,0.82575,0.82432,0.82734,0.82575,0.82439,0.82723,0.52171,0.00831,0.02489,1.0,0.0,0.0,-0.0,0.00023,0.00023,-2.79087,-2.79087,-0.69696,-0.69696,-0.13867,-0.13867,0.01404,0.01404,0.4736,0.4736,220.0,220.0
1,377,7.54,0.00023,-2.79802,-0.69995,-0.13894,0.0142,0.4736,0.82577,0.82433,0.82735,0.82577,0.82441,0.82724,0.52171,0.00831,0.02489,1.0,0.0,-0.0,-0.0,0.00023,0.00023,-2.79087,-2.79087,-0.69696,-0.69696,-0.13867,-0.13867,0.01404,0.01404,0.4736,0.4736,220.0,220.0
1,378,7.56,0.00023,-2.79802,-0.69995,-0.13894,0.0142,0.4736,0.82577,0.82433,0.82735,0.82577,0.82441,0.82724,0.52171,0.00831,0.02489,1.0,0.0,0.0,-0.0,0.00023,0.00023,-2.79087,-2.79087,-0.69696,-0.69696,-0.13867,-0.13867,0.01404,0.01404,0.4736,0.4736,220.0,220.0
1,379,7.58,0.00023,-2.79802,-0.69995,-0.13894,0.0142,0.4736,0.82576,0.82433,0.82734,0.82576,0.8244,0.82724,0.52171,0.00831,0.02489,1.0,0.0,-0.0,-0.0,0.00023,0.00023,-2.79087,-2.79087,-0.69696,-0.69696,-0.13867,-0.13867,0.01404,0.01404,0.4736,0.4736,220.0,220.0
