ikatsov/phy-harness/artifacts/box_pick/joints.csv
episode,sim_step,time_sec,shoulder_pan_joint,shoulder_lift_joint,elbow_joint,wrist_1_joint,wrist_2_joint,wrist_3_joint,left_driver_joint,left_spring_link_joint,left_follower,right_driver_joint,right_spring_link_joint,right_follower_joint,grasp_box_free.px,grasp_box_free.py,grasp_box_free.pz,grasp_box_free.qw,grasp_box_free.qx,grasp_box_free.qy,grasp_box_free.qz,target_a_shoulder_pan,ctrl_a_shoulder_pan,target_a_shoulder_lift,ctrl_a_shoulder_lift,target_a_elbow,ctrl_a_elbow,target_a_wrist_1,ctrl_a_wrist_1,target_a_wrist_2,ctrl_a_wrist_2,target_a_wrist_3,ctrl_a_wrist_3,target_a_gripper,ctrl_a_gripper
1,0,0.0,0.0,0.0,0.0,0.0,0.0,0.0,0.0,0.0,0.0,0.0,0.0,0.0,0.52171,0.00831,0.035,1.0,0.0,0.0,0.0,-1.5708,-1.5708,-1.5708,-1.5708,1.5708,1.5708,-1.5708,-1.5708,-1.5708,-1.5708,0.0,0.0,0.0,0.0
1,1,0.02,-0.00377,-0.00312,0.00746,-0.00616,-0.00626,0.0,-0.01701,-0.01465,-0.01558,-0.01699,-0.01446,-0.01541,0.52171,0.00831,0.03284,1.0,0.0,0.0,0.0,-0.01571,-0.01571,-0.01571,-0.01571,0.01571,0.01571,-0.01571,-0.01571,-0.01571,-0.01571,0.0,0.0,0.0,0.0
1,2,0.04,-0.0127,-0.01005,0.01899,-0.01618,-0.01637,2e-05,-0.00535,-0.00629,-0.00581,-0.00515,-0.00576,-0.00572,0.52171,0.00831,0.02676,1.0,0.0,0.0,0.0,-0.03142,-0.03142,-0.03142,-0.03142,0.03142,0.03142,-0.03142,-0.03142,-0.03142,-0.03142,0.0,0.0,0.0,0.0
1,3,0.06,-0.02529,-0.02069,0.03215,-0.02854,-0.02874,2e-05,-0.00534,-0.00568,-0.00524,-0.00503,-0.00489,-0.00525,0.52171,0.00831,0.02179,1.0,0.0,-0.0,0.0,-0.04712,-0.04712,-0.04712,-0.04712,0.04712,0.04712,-0.04712,-0.04712,-0.04712,-0.04712,0.0,0.0,0.0,0.0
1,4,0.08,-0.03988,-0.0339,0.04607,-0.04229,-0.04245,2e-05,-0.00539,-0.00567,-0.00517,-0.00502,-0.00474,-0.00525,0.52171,0.00831,0.02253,1.0,0.0,-0.0,0.0,-0.06283,-0.06283,-0.06283,-0.06283,0.06283,0.06283,-0.06283,-0.06283,-0.06283,-0.06283,0.0,0.0,0.0,0.0
1,5,0.1,-0.05537,-0.04855,0.06048,-0.05686,-0.05697,1e-05,-0.00541,-0.00571,-0.00514,-0.005,-0.00469,-0.00527,0.52171,0.00831,0.0236,1.0,0.0,-0.0,-0.0,-0.07854,-0.07854,-0.07854,-0.07854,0.07854,0.07854,-0.07854,-0.07854,-0.07854,-0.07854,0.0,0.0,0.0,0.0
1,6,0.12,-0.07115,-0.0639,0.07528,-0.07191,-0.07196,1e-05,-0.00541,-0.00573,-0.00513,-0.00499,-0.00466,-0.00528,0.52171,0.00831,0.02426,1.0,0.0,-0.0,-0.0,-0.09425,-0.09425,-0.09425,-0.09425,0.09425,0.09425,-0.09425,-0.09425,-0.09425,-0.09425,0.0,0.0,0.0,0.0
1,7,0.14,-0.08698,-0.07952,0.09038,-0.08723,-0.08724,0.0,-0.00542,-0.00575,-0.00513,-0.00499,-0.00465,-0.00528,0.52171,0.00831,0.0246,1.0,0.0,-0.0,-0.0,-0.10996,-0.10996,-0.10996,-0.10996,0.10996,0.10996,-0.10996,-0.10996,-0.10996,-0.10996,0.0,0.0,0.0,0.0
1,8,0.16,-0.10278,-0.09522,0.1057,-0.1027,-0.1027,-0.0,-0.00542,-0.00575,-0.00513,-0.00498,-0.00464,-0.00528,0.52171,0.00831,0.02476,1.0,0.0,-0.0,-0.0,-0.12566,-0.12566,-0.12566,-0.12566,0.12566,0.12566,-0.12566,-0.12566,-0.12566,-0.12566,0.0,0.0,0.0,0.0
1,9,0.18,-0.11854,-0.11093,0.12118,-0.11827,-0.11827,-0.0,-0.00542,-0.00576,-0.00513,-0.00498,-0.00463,-0.00528,0.52171,0.00831,0.02483,1.0,0.0,-0.0,-0.0,-0.14137,-0.14137,-0.14137,-0.14137,0.14137,0.14137,-0.14137,-0.14137,-0.14137,-0.14137,0.0,0.0,0.0,0.0
1,10,0.2,-0.13428,-0.12663,0.13676,-0.13389,-0.13389,-0.0,-0.00542,-0.00576,-0.00513,-0.00498,-0.00463,-0.00528,0.52171,0.00831,0.02486,1.0,0.0,-0.0,-0.0,-0.15708,-0.15708,-0.15708,-0.15708,0.15708,0.15708,-0.15708,-0.15708,-0.15708,-0.15708,0.0,0.0,0.0,0.0
1,11,0.22,-0.15,-0.14233,0.1524,-0.14955,-0.14955,-1e-05,-0.00542,-0.00576,-0.00513,-0.00498,-0.00463,-0.00528,0.52171,0.00831,0.02488,1.0,0.0,0.0,-0.0,-0.17279,-0.17279,-0.17279,-0.17279,0.17279,0.17279,-0.17279,-0.17279,-0.17279,-0.17279,0.0,0.0,0.0,0.0
1,12,0.24,-0.16571,-0.15803,0.16806,-0.16522,-0.16524,-1e-05,-0.00542,-0.00576,-0.00513,-0.00498,-0.00463,-0.00528,0.52171,0.00831,0.02489,1.0,0.0,0.0,-0.0,-0.1885,-0.1885,-0.1885,-0.1885,0.1885,0.1885,-0.1885,-0.1885,-0.1885,-0.1885,0.0,0.0,0.0,0.0
1,13,0.26,-0.18142,-0.17374,0.18375,-0.18091,-0.18093,-1e-05,-0.00542,-0.00576,-0.00513,-0.00498,-0.00463,-0.00527,0.52171,0.00831,0.02489,1.0,0.0,0.0,-0.0,-0.2042,-0.2042,-0.2042,-0.2042,0.2042,0.2042,-0.2042,-0.2042,-0.2042,-0.2042,0.0,0.0,0.0,0.0
1,14,0.28,-0.19713,-0.18945,0.19945,-0.1966,-0.19664,-1e-05,-0.00542,-0.00576,-0.00513,-0.00498,-0.00463,-0.00527,0.52171,0.00831,0.02489,1.0,0.0,0.0,-0.0,-0.21991,-0.21991,-0.21991,-0.21991,0.21991,0.21991,-0.21991,-0.21991,-0.21991,-0.21991,0.0,0.0,0.0,0.0
1,15,0.3,-0.21285,-0.20516,0.21515,-0.2123,-0.21234,-1e-05,-0.00542,-0.00576,-0.00513,-0.00498,-0.00464,-0.00527,0.52171,0.00831,0.02489,1.0,0.0,0.0,-0.0,-0.23562,-0.23562,-0.23562,-0.23562,0.23562,0.23562,-0.23562,-0.23562,-0.23562,-0.23562,0.0,0.0,0.0,0.0
1,16,0.32,-0.22856,-0.22087,0.23086,-0.228,-0.22805,-1e-05,-0.00542,-0.00575,-0.00513,-0.00499,-0.00464,-0.00527,0.52171,0.00831,0.02489,1.0,0.0,0.0,-0.0,-0.25133,-0.25133,-0.25133,-0.25133,0.25133,0.25133,-0.25133,-0.25133,-0.25133,-0.25133,0.0,0.0,0.0,0.0
1,17,0.34,-0.24427,-0.23659,0.24657,-0.2437,-0.24377,-1e-05,-0.00542,-0.00575,-0.00513,-0.00499,-0.00464,-0.00527,0.52171,0.00831,0.02489,1.0,0.0,-0.0,-0.0,-0.26704,-0.26704,-0.26704,-0.26704,0.26704,0.26704,-0.26704,-0.26704,-0.26704,-0.26704,0.0,0.0,0.0,0.0
1,18,0.36,-0.25998,-0.25231,0.26228,-0.2594,-0.25948,-1e-05,-0.00542,-0.00575,-0.00514,-0.00499,-0.00464,-0.00527,0.52171,0.00831,0.02489,1.0,0.0,-0.0,-0.0,-0.28274,-0.28274,-0.28274,-0.28274,0.28274,0.28274,-0.28274,-0.28274,-0.28274,-0.28274,0.0,0.0,0.0,0.0
1,19,0.38,-0.2757,-0.26804,0.27798,-0.27511,-0.27519,-1e-05,-0.00542,-0.00575,-0.00514,-0.00499,-0.00464,-0.00527,0.52171,0.00831,0.02489,1.0,0.0,-0.0,-0.0,-0.29845,-0.29845,-0.29845,-0.29845,0.29845,0.29845,-0.29845,-0.29845,-0.29845,-0.29845,0.0,0.0,0.0,0.0
1,20,0.4,-0.29141,-0.28376,0.29369,-0.29081,-0.2909,-1e-05,-0.00542,-0.00575,-0.00514,-0.00499,-0.00464,-0.00527,0.52171,0.00831,0.02489,1.0,0.0,-0.0,-0.0,-0.31416,-0.31416,-0.31416,-0.31416,0.31416,0.31416,-0.31416,-0.31416,-0.31416,-0.31416,0.0,0.0,0.0,0.0
1,21,0.42,-0.30712,-0.29948,0.3094,-0.30651,-0.30662,-1e-05,-0.00542,-0.00575,-0.00514,-0.00499,-0.00465,-0.00527,0.52171,0.00831,0.02489,1.0,0.0,-0.0,-0.0,-0.32987,-0.32987,-0.32987,-0.32987,0.32987,0.32987,-0.32987,-0.32987,-0.32987,-0.32987,0.0,0.0,0.0,0.0
1,22,0.44,-0.32283,-0.31521,0.32512,-0.32222,-0.32233,-1e-05,-0.00542,-0.00575,-0.00514,-0.00499,-0.00465,-0.00527,0.52171,0.00831,0.02489,1.0,0.0,-0.0,-0.0,-0.34558,-0.34558,-0.34558,-0.34558,0.34558,0.34558,-0.34558,-0.34558,-0.34558,-0.34558,0.0,0.0,0.0,0.0
1,23,0.46,-0.33854,-0.33094,0.34083,-0.33792,-0.33804,-1e-05,-0.00541,-0.00575,-0.00514,-0.00499,-0.00465,-0.00526,0.52171,0.00831,0.02489,1.0,0.0,-0.0,-0.0,-0.36128,-0.36128,-0.36128,-0.36128,0.36128,0.36128,-0.36128,-0.36128,-0.36128,-0.36128,0.0,0.0,0.0,0.0
1,24,0.48,-0.35426,-0.34667,0.35654,-0.35362,-0.35376,-1e-05,-0.00541,-0.00574,-0.00514,-0.00499,-0.00465,-0.00526,0.52171,0.00831,0.02489,1.0,0.0,-0.0,-0.0,-0.37699,-0.37699,-0.37699,-0.37699,0.37699,0.37699,-0.37699,-0.37699,-0.37699,-0.37699,0.0,0.0,0.0,0.0
1,25,0.5,-0.36997,-0.3624,0.37225,-0.36933,-0.36947,-1e-05,-0.00541,-0.00574,-0.00514,-0.00499,-0.00465,-0.00526,0.52171,0.00831,0.02489,1.0,0.0,-0.0,-0.0,-0.3927,-0.3927,-0.3927,-0.3927,0.3927,0.3927,-0.3927,-0.3927,-0.3927,-0.3927,0.0,0.0,0.0,0.0
1,26,0.52,-0.38568,-0.37813,0.38796,-0.38503,-0.38518,-1e-05,-0.00541,-0.00574,-0.00514,-0.00499,-0.00465,-0.00526,0.52171,0.00831,0.02489,1.0,0.0,-0.0,-0.0,-0.40841,-0.40841,-0.40841,-0.40841,0.40841,0.40841,-0.40841,-0.40841,-0.40841,-0.40841,0.0,0.0,0.0,0.0
1,27,0.54,-0.40139,-0.39386,0.40367,-0.40073,-0.4009,-1e-05,-0.00541,-0.00574,-0.00514,-0.005,-0.00466,-0.00526,0.52171,0.00831,0.02489,1.0,0.0,-0.0,-0.0,-0.42412,-0.42412,-0.42412,-0.42412,0.42412,0.42412,-0.42412,-0.42412,-0.42412,-0.42412,0.0,0.0,0.0,0.0
1,28,0.56,-0.4171,-0.40959,0.41938,-0.41644,-0.41661,-1e-05,-0.00541,-0.00574,-0.00514,-0.005,-0.00466,-0.00526,0.52171,0.00831,0.02489,1.0,0.0,-0.0,-0.0,-0.43982,-0.43982,-0.43982,-0.43982,0.43982,0.43982,-0.43982,-0.43982,-0.43982,-0.43982,0.0,0.0,0.0,0.0
1,29,0.58,-0.43281,-0.42533,0.43509,-0.43214,-0.43232,-1e-05,-0.00541,-0.00574,-0.00514,-0.005,-0.00466,-0.00526,0.52171,0.00831,0.02489,1.0,0.0,-0.0,-0.0,-0.45553,-0.45553,-0.45553,-0.45553,0.45553,0.45553,-0.45553,-0.45553,-0.45553,-0.45553,0.0,0.0,0.0,0.0
1,30,0.6,-0.44852,-0.44107,0.4508,-0.44784,-0.44804,-1e-05,-0.00541,-0.00574,-0.00515,-0.005,-0.00466,-0.00526,0.52171,0.00831,0.02489,1.0,0.0,-0.0,-0.0,-0.47124,-0.47124,-0.47124,-0.47124,0.47124,0.47124,-0.47124,-0.47124,-0.47124,-0.47124,0.0,0.0,0.0,0.0
1,31,0.62,-0.46424,-0.4568,0.46651,-0.46355,-0.46375,-1e-05,-0.00541,-0.00574,-0.00515,-0.005,-0.00466,-0.00526,0.52171,0.00831,0.02489,1.0,0.0,-0.0,-0.0,-0.48695,-0.48695,-0.48695,-0.48695,0.48695,0.48695,-0.48695,-0.48695,-0.48695,-0.48695,0.0,0.0,0.0,0.0
1,32,0.64,-0.47995,-0.47254,0.48223,-0.47925,-0.47946,-1e-05,-0.00541,-0.00574,-0.00515,-0.005,-0.00466,-0.00526,0.52171,0.00831,0.02489,1.0,0.0,-0.0,-0.0,-0.50266,-0.50266,-0.50266,-0.50266,0.50266,0.50266,-0.50266,-0.50266,-0.50266,-0.50266,0.0,0.0,0.0,0.0
1,33,0.66,-0.49566,-0.48828,0.49794,-0.49495,-0.49517,-1e-05,-0.00541,-0.00573,-0.00515,-0.005,-0.00467,-0.00526,0.52171,0.00831,0.02489,1.0,0.0,-0.0,-0.0,-0.51836,-0.51836,-0.51836,-0.51836,0.51836,0.51836,-0.51836,-0.51836,-0.51836,-0.51836,0.0,0.0,0.0,0.0
1,34,0.68,-0.51137,-0.50402,0.51365,-0.51065,-0.51089,-1e-05,-0.00541,-0.00573,-0.00515,-0.005,-0.00467,-0.00526,0.52171,0.00831,0.02489,1.0,0.0,-0.0,-0.0,-0.53407,-0.53407,-0.53407,-0.53407,0.53407,0.53407,-0.53407,-0.53407,-0.53407,-0.53407,0.0,0.0,0.0,0.0
1,35,0.7,-0.52708,-0.51976,0.52936,-0.52636,-0.5266,-1e-05,-0.00541,-0.00573,-0.00515,-0.005,-0.00467,-0.00526,0.52171,0.00831,0.02489,1.0,0.0,-0.0,-0.0,-0.54978,-0.54978,-0.54978,-0.54978,0.54978,0.54978,-0.54978,-0.54978,-0.54978,-0.54978,0.0,0.0,0.0,0.0
1,36,0.72,-0.54279,-0.53551,0.54507,-0.54206,-0.54231,-1e-05,-0.00541,-0.00573,-0.00515,-0.005,-0.00467,-0.00526,0.52171,0.00831,0.02489,1.0,0.0,-0.0,-0.0,-0.56549,-0.56549,-0.56549,-0.56549,0.56549,0.56549,-0.56549,-0.56549,-0.56549,-0.56549,0.0,0.0,0.0,0.0
1,37,0.74,-0.5585,-0.55125,0.56079,-0.55776,-0.55802,-1e-05,-0.00541,-0.00573,-0.00515,-0.005,-0.00467,-0.00526,0.52171,0.00831,0.02489,1.0,0.0,-0.0,-0.0,-0.5812,-0.5812,-0.5812,-0.5812,0.5812,0.5812,-0.5812,-0.5812,-0.5812,-0.5812,0.0,0.0,0.0,0.0
1,38,0.76,-0.57421,-0.567,0.5765,-0.57346,-0.57374,-1e-05,-0.0054,-0.00573,-0.00515,-0.005,-0.00467,-0.00526,0.52171,0.00831,0.02489,1.0,0.0,-0.0,-0.0,-0.5969,-0.5969,-0.5969,-0.5969,0.5969,0.5969,-0.5969,-0.5969,-0.5969,-0.5969,0.0,0.0,0.0,0.0
1,39,0.78,-0.58992,-0.58274,0.59221,-0.58917,-0.58945,-1e-05,-0.0054,-0.00573,-0.00515,-0.005,-0.00467,-0.00526,0.52171,0.00831,0.02489,1.0,0.0,-0.0,-0.0,-0.61261,-0.61261,-0.61261,-0.61261,0.61261,0.61261,-0.61261,-0.61261,-0.61261,-0.61261,0.0,0.0,0.0,0.0
1,40,0.8,-0.60563,-0.59849,0.60792,-0.60487,-0.60516,-1e-05,-0.0054,-0.00573,-0.00515,-0.005,-0.00468,-0.00526,0.52171,0.00831,0.02489,1.0,0.0,-0.0,-0.0,-0.62832,-0.62832,-0.62832,-0.62832,0.62832,0.62832,-0.62832,-0.62832,-0.62832,-0.62832,0.0,0.0,0.0,0.0
1,41,0.82,-0.62134,-0.61424,0.62363,-0.62057,-0.62087,-1e-05,-0.0054,-0.00573,-0.00515,-0.00501,-0.00468,-0.00526,0.52171,0.00831,0.02489,1.0,0.0,-0.0,-0.0,-0.64403,-0.64403,-0.64403,-0.64403,0.64403,0.64403,-0.64403,-0.64403,-0.64403,-0.64403,0.0,0.0,0.0,0.0
1,42,0.84,-0.63705,-0.62999,0.63935,-0.63627,-0.63658,-1e-05,-0.0054,-0.00573,-0.00515,-0.00501,-0.00468,-0.00526,0.52171,0.00831,0.02489,1.0,0.0,-0.0,-0.0,-0.65974,-0.65974,-0.65974,-0.65974,0.65974,0.65974,-0.65974,-0.65974,-0.65974,-0.65974,0.0,0.0,0.0,0.0
1,43,0.86,-0.65276,-0.64574,0.65506,-0.65198,-0.65229,-1e-05,-0.0054,-0.00573,-0.00515,-0.00501,-0.00468,-0.00526,0.52171,0.00831,0.02489,1.0,0.0,-0.0,-0.0,-0.67544,-0.67544,-0.67544,-0.67544,0.67544,0.67544,-0.67544,-0.67544,-0.67544,-0.67544,0.0,0.0,0.0,0.0
1,44,0.88,-0.66846,-0.66149,0.67077,-0.66768,-0.668,-1e-05,-0.0054,-0.00573,-0.00515,-0.00501,-0.00468,-0.00526,0.52171,0.00831,0.02489,1.0,0.0,-0.0,-0.0,-0.69115,-0.69115,-0.69115,-0.69115,0.69115,0.69115,-0.69115,-0.69115,-0.69115,-0.69115,0.0,0.0,0.0,0.0
1,45,0.9,-0.68417,-0.67725,0.68649,-0.68338,-0.68371,-1e-05,-0.0054,-0.00573,-0.00515,-0.00501,-0.00468,-0.00526,0.52171,0.00831,0.02489,1.0,0.0,-0.0,-0.0,-0.70686,-0.70686,-0.70686,-0.70686,0.70686,0.70686,-0.70686,-0.70686,-0.70686,-0.70686,0.0,0.0,0.0,0.0
1,46,0.92,-0.69988,-0.693,0.7022,-0.69908,-0.69942,-1e-05,-0.0054,-0.00573,-0.00515,-0.00501,-0.00468,-0.00526,0.52171,0.00831,0.02489,1.0,0.0,0.0,-0.0,-0.72257,-0.72257,-0.72257,-0.72257,0.72257,0.72257,-0.72257,-0.72257,-0.72257,-0.72257,0.0,0.0,0.0,0.0
1,47,0.94,-0.71559,-0.70876,0.71791,-0.71478,-0.71514,-1e-05,-0.0054,-0.00573,-0.00515,-0.00501,-0.00468,-0.00525,0.52171,0.00831,0.02489,1.0,0.0,-0.0,-0.0,-0.73828,-0.73828,-0.73828,-0.73828,0.73828,0.73828,-0.73828,-0.73828,-0.73828,-0.73828,0.0,0.0,0.0,0.0
1,48,0.96,-0.7313,-0.72451,0.73362,-0.73049,-0.73085,-1e-05,-0.0054,-0.00572,-0.00515,-0.00501,-0.00468,-0.00525,0.52171,0.00831,0.02489,1.0,0.0,0.0,-0.0,-0.75398,-0.75398,-0.75398,-0.75398,0.75398,0.75398,-0.75398,-0.75398,-0.75398,-0.75398,0.0,0.0,0.0,0.0
1,49,0.98,-0.74701,-0.74027,0.74934,-0.74619,-0.74656,-1e-05,-0.0054,-0.00572,-0.00515,-0.00501,-0.00469,-0.00525,0.52171,0.00831,0.02489,1.0,0.0,-0.0,-0.0,-0.76969,-0.76969,-0.76969,-0.76969,0.76969,0.76969,-0.76969,-0.76969,-0.76969,-0.76969,0.0,0.0,0.0,0.0
1,50,1.0,-0.76272,-0.75603,0.76505,-0.76189,-0.76227,-1e-05,-0.0054,-0.00572,-0.00515,-0.00501,-0.00469,-0.00525,0.52171,0.00831,0.02489,1.0,0.0,0.0,-0.0,-0.7854,-0.7854,-0.7854,-0.7854,0.7854,0.7854,-0.7854,-0.7854,-0.7854,-0.7854,0.0,0.0,0.0,0.0
1,51,1.02,-0.77842,-0.77179,0.78076,-0.77759,-0.77798,-1e-05,-0.0054,-0.00572,-0.00515,-0.00501,-0.00469,-0.00525,0.52171,0.00831,0.02489,1.0,0.0,0.0,-0.0,-0.80111,-0.80111,-0.80111,-0.80111,0.80111,0.80111,-0.80111,-0.80111,-0.80111,-0.80111,0.0,0.0,0.0,0.0
1,52,1.04,-0.79413,-0.78755,0.79648,-0.79329,-0.79368,-1e-05,-0.0054,-0.00572,-0.00515,-0.00501,-0.00469,-0.00525,0.52171,0.00831,0.02489,1.0,0.0,0.0,-0.0,-0.81682,-0.81682,-0.81682,-0.81682,0.81682,0.81682,-0.81682,-0.81682,-0.81682,-0.81682,0.0,0.0,0.0,0.0
1,53,1.06,-0.80984,-0.80331,0.81219,-0.80899,-0.80939,-1e-05,-0.0054,-0.00572,-0.00515,-0.00501,-0.00469,-0.00525,0.52171,0.00831,0.02489,1.0,0.0,0.0,-0.0,-0.83252,-0.83252,-0.83252,-0.83252,0.83252,0.83252,-0.83252,-0.83252,-0.83252,-0.83252,0.0,0.0,0.0,0.0
1,54,1.08,-0.82555,-0.81907,0.8279,-0.82469,-0.8251,-1e-05,-0.0054,-0.00572,-0.00515,-0.00501,-0.00469,-0.00525,0.52171,0.00831,0.02489,1.0,0.0,-0.0,-0.0,-0.84823,-0.84823,-0.84823,-0.84823,0.84823,0.84823,-0.84823,-0.84823,-0.84823,-0.84823,0.0,0.0,0.0,0.0
1,55,1.1,-0.84125,-0.83483,0.84362,-0.8404,-0.84081,-1e-05,-0.0054,-0.00572,-0.00515,-0.00501,-0.00469,-0.00525,0.52171,0.00831,0.02489,1.0,0.0,0.0,-0.0,-0.86394,-0.86394,-0.86394,-0.86394,0.86394,0.86394,-0.86394,-0.86394,-0.86394,-0.86394,0.0,0.0,0.0,0.0
1,56,1.12,-0.85696,-0.8506,0.85933,-0.8561,-0.85652,-1e-05,-0.0054,-0.00572,-0.00515,-0.00501,-0.00469,-0.00525,0.52171,0.00831,0.02489,1.0,0.0,-0.0,-0.0,-0.87965,-0.87965,-0.87965,-0.87965,0.87965,0.87965,-0.87965,-0.87965,-0.87965,-0.87965,0.0,0.0,0.0,0.0
1,57,1.14,-0.87267,-0.86636,0.87504,-0.8718,-0.87223,-1e-05,-0.0054,-0.00572,-0.00515,-0.00501,-0.00469,-0.00525,0.52171,0.00831,0.02489,1.0,0.0,-0.0,-0.0,-0.89536,-0.89536,-0.89536,-0.89536,0.89536,0.89536,-0.89536,-0.89536,-0.89536,-0.89536,0.0,0.0,0.0,0.0
1,58,1.16,-0.88837,-0.88213,0.89076,-0.8875,-0.88794,-0.0,-0.0054,-0.00572,-0.00515,-0.00501,-0.00469,-0.00525,0.52171,0.00831,0.02489,1.0,0.0,0.0,-0.0,-0.91106,-0.91106,-0.91106,-0.91106,0.91106,0.91106,-0.91106,-0.91106,-0.91106,-0.91106,0.0,0.0,0.0,0.0
1,59,1.18,-0.90408,-0.89789,0.90647,-0.9032,-0.90365,-0.0,-0.0054,-0.00572,-0.00515,-0.00501,-0.00469,-0.00525,0.52171,0.00831,0.02489,1.0,0.0,-0.0,-0.0,-0.92677,-0.92677,-0.92677,-0.92677,0.92677,0.92677,-0.92677,-0.92677,-0.92677,-0.92677,0.0,0.0,0.0,0.0
1,60,1.2,-0.91978,-0.91366,0.92219,-0.9189,-0.91936,-0.0,-0.0054,-0.00572,-0.00515,-0.00501,-0.00469,-0.00525,0.52171,0.00831,0.02489,1.0,0.0,0.0,-0.0,-0.94248,-0.94248,-0.94248,-0.94248,0.94248,0.94248,-0.94248,-0.94248,-0.94248,-0.94248,0.0,0.0,0.0,0.0
1,61,1.22,-0.93549,-0.92943,0.9379,-0.9346,-0.93506,-0.0,-0.0054,-0.00572,-0.00515,-0.00501,-0.0047,-0.00525,0.52171,0.00831,0.02489,1.0,0.0,-0.0,-0.0,-0.95819,-0.95819,-0.95819,-0.95819,0.95819,0.95819,-0.95819,-0.95819,-0.95819,-0.95819,0.0,0.0,0.0,0.0
1,62,1.24,-0.9512,-0.9452,0.95361,-0.9503,-0.95077,-0.0,-0.0054,-0.00572,-0.00515,-0.00501,-0.0047,-0.00525,0.52171,0.00831,0.02489,1.0,0.0,0.0,-0.0,-0.9739,-0.9739,-0.9739,-0.9739,0.9739,0.9739,-0.9739,-0.9739,-0.9739,-0.9739,0.0,0.0,0.0,0.0
1,63,1.26,-0.9669,-0.96097,0.96933,-0.966,-0.96648,-0.0,-0.0054,-0.00572,-0.00515,-0.00501,-0.0047,-0.00525,0.52171,0.00831,0.02489,1.0,0.0,-0.0,-0.0,-0.9896,-0.9896,-0.9896,-0.9896,0.9896,0.9896,-0.9896,-0.9896,-0.9896,-0.9896,0.0,0.0,0.0,0.0
1,64,1.28,-0.98261,-0.97674,0.98504,-0.98171,-0.98219,-0.0,-0.0054,-0.00572,-0.00515,-0.00501,-0.0047,-0.00525,0.52171,0.00831,0.02489,1.0,0.0,-0.0,-0.0,-1.00531,-1.00531,-1.00531,-1.00531,1.00531,1.00531,-1.00531,-1.00531,-1.00531,-1.00531,0.0,0.0,0.0,0.0
1,65,1.3,-0.99831,-0.99251,1.00076,-0.99741,-0.99789,-0.0,-0.0054,-0.00572,-0.00516,-0.00501,-0.0047,-0.00525,0.52171,0.00831,0.02489,1.0,0.0,0.0,-0.0,-1.02102,-1.02102,-1.02102,-1.02102,1.02102,1.02102,-1.02102,-1.02102,-1.02102,-1.02102,0.0,0.0,0.0,0.0
1,66,1.32,-1.01402,-1.00828,1.01647,-1.01311,-1.0136,-0.0,-0.0054,-0.00572,-0.00516,-0.00501,-0.0047,-0.00525,0.52171,0.00831,0.02489,1.0,0.0,-0.0,-0.0,-1.03673,-1.03673,-1.03673,-1.03673,1.03673,1.03673,-1.03673,-1.03673,-1.03673,-1.03673,0.0,0.0,0.0,0.0
1,67,1.34,-1.02972,-1.02406,1.03219,-1.02881,-1.02931,-0.0,-0.0054,-0.00572,-0.00516,-0.00502,-0.0047,-0.00525,0.52171,0.00831,0.02489,1.0,0.0,-0.0,-0.0,-1.05244,-1.05244,-1.05244,-1.05244,1.05244,1.05244,-1.05244,-1.05244,-1.05244,-1.05244,0.0,0.0,0.0,0.0
1,68,1.36,-1.04542,-1.03983,1.0479,-1.04451,-1.04501,-0.0,-0.0054,-0.00572,-0.00516,-0.00502,-0.0047,-0.00525,0.52171,0.00831,0.02489,1.0,0.0,0.0,-0.0,-1.06814,-1.06814,-1.06814,-1.06814,1.06814,1.06814,-1.06814,-1.06814,-1.06814,-1.06814,0.0,0.0,0.0,0.0
1,69,1.38,-1.06113,-1.0556,1.06361,-1.06021,-1.06072,-0.0,-0.0054,-0.00572,-0.00516,-0.00502,-0.0047,-0.00525,0.52171,0.00831,0.02489,1.0,0.0,-0.0,-0.0,-1.08385,-1.08385,-1.08385,-1.08385,1.08385,1.08385,-1.08385,-1.08385,-1.08385,-1.08385,0.0,0.0,0.0,0.0
1,70,1.4,-1.07683,-1.07138,1.07933,-1.07591,-1.07643,-0.0,-0.0054,-0.00572,-0.00516,-0.00502,-0.0047,-0.00525,0.52171,0.00831,0.02489,1.0,0.0,0.0,-0.0,-1.09956,-1.09956,-1.09956,-1.09956,1.09956,1.09956,-1.09956,-1.09956,-1.09956,-1.09956,0.0,0.0,0.0,0.0
1,71,1.42,-1.09254,-1.08715,1.09504,-1.09161,-1.09213,-0.0,-0.0054,-0.00571,-0.00516,-0.00502,-0.0047,-0.00525,0.52171,0.00831,0.02489,1.0,0.0,-0.0,-0.0,-1.11527,-1.11527,-1.11527,-1.11527,1.11527,1.11527,-1.11527,-1.11527,-1.11527,-1.11527,0.0,0.0,0.0,0.0
1,72,1.44,-1.10824,-1.10293,1.11076,-1.10731,-1.10784,-0.0,-0.0054,-0.00571,-0.00516,-0.00502,-0.0047,-0.00525,0.52171,0.00831,0.02489,1.0,0.0,0.0,-0.0,-1.13098,-1.13098,-1.13098,-1.13098,1.13098,1.13098,-1.13098,-1.13098,-1.13098,-1.13098,0.0,0.0,0.0,0.0
1,73,1.46,-1.12394,-1.11871,1.12647,-1.12301,-1.12355,-0.0,-0.0054,-0.00571,-0.00516,-0.00502,-0.0047,-0.00525,0.52171,0.00831,0.02489,1.0,0.0,-0.0,-0.0,-1.14668,-1.14668,-1.14668,-1.14668,1.14668,1.14668,-1.14668,-1.14668,-1.14668,-1.14668,0.0,0.0,0.0,0.0
1,74,1.48,-1.13965,-1.13449,1.14219,-1.13871,-1.13925,-0.0,-0.0054,-0.00571,-0.00516,-0.00502,-0.0047,-0.00524,0.52171,0.00831,0.02489,1.0,0.0,-0.0,-0.0,-1.16239,-1.16239,-1.16239,-1.16239,1.16239,1.16239,-1.16239,-1.16239,-1.16239,-1.16239,0.0,0.0,0.0,0.0
1,75,1.5,-1.15535,-1.15026,1.1579,-1.15441,-1.15496,-0.0,-0.0054,-0.00571,-0.00516,-0.00502,-0.0047,-0.00524,0.52171,0.00831,0.02489,1.0,0.0,0.0,-0.0,-1.1781,-1.1781,-1.1781,-1.1781,1.1781,1.1781,-1.1781,-1.1781,-1.1781,-1.1781,0.0,0.0,0.0,0.0
1,76,1.52,-1.17105,-1.16604,1.17362,-1.17011,-1.17066,-0.0,-0.0054,-0.00571,-0.00516,-0.00502,-0.0047,-0.00524,0.52171,0.00831,0.02489,1.0,0.0,-0.0,-0.0,-1.19381,-1.19381,-1.19381,-1.19381,1.19381,1.19381,-1.19381,-1.19381,-1.19381,-1.19381,0.0,0.0,0.0,0.0
1,77,1.54,-1.18675,-1.18182,1.18933,-1.18581,-1.18637,-0.0,-0.0054,-0.00571,-0.00516,-0.00502,-0.0047,-0.00524,0.52171,0.00831,0.02489,1.0,0.0,-0.0,-0.0,-1.20952,-1.20952,-1.20952,-1.20952,1.20952,1.20952,-1.20952,-1.20952,-1.20952,-1.20952,0.0,0.0,0.0,0.0
1,78,1.56,-1.20246,-1.1976,1.20505,-1.20151,-1.20207,-0.0,-0.0054,-0.00571,-0.00516,-0.00502,-0.0047,-0.00524,0.52171,0.00831,0.02489,1.0,0.0,0.0,-0.0,-1.22522,-1.22522,-1.22522,-1.22522,1.22522,1.22522,-1.22522,-1.22522,-1.22522,-1.22522,0.0,0.0,0.0,0.0
1,79,1.58,-1.21816,-1.21338,1.22076,-1.21721,-1.21778,-0.0,-0.00539,-0.00571,-0.00516,-0.00502,-0.0047,-0.00524,0.52171,0.00831,0.02489,1.0,0.0,0.0,-0.0,-1.24093,-1.24093,-1.24093,-1.24093,1.24093,1.24093,-1.24093,-1.24093,-1.24093,-1.24093,0.0,0.0,0.0,0.0
1,80,1.6,-1.23386,-1.22917,1.23648,-1.23291,-1.23348,0.0,-0.00539,-0.00571,-0.00516,-0.00502,-0.0047,-0.00524,0.52171,0.00831,0.02489,1.0,0.0,-0.0,-0.0,-1.25664,-1.25664,-1.25664,-1.25664,1.25664,1.25664,-1.25664,-1.25664,-1.25664,-1.25664,0.0,0.0,0.0,0.0
1,81,1.62,-1.24956,-1.24495,1.25219,-1.24862,-1.24919,0.0,-0.00539,-0.00571,-0.00516,-0.00502,-0.0047,-0.00524,0.52171,0.00831,0.02489,1.0,0.0,0.0,-0.0,-1.27235,-1.27235,-1.27235,-1.27235,1.27235,1.27235,-1.27235,-1.27235,-1.27235,-1.27235,0.0,0.0,0.0,0.0
1,82,1.64,-1.26526,-1.26073,1.2679,-1.26432,-1.26489,0.0,-0.00539,-0.00571,-0.00516,-0.00502,-0.0047,-0.00524,0.52171,0.00831,0.02489,1.0,0.0,-0.0,-0.0,-1.28806,-1.28806,-1.28806,-1.28806,1.28806,1.28806,-1.28806,-1.28806,-1.28806,-1.28806,0.0,0.0,0.0,0.0
1,83,1.66,-1.28096,-1.27651,1.28362,-1.28002,-1.2806,0.0,-0.00539,-0.00571,-0.00516,-0.00502,-0.0047,-0.00524,0.52171,0.00831,0.02489,1.0,0.0,0.0,-0.0,-1.30376,-1.30376,-1.30376,-1.30376,1.30376,1.30376,-1.30376,-1.30376,-1.30376,-1.30376,0.0,0.0,0.0,0.0
1,84,1.68,-1.29666,-1.29229,1.29933,-1.29572,-1.2963,0.0,-0.00539,-0.00571,-0.00517,-0.00502,-0.0047,-0.00524,0.52171,0.00831,0.02489,1.0,0.0,-0.0,-0.0,-1.31947,-1.31947,-1.31947,-1.31947,1.31947,1.31947,-1.31947,-1.31947,-1.31947,-1.31947,0.0,0.0,0.0,0.0
1,85,1.7,-1.31237,-1.30808,1.31505,-1.31142,-1.31201,0.0,-0.00539,-0.00571,-0.00517,-0.00502,-0.0047,-0.00523,0.52171,0.00831,0.02489,1.0,0.0,0.0,-0.0,-1.33518,-1.33518,-1.33518,-1.33518,1.33518,1.33518,-1.33518,-1.33518,-1.33518,-1.33518,0.0,0.0,0.0,0.0
1,86,1.72,-1.32807,-1.32386,1.33076,-1.32712,-1.32771,0.0,-0.00539,-0.00571,-0.00517,-0.00502,-0.0047,-0.00523,0.52171,0.00831,0.02489,1.0,0.0,-0.0,-0.0,-1.35089,-1.35089,-1.35089,-1.35089,1.35089,1.35089,-1.35089,-1.35089,-1.35089,-1.35089,0.0,0.0,0.0,0.0
1,87,1.74,-1.34377,-1.33965,1.34648,-1.34282,-1.34342,0.0,-0.00539,-0.00571,-0.00517,-0.00502,-0.0047,-0.00523,0.52171,0.00831,0.02489,1.0,0.0,-0.0,-0.0,-1.3666,-1.3666,-1.3666,-1.3666,1.3666,1.3666,-1.3666,-1.3666,-1.3666,-1.3666,0.0,0.0,0.0,0.0
1,88,1.76,-1.35947,-1.35543,1.36219,-1.35852,-1.35912,0.0,-0.00539,-0.00571,-0.00517,-0.00502,-0.0047,-0.00523,0.52171,0.00831,0.02489,1.0,0.0,0.0,-0.0,-1.3823,-1.3823,-1.3823,-1.3823,1.3823,1.3823,-1.3823,-1.3823,-1.3823,-1.3823,0.0,0.0,0.0,0.0
1,89,1.78,-1.37517,-1.37122,1.37791,-1.37422,-1.37482,0.0,-0.00539,-0.00571,-0.00517,-0.00502,-0.0047,-0.00523,0.52171,0.00831,0.02489,1.0,0.0,-0.0,-0.0,-1.39801,-1.39801,-1.39801,-1.39801,1.39801,1.39801,-1.39801,-1.39801,-1.39801,-1.39801,0.0,0.0,0.0,0.0
1,90,1.8,-1.39087,-1.387,1.39362,-1.38992,-1.39053,0.0,-0.00539,-0.00571,-0.00517,-0.00502,-0.0047,-0.00523,0.52171,0.00831,0.02489,1.0,0.0,0.0,-0.0,-1.41372,-1.41372,-1.41372,-1.41372,1.41372,1.41372,-1.41372,-1.41372,-1.41372,-1.41372,0.0,0.0,0.0,0.0
1,91,1.82,-1.40657,-1.40279,1.40934,-1.40562,-1.40623,0.0,-0.00539,-0.00572,-0.00517,-0.00502,-0.0047,-0.00523,0.52171,0.00831,0.02489,1.0,0.0,-0.0,-0.0,-1.42943,-1.42943,-1.42943,-1.42943,1.42943,1.42943,-1.42943,-1.42943,-1.42943,-1.42943,0.0,0.0,0.0,0.0
1,92,1.84,-1.42227,-1.41857,1.42505,-1.42132,-1.42194,0.0,-0.00539,-0.00572,-0.00517,-0.00502,-0.0047,-0.00522,0.52171,0.00831,0.02489,1.0,0.0,0.0,-0.0,-1.44514,-1.44514,-1.44514,-1.44514,1.44514,1.44514,-1.44514,-1.44514,-1.44514,-1.44514,0.0,0.0,0.0,0.0
1,93,1.86,-1.43797,-1.43436,1.44077,-1.43702,-1.43764,0.0,-0.00539,-0.00572,-0.00518,-0.00502,-0.0047,-0.00522,0.52171,0.00831,0.02489,1.0,0.0,-0.0,-0.0,-1.46084,-1.46084,-1.46084,-1.46084,1.46084,1.46084,-1.46084,-1.46084,-1.46084,-1.46084,0.0,0.0,0.0,0.0
1,94,1.88,-1.45366,-1.45015,1.45648,-1.45273,-1.45334,0.0,-0.00539,-0.00572,-0.00518,-0.00502,-0.0047,-0.00522,0.52171,0.00831,0.02489,1.0,0.0,0.0,-0.0,-1.47655,-1.47655,-1.47655,-1.47655,1.47655,1.47655,-1.47655,-1.47655,-1.47655,-1.47655,0.0,0.0,0.0,0.0
1,95,1.9,-1.46936,-1.46593,1.4722,-1.46843,-1.46905,0.0,-0.00539,-0.00572,-0.00518,-0.00502,-0.0047,-0.00522,0.52171,0.00831,0.02489,1.0,0.0,0.0,-0.0,-1.49226,-1.49226,-1.49226,-1.49226,1.49226,1.49226,-1.49226,-1.49226,-1.49226,-1.49226,0.0,0.0,0.0,0.0
1,96,1.92,-1.48506,-1.48172,1.48791,-1.48413,-1.48475,1e-05,-0.00539,-0.00572,-0.00518,-0.00502,-0.0047,-0.00522,0.52171,0.00831,0.02489,1.0,0.0,-0.0,-0.0,-1.50797,-1.50797,-1.50797,-1.50797,1.50797,1.50797,-1.50797,-1.50797,-1.50797,-1.50797,0.0,0.0,0.0,0.0
1,97,1.94,-1.50076,-1.49751,1.50362,-1.49983,-1.50045,1e-05,-0.00539,-0.00572,-0.00518,-0.00502,-0.0047,-0.00522,0.52171,0.00831,0.02489,1.0,0.0,-0.0,-0.0,-1.52368,-1.52368,-1.52368,-1.52368,1.52368,1.52368,-1.52368,-1.52368,-1.52368,-1.52368,0.0,0.0,0.0,0.0
1,98,1.96,-1.51646,-1.5133,1.51934,-1.51553,-1.51616,1e-05,-0.00539,-0.00572,-0.00518,-0.00502,-0.0047,-0.00522,0.52171,0.00831,0.02489,1.0,0.0,0.0,-0.0,-1.53938,-1.53938,-1.53938,-1.53938,1.53938,1.53938,-1.53938,-1.53938,-1.53938,-1.53938,0.0,0.0,0.0,0.0
1,99,1.98,-1.53216,-1.52908,1.53505,-1.53123,-1.53186,1e-05,-0.00539,-0.00572,-0.00518,-0.00502,-0.0047,-0.00521,0.52171,0.00831,0.02489,1.0,0.0,-0.0,-0.0,-1.55509,-1.55509,-1.55509,-1.55509,1.55509,1.55509,-1.55509,-1.55509,-1.55509,-1.55509,0.0,0.0,0.0,0.0
1,100,2.0,-1.54786,-1.54487,1.55077,-1.54694,-1.54756,1e-05,-0.00539,-0.00572,-0.00519,-0.00502,-0.0047,-0.00521,0.52171,0.00831,0.02489,1.0,0.0,0.0,-0.0,-1.5708,-1.5708,-1.5708,-1.5708,1.5708,1.5708,-1.5708,-1.5708,-1.5708,-1.5708,0.0,0.0,0.0,0.0
1,101,2.02,-1.56034,-1.55842,1.56487,-1.55765,-1.55717,-0.00261,-0.0054,-0.00571,-0.00516,-0.00501,-0.00471,-0.00523,0.52171,0.00831,0.02489,1.0,0.0,-0.0,-0.0,-1.57766,-1.57766,-1.57986,-1.57986,1.58315,1.58315,-1.57371,-1.57371,-1.57092,-1.57092,-0.00665,-0.00665,0.0,0.0
1,102,2.04,-1.57056,-1.57031,1.57877,-1.56545,-1.56284,-0.00717,-0.00532,-0.00551,-0.00519,-0.0051,-0.0049,-0.0052,0.52171,0.00831,0.02489,1.0,0.0,-0.0,-0.0,-1.58507,-1.58507,-1.58962,-1.58962,1.59657,1.59657,-1.57733,-1.57733,-1.57094,-1.57094,-0.01404,-0.01404,0.0,0.0
1,103,2.06,-1.5796,-1.58124,1.5926,-1.57151,-1.56618,-0.01295,-0.00526,-0.00538,-0.00521,-0.00515,-0.00504,-0.00519,0.52171,0.00831,0.02489,1.0,0.0,0.0,-0.0,-1.59264,-1.59264,-1.59941,-1.59941,1.60999,1.60999,-1.58096,-1.58096,-1.57094,-1.57094,-0.0216,-0.0216,0.0,0.0
1,104,2.08,-1.58804,-1.59163,1.60627,-1.57653,-1.56815,-0.01951,-0.00523,-0.0053,-0.00522,-0.00518,-0.00512,-0.00518,0.52171,0.00831,0.02489,1.0,0.0,-0.0,-0.0,-1.60032,-1.60032,-1.60917,-1.60917,1.62328,1.62328,-1.58451,-1.58451,-1.57094,-1.57094,-0.02929,-0.02929,0.0,0.0
1,105,2.1,-1.5962,-1.60173,1.61978,-1.5809,-1.56931,-0.02657,-0.00521,-0.00525,-0.00522,-0.0052,-0.00517,-0.00518,0.52171,0.00831,0.02489,1.0,0.0,0.0,-0.0,-1.60813,-1.60813,-1.61889,-1.61889,1.63644,1.63644,-1.58795,-1.58795,-1.57095,-1.57095,-0.03709,-0.03709,0.0,0.0
1,106,2.12,-1.60424,-1.61167,1.63311,-1.58485,-1.56999,-0.03398,-0.0052,-0.00522,-0.00523,-0.00521,-0.0052,-0.00517,0.52171,0.00831,0.02489,1.0,0.0,-0.0,-0.0,-1.61605,-1.61605,-1.62857,-1.62857,1.64946,1.64946,-1.59129,-1.59129,-1.57095,-1.57095,-0.04501,-0.04501,0.0,0.0
1,107,2.14,-1.61228,-1.6215,1.64626,-1.58851,-1.5704,-0.04165,-0.00519,-0.00521,-0.00523,-0.00522,-0.00522,-0.00517,0.52171,0.00831,0.02489,1.0,0.0,-0.0,-0.0,-1.6241,-1.6241,-1.63822,-1.63822,1.66234,1.66234,-1.59453,-1.59453,-1.57095,-1.57095,-0.05305,-0.05305,0.0,0.0
1,108,2.16,-1.62036,-1.63126,1.65926,-1.59196,-1.57064,-0.04952,-0.00519,-0.0052,-0.00523,-0.00522,-0.00523,-0.00517,0.52171,0.00831,0.02489,1.0,0.0,0.0,-0.0,-1.63227,-1.63227,-1.64784,-1.64784,1.6751,1.6751,-1.59768,-1.59768,-1.57095,-1.57095,-0.06122,-0.06122,0.0,0.0
1,109,2.18,-1.62853,-1.64097,1.67211,-1.59524,-1.57078,-0.05756,-0.00519,-0.00519,-0.00523,-0.00523,-0.00523,-0.00517,0.52171,0.00831,0.02489,1.0,0.0,-0.0,-0.0,-1.64057,-1.64057,-1.65742,-1.65742,1.68772,1.68772,-1.60072,-1.60072,-1.57096,-1.57096,-0.06952,-0.06952,0.0,0.0
1,110,2.2,-1.6368,-1.65063,1.68481,-1.5984,-1.57086,-0.06576,-0.00519,-0.00519,-0.00523,-0.00523,-0.00523,-0.00517,0.52171,0.00831,0.02489,1.0,0.0,-0.0,-0.0,-1.649,-1.649,-1.66698,-1.66698,1.70022,1.70022,-1.60368,-1.60368,-1.57096,-1.57096,-0.07794,-0.07794,0.0,0.0
1,111,2.22,-1.64519,-1.66026,1.69739,-1.60143,-1.57092,-0.0741,-0.00519,-0.00518,-0.00523,-0.00523,-0.00524,-0.00517,0.52171,0.00831,0.02489,1.0,0.0,0.0,-0.0,-1.65756,-1.65756,-1.67649,-1.67649,1.71259,1.71259,-1.60653,-1.60653,-1.57096,-1.57096,-0.0865,-0.0865,0.0,0.0
1,112,2.24,-1.6537,-1.66985,1.70982,-1.60435,-1.57095,-0.08258,-0.00519,-0.00518,-0.00523,-0.00523,-0.00524,-0.00517,0.52171,0.00831,0.02489,1.0,0.0,-0.0,-0.0,-1.66626,-1.66626,-1.68598,-1.68598,1.72483,1.72483,-1.60929,-1.60929,-1.57096,-1.57096,-0.09519,-0.09519,0.0,0.0
1,113,2.26,-1.66234,-1.6794,1.72214,-1.60717,-1.57097,-0.0912,-0.00519,-0.00518,-0.00523,-0.00523,-0.00524,-0.00517,0.52171,0.00831,0.02489,1.0,0.0,-0.0,-0.0,-1.67509,-1.67509,-1.69544,-1.69544,1.73695,1.73695,-1.61196,-1.61196,-1.57097,-1.57097,-0.10402,-0.10402,0.0,0.0
1,114,2.28,-1.67111,-1.68893,1.73432,-1.6099,-1.57098,-0.09996,-0.00519,-0.00518,-0.00523,-0.00523,-0.00524,-0.00517,0.52171,0.00831,0.02489,1.0,0.0,-0.0,-0.0,-1.68406,-1.68406,-1.70487,-1.70487,1.74895,1.74895,-1.61454,-1.61454,-1.57097,-1.57097,-0.11298,-0.11298,0.0,0.0
1,115,2.3,-1.68001,-1.69842,1.74638,-1.61253,-1.57099,-0.10886,-0.00519,-0.00518,-0.00523,-0.00523,-0.00524,-0.00517,0.52171,0.00831,0.02489,1.0,0.0,-0.0,-0.0,-1.69317,-1.69317,-1.71426,-1.71426,1.76083,1.76083,-1.61703,-1.61703,-1.57097,-1.57097,-0.12209,-0.12209,0.0,0.0
1,116,2.32,-1.68906,-1.70788,1.75832,-1.61506,-1.571,-0.1179,-0.00519,-0.00518,-0.00523,-0.00523,-0.00524,-0.00517,0.52171,0.00831,0.02489,1.0,0.0,-0.0,-0.0,-1.70242,-1.70242,-1.72363,-1.72363,1.77258,1.77258,-1.61943,-1.61943,-1.57098,-1.57098,-0.13134,-0.13134,0.0,0.0
1,117,2.34,-1.69825,-1.71731,1.77014,-1.61751,-1.571,-0.12708,-0.00519,-0.00518,-0.00523,-0.00523,-0.00524,-0.00517,0.52171,0.00831,0.02489,1.0,0.0,-0.0,-0.0,-1.71182,-1.71182,-1.73297,-1.73297,1.78422,1.78422,-1.62173,-1.62173,-1.57098,-1.57098,-0.14073,-0.14073,0.0,0.0
1,118,2.36,-1.70758,-1.72671,1.78183,-1.61986,-1.57101,-0.13641,-0.00519,-0.00518,-0.00523,-0.00523,-0.00524,-0.00517,0.52171,0.00831,0.02489,1.0,0.0,0.0,-0.0,-1.72137,-1.72137,-1.74227,-1.74227,1.79574,1.79574,-1.62395,-1.62395,-1.57098,-1.57098,-0.15027,-0.15027,0.0,0.0
1,119,2.38,-1.71706,-1.73608,1.79341,-1.62213,-1.57101,-0.14588,-0.00519,-0.00518,-0.00523,-0.00523,-0.00523,-0.00517,0.52171,0.00831,0.02489,1.0,0.0,-0.0,-0.0,-1.73107,-1.73107,-1.75155,-1.75155,1.80715,1.80715,-1.62609,-1.62609,-1.57099,-1.57099,-0.15997,-0.15997,0.0,0.0
1,120,2.4,-1.72669,-1.74542,1.80487,-1.6243,-1.57101,-0.15551,-0.00519,-0.00518,-0.00523,-0.00523,-0.00523,-0.00517,0.52171,0.00831,0.02489,1.0,0.0,-0.0,-0.0,-1.74092,-1.74092,-1.7608,-1.7608,1.81843,1.81843,-1.62814,-1.62814,-1.57099,-1.57099,-0.16982,-0.16982,0.0,0.0
1,121,2.42,-1.73648,-1.75473,1.81622,-1.6264,-1.57102,-0.16528,-0.00519,-0.00518,-0.00523,-0.00523,-0.00523,-0.00517,0.52171,0.00831,0.02489,1.0,0.0,-0.0,-0.0,-1.75093,-1.75093,-1.77001,-1.77001,1.82961,1.82961,-1.6301,-1.6301,-1.57099,-1.57099,-0.17982,-0.17982,0.0,0.0
1,122,2.44,-1.74641,-1.76401,1.82745,-1.6284,-1.57102,-0.17522,-0.00519,-0.00518,-0.00523,-0.00523,-0.00523,-0.00517,0.52171,0.00831,0.02489,1.0,0.0,0.0,-0.0,-1.76109,-1.76109,-1.7792,-1.7792,1.84067,1.84067,-1.63198,-1.63198,-1.571,-1.571,-0.18998,-0.18998,0.0,0.0
1,123,2.46,-1.75651,-1.77325,1.83856,-1.63032,-1.57103,-0.1853,-0.00519,-0.00518,-0.00523,-0.00523,-0.00523,-0.00517,0.52171,0.00831,0.02489,1.0,0.0,0.0,-0.0,-1.77142,-1.77142,-1.78835,-1.78835,1.85161,1.85161,-1.63377,-1.63377,-1.571,-1.571,-0.2003,-0.2003,0.0,0.0
1,124,2.48,-1.76676,-1.78247,1.84956,-1.63216,-1.57103,-0.19555,-0.00519,-0.00518,-0.00523,-0.00523,-0.00523,-0.00517,0.52171,0.00831,0.02489,1.0,0.0,-0.0,-0.0,-1.78191,-1.78191,-1.79748,-1.79748,1.86244,1.86244,-1.63549,-1.63549,-1.57101,-1.57101,-0.21079,-0.21079,0.0,0.0
1,125,2.5,-1.77717,-1.79165,1.86045,-1.63392,-1.57104,-0.20596,-0.00519,-0.00518,-0.00523,-0.00523,-0.00523,-0.00517,0.52171,0.00831,0.02489,1.0,0.0,0.0,-0.0,-1.79257,-1.79257,-1.80657,-1.80657,1.87316,1.87316,-1.63713,-1.63713,-1.57101,-1.57101,-0.22144,-0.22144,0.0,0.0
1,126,2.52,-1.78775,-1.8008,1.87123,-1.6356,-1.57104,-0.21654,-0.00519,-0.00518,-0.00523,-0.00523,-0.00523,-0.00517,0.52171,0.00831,0.02489,1.0,0.0,-0.0,-0.0,-1.80339,-1.80339,-1.81562,-1.81562,1.88377,1.88377,-1.63868,-1.63868,-1.57102,-1.57102,-0.23225,-0.23225,0.0,0.0
1,127,2.54,-1.7985,-1.80992,1.88189,-1.6372,-1.57104,-0.22728,-0.00518,-0.00518,-0.00523,-0.00523,-0.00523,-0.00517,0.52171,0.00831,0.02489,1.0,0.0,0.0,-0.0,-1.81438,-1.81438,-1.82464,-1.82464,1.89427,1.89427,-1.64016,-1.64016,-1.57102,-1.57102,-0.24324,-0.24324,0.0,0.0
1,128,2.56,-1.80941,-1.81901,1.89244,-1.63872,-1.57105,-0.23819,-0.00518,-0.00518,-0.00523,-0.00523,-0.00523,-0.00517,0.52171,0.00831,0.02489,1.0,0.0,-0.0,-0.0,-1.82555,-1.82555,-1.83363,-1.83363,1.90466,1.90466,-1.64157,-1.64157,-1.57102,-1.57102,-0.2544,-0.2544,0.0,0.0
1,129,2.58,-1.8205,-1.82805,1.90288,-1.64016,-1.57105,-0.24927,-0.00518,-0.00518,-0.00523,-0.00523,-0.00523,-0.00516,0.52171,0.00831,0.02489,1.0,0.0,0.0,-0.0,-1.83689,-1.83689,-1.84258,-1.84258,1.91493,1.91493,-1.6429,-1.6429,-1.57103,-1.57103,-0.26574,-0.26574,0.0,0.0
1,130,2.6,-1.83176,-1.83707,1.91321,-1.64153,-1.57106,-0.26052,-0.00518,-0.00518,-0.00523,-0.00523,-0.00523,-0.00516,0.52171,0.00831,0.02489,1.0,0.0,-0.0,-0.0,-1.84841,-1.84841,-1.8515,-1.8515,1.9251,1.9251,-1.64415,-1.64415,-1.57103,-1.57103,-0.27725,-0.27725,0.0,0.0
1,131,2.62,-1.8432,-1.84604,1.92343,-1.64283,-1.57106,-0.27195,-0.00518,-0.00518,-0.00523,-0.00523,-0.00523,-0.00516,0.52171,0.00831,0.02489,1.0,0.0,0.0,-0.0,-1.86011,-1.86011,-1.86037,-1.86037,1.93516,1.93516,-1.64534,-1.64534,-1.57104,-1.57104,-0.28894,-0.28894,0.0,0.0
1,132,2.64,-1.85481,-1.85498,1.93354,-1.64405,-1.57107,-0.28356,-0.00518,-0.00518,-0.00523,-0.00523,-0.00523,-0.00516,0.52171,0.00831,0.02489,1.0,0.0,-0.0,-0.0,-1.87199,-1.87199,-1.86921,-1.86921,1.9451,1.9451,-1.64646,-1.64646,-1.57104,-1.57104,-0.30082,-0.30082,0.0,0.0
1,133,2.66,-1.8666,-1.86388,1.94354,-1.6452,-1.57107,-0.29535,-0.00518,-0.00518,-0.00523,-0.00523,-0.00523,-0.00516,0.52171,0.00831,0.02489,1.0,0.0,-0.0,-0.0,-1.88405,-1.88405,-1.878,-1.878,1.95494,1.95494,-1.64751,-1.64751,-1.57105,-1.57105,-0.31287,-0.31287,0.0,0.0
1,134,2.68,-1.87858,-1.87273,1.95343,-1.64629,-1.57108,-0.30732,-0.00518,-0.00518,-0.00523,-0.00523,-0.00523,-0.00516,0.52171,0.00831,0.02489,1.0,0.0,-0.0,-0.0,-1.8963,-1.8963,-1.88676,-1.88676,1.96467,1.96467,-1.64849,-1.64849,-1.57105,-1.57105,-0.32512,-0.32512,0.0,0.0
1,135,2.7,-1.89074,-1.88155,1.96321,-1.64731,-1.57108,-0.31948,-0.00518,-0.00518,-0.00523,-0.00523,-0.00523,-0.00516,0.52171,0.00831,0.02489,1.0,0.0,0.0,-0.0,-1.90873,-1.90873,-1.89546,-1.89546,1.97429,1.97429,-1.64941,-1.64941,-1.57106,-1.57106,-0.33754,-0.33754,0.0,0.0
1,136,2.72,-1.90309,-1.89031,1.97289,-1.64826,-1.57109,-0.33182,-0.00518,-0.00518,-0.00523,-0.00523,-0.00523,-0.00516,0.52171,0.00831,0.02489,1.0,0.0,0.0,-0.0,-1.92135,-1.92135,-1.90412,-1.90412,1.98381,1.98381,-1.65027,-1.65027,-1.57107,-1.57107,-0.35016,-0.35016,0.0,0.0
1,137,2.74,-1.91563,-1.89904,1.98245,-1.64915,-1.5711,-0.34435,-0.00518,-0.00518,-0.00523,-0.00523,-0.00523,-0.00516,0.52171,0.00831,0.02489,1.0,0.0,0.0,-0.0,-1.93417,-1.93417,-1.91273,-1.91273,1.99321,1.99321,-1.65106,-1.65106,-1.57107,-1.57107,-0.36297,-0.36297,0.0,0.0
1,138,2.76,-1.92835,-1.90771,1.99191,-1.64998,-1.5711,-0.35707,-0.00518,-0.00518,-0.00523,-0.00523,-0.00523,-0.00516,0.52171,0.00831,0.02489,1.0,0.0,0.0,-0.0,-1.94718,-1.94718,-1.92129,-1.92129,2.00251,2.00251,-1.65181,-1.65181,-1.57108,-1.57108,-0.37597,-0.37597,0.0,0.0
1,139,2.78,-1.94127,-1.91633,2.00125,-1.65076,-1.57111,-0.36998,-0.00519,-0.00518,-0.00523,-0.00523,-0.00523,-0.00516,0.52171,0.00831,0.02489,1.0,0.0,-0.0,-0.0,-1.96038,-1.96038,-1.9298,-1.9298,2.01169,2.01169,-1.65249,-1.65249,-1.57108,-1.57108,-0.38917,-0.38917,0.0,0.0
1,140,2.8,-1.95438,-1.9249,2.01049,-1.65147,-1.57111,-0.38308,-0.00519,-0.00518,-0.00523,-0.00523,-0.00523,-0.00516,0.52171,0.00831,0.02489,1.0,0.0,0.0,-0.0,-1.97377,-1.97377,-1.93825,-1.93825,2.02077,2.02077,-1.65313,-1.65313,-1.57109,-1.57109,-0.40256,-0.40256,0.0,0.0
1,141,2.82,-1.96768,-1.93342,2.01962,-1.65214,-1.57112,-0.39638,-0.00519,-0.00518,-0.00523,-0.00523,-0.00523,-0.00516,0.52171,0.00831,0.02489,1.0,0.0,-0.0,-0.0,-1.98736,-1.98736,-1.94664,-1.94664,2.02974,2.02974,-1.65371,-1.65371,-1.5711,-1.5711,-0.41614,-0.41614,0.0,0.0
1,142,2.84,-1.98118,-1.94187,2.02865,-1.65275,-1.57113,-0.40987,-0.00519,-0.00519,-0.00523,-0.00523,-0.00523,-0.00516,0.52171,0.00831,0.02489,1.0,0.0,0.0,-0.0,-2.00115,-2.00115,-1.95496,-1.95496,2.03861,2.03861,-1.65425,-1.65425,-1.5711,-1.5711,-0.42992,-0.42992,0.0,0.0
1,143,2.86,-1.99488,-1.95026,2.03756,-1.65332,-1.57113,-0.42355,-0.00519,-0.00519,-0.00523,-0.00523,-0.00522,-0.00516,0.52171,0.00831,0.02489,1.0,0.0,-0.0,-0.0,-2.01514,-2.01514,-1.96323,-1.96323,2.04736,2.04736,-1.65475,-1.65475,-1.57111,-1.57111,-0.4439,-0.4439,0.0,0.0
1,144,2.88,-2.00877,-1.95859,2.04637,-1.65384,-1.57114,-0.43744,-0.00519,-0.00519,-0.00523,-0.00523,-0.00522,-0.00516,0.52171,0.00831,0.02489,1.0,0.0,-0.0,-0.0,-2.02932,-2.02932,-1.97142,-1.97142,2.05601,2.05601,-1.6552,-1.6552,-1.57111,-1.57111,-0.45808,-0.45808,0.0,0.0
1,145,2.9,-2.02285,-1.96686,2.05507,-1.65432,-1.57115,-0.45152,-0.00519,-0.00519,-0.00523,-0.00523,-0.00522,-0.00516,0.52171,0.00831,0.02489,1.0,0.0,-0.0,-0.0,-2.0437,-2.0437,-1.97955,-1.97955,2.06455,2.06455,-1.65562,-1.65562,-1.57112,-1.57112,-0.47245,-0.47245,0.0,0.0
1,146,2.92,-2.03714,-1.97505,2.06366,-1.65477,-1.57115,-0.4658,-0.00519,-0.00519,-0.00523,-0.00522,-0.00522,-0.00516,0.52171,0.00831,0.02489,1.0,0.0,-0.0,-0.0,-2.05828,-2.05828,-1.9876,-1.9876,2.07298,2.07298,-1.65601,-1.65601,-1.57113,-1.57113,-0.48702,-0.48702,0.0,0.0
1,147,2.94,-2.05162,-1.98317,2.07214,-1.65518,-1.57116,-0.48027,-0.00519,-0.00519,-0.00523,-0.00522,-0.00522,-0.00516,0.52171,0.00831,0.02489,1.0,0.0,-0.0,-0.0,-2.07305,-2.07305,-1.99557,-1.99557,2.08131,2.08131,-1.65637,-1.65637,-1.57113,-1.57113,-0.50179,-0.50179,0.0,0.0
1,148,2.96,-2.0663,-1.99121,2.08052,-1.65555,-1.57117,-0.49495,-0.00519,-0.00519,-0.00523,-0.00522,-0.00522,-0.00516,0.52171,0.00831,0.02489,1.0,0.0,-0.0,-0.0,-2.08802,-2.08802,-2.00345,-2.00345,2.08952,2.08952,-1.6567,-1.6567,-1.57114,-1.57114,-0.51676,-0.51676,0.0,0.0
1,149,2.98,-2.08118,-1.99917,2.08879,-1.6559,-1.57117,-0.50982,-0.00519,-0.00519,-0.00523,-0.00522,-0.00522,-0.00516,0.52171,0.00831,0.02489,1.0,0.0,-0.0,-0.0,-2.10319,-2.10319,-2.01126,-2.01126,2.09763,2.09763,-1.65701,-1.65701,-1.57115,-1.57115,-0.53192,-0.53192,0.0,0.0
1,150,3.0,-2.09625,-2.00704,2.09695,-1.65623,-1.57118,-0.52488,-0.00519,-0.00519,-0.00523,-0.00522,-0.00522,-0.00516,0.52171,0.00831,0.02489,1.0,0.0,0.0,-0.0,-2.11855,-2.11855,-2.01897,-2.01897,2.10563,2.10563,-1.6573,-1.6573,-1.57115,-1.57115,-0.54727,-0.54727,0.0,0.0
1,151,3.02,-2.11152,-2.01483,2.105,-1.65654,-1.57119,-0.54014,-0.00519,-0.00519,-0.00523,-0.00522,-0.00522,-0.00516,0.52171,0.00831,0.02489,1.0,0.0,-0.0,-0.0,-2.13411,-2.13411,-2.02658,-2.02658,2.11352,2.11352,-1.65758,-1.65758,-1.57116,-1.57116,-0.56282,-0.56282,0.0,0.0
1,152,3.04,-2.12698,-2.02252,2.11294,-1.65683,-1.57119,-0.55559,-0.00519,-0.00519,-0.00523,-0.00522,-0.00522,-0.00516,0.52171,0.00831,0.02489,1.0,0.0,0.0,-0.0,-2.14985,-2.14985,-2.0341,-2.0341,2.12131,2.12131,-1.65785,-1.65785,-1.57117,-1.57117,-0.57856,-0.57856,0.0,0.0
1,153,3.06,-2.14263,-2.03011,2.12078,-1.65711,-1.5712,-0.57124,-0.00519,-0.00519,-0.00523,-0.00522,-0.00521,-0.00516,0.52171,0.00831,0.02489,1.0,0.0,-0.0,-0.0,-2.16579,-2.16579,-2.04151,-2.04151,2.12898,2.12898,-1.65811,-1.65811,-1.57118,-1.57118,-0.59449,-0.59449,0.0,0.0
1,154,3.08,-2.15847,-2.0376,2.1285,-1.65739,-1.57121,-0.58707,-0.00519,-0.00519,-0.00523,-0.00522,-0.00521,-0.00516,0.52171,0.00831,0.02489,1.0,0.0,-0.0,-0.0,-2.18191,-2.18191,-2.04881,-2.04881,2.13655,2.13655,-1.65838,-1.65838,-1.57118,-1.57118,-0.61061,-0.61061,0.0,0.0
1,155,3.1,-2.1745,-2.04497,2.13612,-1.65767,-1.57121,-0.60309,-0.00519,-0.0052,-0.00523,-0.00522,-0.00521,-0.00516,0.52171,0.00831,0.02489,1.0,0.0,0.0,-0.0,-2.19821,-2.19821,-2.05599,-2.05599,2.14401,2.14401,-1.65866,-1.65866,-1.57119,-1.57119,-0.6269,-0.6269,0.0,0.0
1,156,3.12,-2.19071,-2.05224,2.14363,-1.65795,-1.57122,-0.61929,-0.00519,-0.0052,-0.00523,-0.00522,-0.00521,-0.00516,0.52171,0.00831,0.02489,1.0,0.0,-0.0,-0.0,-2.21469,-2.21469,-2.06306,-2.06306,2.15136,2.15136,-1.65894,-1.65894,-1.5712,-1.5712,-0.64338,-0.64338,0.0,0.0
1,157,3.14,-2.2071,-2.05939,2.15103,-1.65824,-1.57123,-0.63568,-0.00519,-0.0052,-0.00523,-0.00522,-0.00521,-0.00516,0.52171,0.00831,0.02489,1.0,0.0,0.0,-0.0,-2.23135,-2.23135,-2.07,-2.07,2.1586,2.1586,-1.65925,-1.65925,-1.5712,-1.5712,-0.66003,-0.66003,0.0,0.0
1,158,3.16,-2.22367,-2.06641,2.15832,-1.65854,-1.57123,-0.65224,-0.00519,-0.0052,-0.00523,-0.00522,-0.00521,-0.00516,0.52171,0.00831,0.02489,1.0,0.0,-0.0,-0.0,-2.24818,-2.24818,-2.07681,-2.07681,2.16573,2.16573,-1.65958,-1.65958,-1.57121,-1.57121,-0.67685,-0.67685,0.0,0.0
1,159,3.18,-2.24041,-2.0733,2.16551,-1.65887,-1.57124,-0.66897,-0.00519,-0.0052,-0.00523,-0.00522,-0.0052,-0.00516,0.52171,0.00831,0.02489,1.0,0.0,0.0,-0.0,-2.26517,-2.26517,-2.08348,-2.08348,2.17275,2.17275,-1.65993,-1.65993,-1.57122,-1.57122,-0.69384,-0.69384,0.0,0.0
1,160,3.2,-2.25732,-2.08006,2.17258,-1.65922,-1.57125,-0.68587,-0.00519,-0.0052,-0.00523,-0.00522,-0.0052,-0.00517,0.52171,0.00831,0.02489,1.0,0.0,-0.0,-0.0,-2.28233,-2.28233,-2.09,-2.09,2.17967,2.17967,-1.66032,-1.66032,-1.57122,-1.57122,-0.71099,-0.71099,0.0,0.0
1,161,3.22,-2.27439,-2.08668,2.17955,-1.65961,-1.57125,-0.70293,-0.0052,-0.00521,-0.00523,-0.00521,-0.0052,-0.00517,0.52171,0.00831,0.02489,1.0,0.0,0.0,-0.0,-2.29963,-2.29963,-2.09638,-2.09638,2.18648,2.18648,-1.66075,-1.66075,-1.57123,-1.57123,-0.72829,-0.72829,0.0,0.0
1,162,3.24,-2.29161,-2.09314,2.18641,-1.66003,-1.57126,-0.72015,-0.0052,-0.00521,-0.00522,-0.00521,-0.0052,-0.00517,0.52171,0.00831,0.02489,1.0,0.0,-0.0,-0.0,-2.31709,-2.31709,-2.1026,-2.1026,2.19317,2.19317,-1.66123,-1.66123,-1.57123,-1.57123,-0.74575,-0.74575,0.0,0.0
1,163,3.26,-2.30899,-2.09946,2.19316,-1.6605,-1.57126,-0.73752,-0.0052,-0.00521,-0.00522,-0.00521,-0.00519,-0.00517,0.52171,0.00831,0.02489,1.0,0.0,0.0,-0.0,-2.33469,-2.33469,-2.10865,-2.10865,2.19976,2.19976,-1.66177,-1.66177,-1.57124,-1.57124,-0.76334,-0.76334,0.0,0.0
1,164,3.28,-2.32651,-2.10561,2.1998,-1.66102,-1.57127,-0.75504,-0.0052,-0.00521,-0.00522,-0.00521,-0.00519,-0.00517,0.52171,0.00831,0.02489,1.0,0.0,-0.0,-0.0,-2.35242,-2.35242,-2.11454,-2.11454,2.20625,2.20625,-1.66236,-1.66236,-1.57125,-1.57125,-0.78107,-0.78107,0.0,0.0
1,165,3.3,-2.34417,-2.11159,2.20633,-1.66159,-1.57128,-0.77269,-0.0052,-0.00521,-0.00522,-0.00521,-0.00519,-0.00517,0.52171,0.00831,0.02489,1.0,0.0,0.0,-0.0,-2.37028,-2.37028,-2.12025,-2.12025,2.21262,2.21262,-1.66303,-1.66303,-1.57125,-1.57125,-0.79892,-0.79892,0.0,0.0
1,166,3.32,-2.36195,-2.1174,2.21276,-1.66224,-1.57128,-0.79046,-0.0052,-0.00522,-0.00522,-0.00521,-0.00519,-0.00517,0.52171,0.00831,0.02489,1.0,0.0,-0.0,-0.0,-2.38825,-2.38825,-2.12578,-2.12578,2.21888,2.21888,-1.66376,-1.66376,-1.57126,-1.57126,-0.81689,-0.81689,0.0,0.0
1,167,3.34,-2.37986,-2.12303,2.21907,-1.66295,-1.57129,-0.80836,-0.0052,-0.00522,-0.00522,-0.00521,-0.00518,-0.00517,0.52171,0.00831,0.02489,1.0,0.0,-0.0,-0.0,-2.40633,-2.40633,-2.13111,-2.13111,2.22504,2.22504,-1.66458,-1.66458,-1.57126,-1.57126,-0.83497,-0.83497,0.0,0.0
1,168,3.36,-2.39788,-2.12847,2.22528,-1.66374,-1.57129,-0.82638,-0.0052,-0.00522,-0.00522,-0.00521,-0.00518,-0.00517,0.52171,0.00831,0.02489,1.0,0.0,0.0,-0.0,-2.42451,-2.42451,-2.13625,-2.13625,2.23108,2.23108,-1.66549,-1.66549,-1.57127,-1.57127,-0.85315,-0.85315,0.0,0.0
1,169,3.38,-2.416,-2.13371,2.23138,-1.66462,-1.5713,-0.84449,-0.00521,-0.00523,-0.00522,-0.0052,-0.00518,-0.00517,0.52171,0.00831,0.02489,1.0,0.0,-0.0,-0.0,-2.44278,-2.44278,-2.14118,-2.14118,2.23702,2.23702,-1.6665,-1.6665,-1.57127,-1.57127,-0.87141,-0.87141,0.0,0.0
1,170,3.4,-2.43421,-2.13876,2.23737,-1.66559,-1.5713,-0.8627,-0.00521,-0.00523,-0.00522,-0.0052,-0.00517,-0.00517,0.52171,0.00831,0.02489,1.0,0.0,0.0,-0.0,-2.46113,-2.46113,-2.1459,-2.1459,2.24285,2.24285,-1.6676,-1.6676,-1.57127,-1.57127,-0.88976,-0.88976,0.0,0.0
1,171,3.42,-2.45251,-2.14359,2.24324,-1.66666,-1.5713,-0.88099,-0.00521,-0.00523,-0.00522,-0.0052,-0.00517,-0.00517,0.52171,0.00831,0.02489,1.0,0.0,-0.0,-0.0,-2.47955,-2.47955,-2.15041,-2.15041,2.24857,2.24857,-1.66882,-1.66882,-1.57128,-1.57128,-0.90818,-0.90818,0.0,0.0
1,172,3.44,-2.47088,-2.1482,2.24902,-1.66783,-1.57131,-0.89936,-0.00521,-0.00524,-0.00522,-0.0052,-0.00516,-0.00517,0.52171,0.00831,0.02489,1.0,0.0,-0.0,-0.0,-2.49803,-2.49803,-2.15468,-2.15468,2.25418,2.25418,-1.67015,-1.67015,-1.57128,-1.57128,-0.92665,-0.92665,0.0,0.0
1,173,3.46,-2.48931,-2.15259,2.25468,-1.66912,-1.57131,-0.91778,-0.00521,-0.00524,-0.00521,-0.0052,-0.00516,-0.00518,0.52171,0.00831,0.02489,1.0,0.0,0.0,-0.0,-2.51655,-2.51655,-2.15872,-2.15872,2.25968,2.25968,-1.67161,-1.67161,-1.57128,-1.57128,-0.94517,-0.94517,0.0,0.0
1,174,3.48,-2.50779,-2.15675,2.26023,-1.67054,-1.57131,-0.93626,-0.00521,-0.00525,-0.00521,-0.0052,-0.00516,-0.00518,0.52171,0.00831,0.02489,1.0,0.0,-0.0,-0.0,-2.5351,-2.5351,-2.16252,-2.16252,2.26507,2.26507,-1.6732,-1.6732,-1.57128,-1.57128,-0.96372,-0.96372,0.0,0.0
1,175,3.5,-2.52631,-2.16067,2.26567,-1.67208,-1.57131,-0.95478,-0.00522,-0.00525,-0.00521,-0.00519,-0.00515,-0.00518,0.52171,0.00831,0.02489,1.0,0.0,0.0,-0.0,-2.55367,-2.55367,-2.16607,-2.16607,2.27035,2.27035,-1.67493,-1.67493,-1.57128,-1.57128,-0.98229,-0.98229,0.0,0.0
1,176,3.52,-2.54486,-2.16435,2.271,-1.67375,-1.57131,-0.97332,-0.00522,-0.00525,-0.00521,-0.00519,-0.00515,-0.00518,0.52171,0.00831,0.02489,1.0,0.0,0.0,-0.0,-2.57226,-2.57226,-2.16937,-2.16937,2.27552,2.27552,-1.67681,-1.67681,-1.57129,-1.57129,-1.00088,-1.00088,0.0,0.0
1,177,3.54,-2.56342,-2.16777,2.27623,-1.67557,-1.57132,-0.99188,-0.00522,-0.00526,-0.00521,-0.00519,-0.00514,-0.00518,0.52171,0.00831,0.02489,1.0,0.0,-0.0,-0.0,-2.59084,-2.59084,-2.1724,-2.1724,2.28058,2.28058,-1.67883,-1.67883,-1.57129,-1.57129,-1.01945,-1.01945,0.0,0.0
1,178,3.56,-2.58198,-2.17093,2.28134,-1.67753,-1.57132,-1.01044,-0.00522,-0.00526,-0.00521,-0.00519,-0.00514,-0.00518,0.52171,0.00831,0.02489,1.0,0.0,-0.0,-0.0,-2.6094,-2.6094,-2.17516,-2.17516,2.28553,2.28553,-1.68102,-1.68102,-1.57129,-1.57129,-1.03802,-1.03802,0.0,0.0
1,179,3.58,-2.60054,-2.17382,2.28634,-1.67965,-1.57132,-1.02899,-0.00522,-0.00527,-0.00521,-0.00519,-0.00513,-0.00518,0.52171,0.00831,0.02489,1.0,0.0,0.0,-0.0,-2.62793,-2.62793,-2.17765,-2.17765,2.29037,2.29037,-1.68337,-1.68337,-1.57128,-1.57128,-1.05655,-1.05655,0.0,0.0
1,180,3.6,-2.61906,-2.17644,2.29123,-1.68193,-1.57131,-1.04752,-0.00523,-0.00527,-0.0052,-0.00518,-0.00513,-0.00518,0.52171,0.00831,0.02489,1.0,0.0,-0.0,-0.0,-2.64642,-2.64642,-2.17985,-2.17985,2.2951,2.2951,-1.68589,-1.68589,-1.57128,-1.57128,-1.07504,-1.07504,0.0,0.0
1,181,3.62,-2.63756,-2.17878,2.29601,-1.68438,-1.57131,-1.06601,-0.00523,-0.00528,-0.0052,-0.00518,-0.00512,-0.00519,0.52171,0.00831,0.02489,1.0,0.0,0.0,-0.0,-2.66486,-2.66486,-2.18177,-2.18177,2.29971,2.29971,-1.68859,-1.68859,-1.57128,-1.57128,-1.09348,-1.09348,0.0,0.0
1,182,3.64,-2.656,-2.18083,2.30068,-1.68701,-1.57131,-1.08445,-0.00523,-0.00528,-0.0052,-0.00518,-0.00512,-0.00519,0.52171,0.00831,0.02489,1.0,0.0,0.0,-0.0,-2.68322,-2.68322,-2.18339,-2.18339,2.30422,2.30422,-1.69147,-1.69147,-1.57128,-1.57128,-1.11185,-1.11185,0.0,0.0
1,183,3.66,-2.67438,-2.18259,2.30523,-1.68981,-1.57131,-1.10283,-0.00523,-0.00529,-0.0052,-0.00518,-0.00511,-0.00519,0.52171,0.00831,0.02489,1.0,0.0,0.0,-0.0,-2.70151,-2.70151,-2.18471,-2.18471,2.30861,2.30861,-1.69454,-1.69454,-1.57128,-1.57128,-1.13013,-1.13013,0.0,0.0
1,184,3.68,-2.69268,-2.18405,2.30968,-1.6928,-1.57131,-1.12113,-0.00524,-0.00529,-0.0052,-0.00517,-0.0051,-0.00519,0.52171,0.00831,0.02489,1.0,0.0,0.0,-0.0,-2.71969,-2.71969,-2.18572,-2.18572,2.31289,2.31289,-1.6978,-1.6978,-1.57127,-1.57127,-1.14832,-1.14832,0.0,0.0
1,185,3.7,-2.7109,-2.1852,2.31401,-1.69598,-1.5713,-1.13934,-0.00524,-0.0053,-0.0052,-0.00517,-0.0051,-0.00519,0.52171,0.00831,0.02489,1.0,0.0,-0.0,-0.0,-2.73777,-2.73777,-2.18642,-2.18642,2.31705,2.31705,-1.70126,-1.70126,-1.57127,-1.57127,-1.16641,-1.16641,0.0,0.0
1,186,3.72,-2.72901,-2.18605,2.31822,-1.69935,-1.5713,-1.15746,-0.00524,-0.00531,-0.0052,-0.00517,-0.00509,-0.00519,0.52171,0.00831,0.02489,1.0,0.0,0.0,-0.0,-2.75573,-2.75573,-2.18681,-2.18681,2.3211,2.3211,-1.70492,-1.70492,-1.57126,-1.57126,-1.18437,-1.18437,0.0,0.0
1,187,3.74,-2.74701,-2.18658,2.32232,-1.70292,-1.57129,-1.17546,-0.00524,-0.00531,-0.00519,-0.00517,-0.00509,-0.00519,0.52171,0.00831,0.02489,1.0,0.0,-0.0,-0.0,-2.77356,-2.77356,-2.18687,-2.18687,2.32503,2.32503,-1.70878,-1.70878,-1.57126,-1.57126,-1.2022,-1.2022,0.0,0.0
1,188,3.76,-2.76488,-2.18679,2.3263,-1.70669,-1.57129,-1.19333,-0.00525,-0.00532,-0.00519,-0.00516,-0.00508,-0.0052,0.52171,0.00831,0.02489,1.0,0.0,0.0,-0.0,-2.79125,-2.79125,-2.18661,-2.18661,2.32884,2.32884,-1.71285,-1.71285,-1.57125,-1.57125,-1.21989,-1.21989,0.0,0.0
1,189,3.78,-2.78262,-2.18668,2.33017,-1.71066,-1.57128,-1.21107,-0.00525,-0.00532,-0.00519,-0.00516,-0.00507,-0.0052,0.52171,0.00831,0.02489,1.0,0.0,0.0,-0.0,-2.80878,-2.80878,-2.18602,-2.18602,2.33254,2.33254,-1.71713,-1.71713,-1.57124,-1.57124,-1.23742,-1.23742,0.0,0.0
1,190,3.8,-2.8002,-2.18624,2.33392,-1.71485,-1.57127,-1.22866,-0.00525,-0.00533,-0.00519,-0.00516,-0.00507,-0.0052,0.52171,0.00831,0.02489,1.0,0.0,-0.0,-0.0,-2.82614,-2.82614,-2.1851,-2.1851,2.33611,2.33611,-1.72163,-1.72163,-1.57124,-1.57124,-1.25479,-1.25479,0.0,0.0
1,191,3.82,-2.81763,-2.18547,2.33754,-1.71924,-1.57127,-1.24609,-0.00525,-0.00534,-0.00519,-0.00515,-0.00506,-0.0052,0.52171,0.00831,0.02489,1.0,0.0,0.0,-0.0,-2.84332,-2.84332,-2.18385,-2.18385,2.33957,2.33957,-1.72633,-1.72633,-1.57123,-1.57123,-1.27198,-1.27198,0.0,0.0
1,192,3.84,-2.83488,-2.18437,2.34105,-1.72384,-1.57126,-1.26335,-0.00526,-0.00534,-0.00519,-0.00515,-0.00505,-0.0052,0.52171,0.00831,0.02489,1.0,0.0,0.0,-0.0,-2.86032,-2.86032,-2.18226,-2.18226,2.3429,2.3429,-1.73125,-1.73125,-1.57122,-1.57122,-1.28899,-1.28899,0.0,0.0
1,193,3.86,-2.85196,-2.18293,2.34444,-1.72866,-1.57125,-1.28043,-0.00526,-0.00535,-0.00518,-0.00515,-0.00505,-0.0052,0.52171,0.00831,0.02489,1.0,0.0,-0.0,-0.0,-2.87712,-2.87712,-2.18034,-2.18034,2.34611,2.34611,-1.73638,-1.73638,-1.57121,-1.57121,-1.30579,-1.30579,0.0,0.0
1,194,3.88,-2.86884,-2.18116,2.3477,-1.73369,-1.57124,-1.29731,-0.00526,-0.00535,-0.00518,-0.00515,-0.00504,-0.00521,0.52171,0.00831,0.02489,1.0,0.0,0.0,-0.0,-2.89372,-2.89372,-2.17807,-2.17807,2.34919,2.34919,-1.74172,-1.74172,-1.5712,-1.5712,-1.3224,-1.3224,0.0,0.0
1,195,3.9,-2.88552,-2.17904,2.35084,-1.73893,-1.57123,-1.314,-0.00526,-0.00536,-0.00518,-0.00514,-0.00504,-0.00521,0.52171,0.00831,0.02489,1.0,0.0,0.0,-0.0,-2.9101,-2.9101,-2.17546,-2.17546,2.35215,2.35215,-1.74728,-1.74728,-1.57119,-1.57119,-1.33879,-1.33879,0.0,0.0
1,196,3.92,-2.90199,-2.17659,2.35385,-1.74439,-1.57122,-1.33048,-0.00527,-0.00537,-0.00518,-0.00514,-0.00503,-0.00521,0.52171,0.00831,0.02489,1.0,0.0,-0.0,-0.0,-2.92626,-2.92626,-2.17252,-2.17252,2.35497,2.35497,-1.75305,-1.75305,-1.57118,-1.57118,-1.35496,-1.35496,0.0,0.0
1,197,3.94,-2.91825,-2.1738,2.35673,-1.75005,-1.57121,-1.34674,-0.00527,-0.00537,-0.00518,-0.00514,-0.00502,-0.00521,0.52171,0.00831,0.02489,1.0,0.0,0.0,-0.0,-2.9422,-2.9422,-2.16923,-2.16923,2.35767,2.35767,-1.75903,-1.75903,-1.57118,-1.57118,-1.3709,-1.3709,0.0,0.0
1,198,3.96,-2.93428,-2.17066,2.35948,-1.75593,-1.5712,-1.36278,-0.00527,-0.00538,-0.00518,-0.00514,-0.00502,-0.00521,0.52171,0.00831,0.02489,1.0,0.0,-0.0,-0.0,-2.9579,-2.9579,-2.16561,-2.16561,2.36024,2.36024,-1.76522,-1.76522,-1.57117,-1.57117,-1.38661,-1.38661,0.0,0.0
1,199,3.98,-2.95009,-2.16719,2.36211,-1.76201,-1.57119,-1.37859,-0.00527,-0.00538,-0.00517,-0.00513,-0.00501,-0.00521,0.52171,0.00831,0.02489,1.0,0.0,0.0,-0.0,-2.97336,-2.97336,-2.16165,-2.16165,2.36267,2.36267,-1.77161,-1.77161,-1.57116,-1.57116,-1.40208,-1.40208,0.0,0.0
1,200,4.0,-2.96565,-2.16338,2.3646,-1.7683,-1.57118,-1.39417,-0.00528,-0.00539,-0.00517,-0.00513,-0.00501,-0.00521,0.52171,0.00831,0.02489,1.0,0.0,-0.0,-0.0,-2.98858,-2.98858,-2.15736,-2.15736,2.36497,2.36497,-1.77819,-1.77819,-1.57114,-1.57114,-1.4173,-1.4173,0.0,0.0
1,201,4.02,-2.98098,-2.15923,2.36695,-1.77478,-1.57117,-1.4095,-0.00528,-0.00539,-0.00517,-0.00513,-0.005,-0.00522,0.52171,0.00831,0.02489,1.0,0.0,0.0,-0.0,-3.00355,-3.00355,-2.15273,-2.15273,2.36713,2.36713,-1.78498,-1.78498,-1.57113,-1.57113,-1.43228,-1.43228,0.0,0.0
1,202,4.04,-2.99606,-2.15475,2.36917,-1.78146,-1.57116,-1.42459,-0.00528,-0.0054,-0.00517,-0.00513,-0.005,-0.00522,0.52171,0.00831,0.02489,1.0,0.0,-0.0,-0.0,-3.01826,-3.01826,-2.14777,-2.14777,2.36915,2.36915,-1.79195,-1.79195,-1.57112,-1.57112,-1.447,-1.447,0.0,0.0
1,203,4.06,-3.01089,-2.14994,2.37124,-1.78834,-1.57115,-1.43943,-0.00528,-0.0054,-0.00517,-0.00513,-0.00499,-0.00522,0.52171,0.00831,0.02489,1.0,0.0,0.0,-0.0,-3.03272,-3.03272,-2.14249,-2.14249,2.37103,2.37103,-1.79911,-1.79911,-1.57111,-1.57111,-1.46147,-1.46147,0.0,0.0
1,204,4.08,-3.02547,-2.1448,2.37318,-1.7954,-1.57114,-1.45402,-0.00528,-0.00541,-0.00517,-0.00512,-0.00499,-0.00522,0.52171,0.00831,0.02489,1.0,0.0,-0.0,-0.0,-3.04693,-3.04693,-2.13689,-2.13689,2.37276,2.37276,-1.80644,-1.80644,-1.5711,-1.5711,-1.47568,-1.47568,0.0,0.0
1,205,4.1,-3.03979,-2.13933,2.37498,-1.80264,-1.57113,-1.46835,-0.00529,-0.00541,-0.00517,-0.00512,-0.00498,-0.00522,0.52171,0.00831,0.02489,1.0,0.0,-0.0,-0.0,-3.06087,-3.06087,-2.13097,-2.13097,2.37435,2.37435,-1.81395,-1.81395,-1.57109,-1.57109,-1.48963,-1.48963,0.0,0.0
1,206,4.12,-3.05385,-2.13355,2.37663,-1.81005,-1.57112,-1.48242,-0.00529,-0.00542,-0.00516,-0.00512,-0.00498,-0.00522,0.52171,0.00831,0.02489,1.0,0.0,0.0,-0.0,-3.07455,-3.07455,-2.12474,-2.12474,2.37579,2.37579,-1.82162,-1.82162,-1.57108,-1.57108,-1.50332,-1.50332,0.0,0.0
1,207,4.14,-3.06766,-2.12745,2.37813,-1.81763,-1.57111,-1.49624,-0.00529,-0.00542,-0.00516,-0.00512,-0.00497,-0.00522,0.52171,0.00831,0.02489,1.0,0.0,-0.0,-0.0,-3.08797,-3.08797,-2.1182,-2.1182,2.37709,2.37709,-1.82945,-1.82945,-1.57107,-1.57107,-1.51675,-1.51675,0.0,0.0
1,208,4.16,-3.08121,-2.12104,2.37949,-1.82537,-1.5711,-1.50979,-0.00529,-0.00542,-0.00516,-0.00512,-0.00497,-0.00522,0.52171,0.00831,0.02489,1.0,0.0,0.0,-0.0,-3.10113,-3.10113,-2.11136,-2.11136,2.37823,2.37823,-1.83743,-1.83743,-1.57106,-1.57106,-1.52992,-1.52992,0.0,0.0
1,209,4.18,-3.09449,-2.11433,2.38069,-1.83326,-1.57109,-1.52308,-0.00529,-0.00543,-0.00516,-0.00511,-0.00497,-0.00523,0.52171,0.00831,0.02489,1.0,0.0,-0.0,-0.0,-3.11403,-3.11403,-2.10423,-2.10423,2.37922,2.37922,-1.84554,-1.84554,-1.57105,-1.57105,-1.54283,-1.54283,0.0,0.0
1,210,4.2,-3.10751,-2.10732,2.38174,-1.8413,-1.57108,-1.53612,-0.00529,-0.00543,-0.00516,-0.00511,-0.00496,-0.00523,0.52171,0.00831,0.02489,1.0,0.0,0.0,-0.0,-3.12667,-3.12667,-2.09681,-2.09681,2.38005,2.38005,-1.8538,-1.8538,-1.57104,-1.57104,-1.55547,-1.55547,0.0,0.0
1,211,4.22,-3.12028,-2.10002,2.38264,-1.84947,-1.57107,-1.54889,-0.0053,-0.00543,-0.00516,-0.00511,-0.00496,-0.00523,0.52171,0.00831,0.02489,1.0,0.0,0.0,-0.0,-3.13905,-3.13905,-2.08911,-2.08911,2.38073,2.38073,-1.86217,-1.86217,-1.57103,-1.57103,-1.56786,-1.56786,0.0,0.0
1,212,4.24,-3.13278,-2.09244,2.38338,-1.85778,-1.57105,-1.56141,-0.0053,-0.00544,-0.00516,-0.00511,-0.00496,-0.00523,0.52171,0.00831,0.02489,1.0,0.0,-0.0,-0.0,-3.15117,-3.15117,-2.08114,-2.08114,2.38125,2.38125,-1.87066,-1.87066,-1.57102,-1.57102,-1.57999,-1.57999,0.0,0.0
1,213,4.26,-3.14503,-2.08457,2.38396,-1.86619,-1.57104,-1.57367,-0.0053,-0.00544,-0.00516,-0.00511,-0.00495,-0.00523,0.52171,0.00831,0.02489,1.0,0.0,0.0,-0.0,-3.16304,-3.16304,-2.0729,-2.0729,2.38161,2.38161,-1.87925,-1.87925,-1.57101,-1.57101,-1.59187,-1.59187,0.0,0.0
1,214,4.28,-3.15703,-2.07644,2.38439,-1.87472,-1.57104,-1.58567,-0.0053,-0.00544,-0.00516,-0.00511,-0.00495,-0.00523,0.52171,0.00831,0.02489,1.0,0.0,-0.0,-0.0,-3.17465,-3.17465,-2.0644,-2.0644,2.38181,2.38181,-1.88794,-1.88794,-1.571,-1.571,-1.60349,-1.60349,0.0,0.0
1,215,4.3,-3.16877,-2.06805,2.38465,-1.88335,-1.57103,-1.59742,-0.0053,-0.00544,-0.00516,-0.00511,-0.00495,-0.00523,0.52171,0.00831,0.02489,1.0,0.0,0.0,-0.0,-3.18602,-3.18602,-2.05566,-2.05566,2.38184,2.38184,-1.89672,-1.89672,-1.57099,-1.57099,-1.61487,-1.61487,0.0,0.0
1,216,4.32,-3.18026,-2.05941,2.38475,-1.89207,-1.57102,-1.60892,-0.0053,-0.00544,-0.00516,-0.00511,-0.00495,-0.00523,0.52171,0.00831,0.02489,1.0,0.0,-0.0,-0.0,-3.19714,-3.19714,-2.04668,-2.04668,2.38171,2.38171,-1.90557,-1.90557,-1.57099,-1.57099,-1.62599,-1.62599,0.0,0.0
1,217,4.34,-3.1915,-2.05052,2.38469,-1.90087,-1.57101,-1.62017,-0.0053,-0.00545,-0.00516,-0.00511,-0.00495,-0.00523,0.52171,0.00831,0.02489,1.0,0.0,0.0,-0.0,-3.20801,-3.20801,-2.03746,-2.03746,2.38141,2.38141,-1.91449,-1.91449,-1.57098,-1.57098,-1.63688,-1.63688,0.0,0.0
1,218,4.36,-3.20249,-2.04139,2.38446,-1.90973,-1.571,-1.63117,-0.0053,-0.00545,-0.00515,-0.00511,-0.00495,-0.00523,0.52171,0.00831,0.02489,1.0,0.0,0.0,-0.0,-3.21865,-3.21865,-2.02803,-2.02803,2.38095,2.38095,-1.92346,-1.92346,-1.57097,-1.57097,-1.64752,-1.64752,0.0,0.0
1,219,4.38,-3.21325,-2.03204,2.38406,-1.91866,-1.57099,-1.64194,-0.0053,-0.00545,-0.00515,-0.00511,-0.00494,-0.00523,0.52171,0.00831,0.02489,1.0,0.0,-0.0,-0.0,-3.22905,-3.22905,-2.01838,-2.01838,2.38031,2.38031,-1.93247,-1.93247,-1.57096,-1.57096,-1.65792,-1.65792,0.0,0.0
1,220,4.4,-3.22377,-2.02247,2.3835,-1.92764,-1.57098,-1.65247,-0.0053,-0.00545,-0.00515,-0.00511,-0.00494,-0.00523,0.52171,0.00831,0.02489,1.0,0.0,0.0,-0.0,-3.23921,-3.23921,-2.00852,-2.00852,2.37951,2.37951,-1.94152,-1.94152,-1.57095,-1.57095,-1.6681,-1.6681,0.0,0.0
1,221,4.42,-3.23405,-2.01269,2.38276,-1.93665,-1.57097,-1.66276,-0.0053,-0.00545,-0.00515,-0.00511,-0.00494,-0.00523,0.52171,0.00831,0.02489,1.0,0.0,-0.0,-0.0,-3.24915,-3.24915,-1.99847,-1.99847,2.37854,2.37854,-1.9506,-1.9506,-1.57095,-1.57095,-1.67804,-1.67804,0.0,0.0
1,222,4.44,-3.24411,-2.00271,2.38186,-1.9457,-1.57097,-1.67282,-0.0053,-0.00545,-0.00515,-0.00511,-0.00494,-0.00523,0.52171,0.00831,0.02489,1.0,0.0,-0.0,-0.0,-3.25887,-3.25887,-1.98824,-1.98824,2.37739,2.37739,-1.95969,-1.95969,-1.57094,-1.57094,-1.68777,-1.68777,0.0,0.0
1,223,4.46,-3.25393,-1.99254,2.38078,-1.95477,-1.57096,-1.68266,-0.0053,-0.00545,-0.00515,-0.00511,-0.00494,-0.00523,0.52171,0.00831,0.02489,1.0,0.0,0.0,-0.0,-3.26836,-3.26836,-1.97783,-1.97783,2.37608,2.37608,-1.96878,-1.96878,-1.57093,-1.57093,-1.69727,-1.69727,0.0,0.0
1,224,4.48,-3.26354,-1.98218,2.37953,-1.96384,-1.57095,-1.69227,-0.0053,-0.00545,-0.00515,-0.00511,-0.00494,-0.00523,0.52171,0.00831,0.02489,1.0,0.0,-0.0,-0.0,-3.27764,-3.27764,-1.96725,-1.96725,2.37459,2.37459,-1.97787,-1.97787,-1.57093,-1.57093,-1.70655,-1.70655,0.0,0.0
1,225,4.5,-3.27293,-1.97166,2.37811,-1.97292,-1.57094,-1.70167,-0.0053,-0.00545,-0.00515,-0.00511,-0.00495,-0.00523,0.52171,0.00831,0.02489,1.0,0.0,0.0,-0.0,-3.28671,-3.28671,-1.95651,-1.95651,2.37292,2.37292,-1.98694,-1.98694,-1.57092,-1.57092,-1.71563,-1.71563,0.0,0.0
1,226,4.52,-3.28211,-1.96097,2.37652,-1.98198,-1.57094,-1.71086,-0.0053,-0.00545,-0.00515,-0.00511,-0.00495,-0.00523,0.52171,0.00831,0.02489,1.0,0.0,-0.0,-0.0,-3.29557,-3.29557,-1.94563,-1.94563,2.37109,2.37109,-1.99599,-1.99599,-1.57091,-1.57091,-1.72449,-1.72449,0.0,0.0
1,227,4.54,-3.29107,-1.95013,2.37475,-1.99102,-1.57093,-1.71983,-0.0053,-0.00544,-0.00515,-0.00511,-0.00495,-0.00523,0.52171,0.00831,0.02489,1.0,0.0,0.0,-0.0,-3.30423,-3.30423,-1.93461,-1.93461,2.36907,2.36907,-2.005,-2.005,-1.57091,-1.57091,-1.73316,-1.73316,0.0,0.0
1,228,4.56,-3.29984,-1.93914,2.37281,-2.00004,-1.57093,-1.7286,-0.0053,-0.00544,-0.00515,-0.00511,-0.00495,-0.00523,0.52171,0.00831,0.02489,1.0,0.0,-0.0,-0.0,-3.31269,-3.31269,-1.92345,-1.92345,2.36689,2.36689,-2.01397,-2.01397,-1.5709,-1.5709,-1.74163,-1.74163,0.0,0.0
1,229,4.58,-3.3084,-1.92802,2.3707,-2.00901,-1.57092,-1.73717,-0.0053,-0.00544,-0.00515,-0.00511,-0.00495,-0.00523,0.52171,0.00831,0.02489,1.0,0.0,0.0,-0.0,-3.32095,-3.32095,-1.91218,-1.91218,2.36453,2.36453,-2.02289,-2.02289,-1.5709,-1.5709,-1.7499,-1.7499,0.0,0.0
1,230,4.6,-3.31677,-1.91677,2.36841,-2.01794,-1.57091,-1.74555,-0.0053,-0.00544,-0.00515,-0.00511,-0.00495,-0.00523,0.52171,0.00831,0.02489,1.0,0.0,-0.0,-0.0,-3.32903,-3.32903,-1.90079,-1.90079,2.362,2.362,-2.03175,-2.03175,-1.57089,-1.57089,-1.75798,-1.75798,0.0,0.0
1,231,4.62,-3.32494,-1.9054,2.36595,-2.02681,-1.57091,-1.75373,-0.0053,-0.00544,-0.00516,-0.00511,-0.00495,-0.00523,0.52171,0.00831,0.02489,1.0,0.0,0.0,-0.0,-3.33693,-3.33693,-1.8893,-1.8893,2.35929,2.35929,-2.04054,-2.04054,-1.57089,-1.57089,-1.76588,-1.76588,0.0,0.0
1,232,4.64,-3.33293,-1.89393,2.36331,-2.03562,-1.5709,-1.76173,-0.0053,-0.00543,-0.00516,-0.00511,-0.00496,-0.00523,0.52171,0.00831,0.02489,1.0,0.0,-0.0,-0.0,-3.34464,-3.34464,-1.87771,-1.87771,2.35641,2.35641,-2.04925,-2.04925,-1.57088,-1.57088,-1.7736,-1.7736,0.0,0.0
1,233,4.66,-3.34074,-1.88235,2.3605,-2.04435,-1.5709,-1.76954,-0.00529,-0.00543,-0.00516,-0.00511,-0.00496,-0.00523,0.52171,0.00831,0.02489,1.0,0.0,0.0,-0.0,-3.35218,-3.35218,-1.86604,-1.86604,2.35336,2.35336,-2.05787,-2.05787,-1.57088,-1.57088,-1.78115,-1.78115,0.0,0.0
1,234,4.68,-3.34837,-1.87068,2.35752,-2.05301,-1.57089,-1.77718,-0.00529,-0.00543,-0.00516,-0.00511,-0.00496,-0.00523,0.52171,0.00831,0.02489,1.0,0.0,0.0,-0.0,-3.35955,-3.35955,-1.85428,-1.85428,2.35013,2.35013,-2.0664,-2.0664,-1.57088,-1.57088,-1.78852,-1.78852,0.0,0.0
1,235,4.7,-3.35583,-1.85893,2.35436,-2.06157,-1.57089,-1.78464,-0.00529,-0.00543,-0.00516,-0.00511,-0.00497,-0.00523,0.52171,0.00831,0.02489,1.0,0.0,-0.0,-0.0,-3.36675,-3.36675,-1.84246,-1.84246,2.34673,2.34673,-2.07483,-2.07483,-1.57087,-1.57087,-1.79573,-1.79573,0.0,0.0
1,236,4.72,-3.36312,-1.8471,2.35104,-2.07004,-1.57089,-1.79194,-0.00529,-0.00542,-0.00516,-0.00512,-0.00497,-0.00523,0.52171,0.00831,0.02489,1.0,0.0,0.0,-0.0,-3.37379,-3.37379,-1.83057,-1.83057,2.34317,2.34317,-2.08316,-2.08316,-1.57087,-1.57087,-1.80277,-1.80277,0.0,0.0
1,237,4.74,-3.37024,-1.83521,2.34754,-2.0784,-1.57088,-1.79907,-0.00529,-0.00542,-0.00516,-0.00512,-0.00497,-0.00523,0.52171,0.00831,0.02489,1.0,0.0,-0.0,-0.0,-3.38067,-3.38067,-1.81862,-1.81862,2.33943,2.33943,-2.09137,-2.09137,-1.57086,-1.57086,-1.80965,-1.80965,0.0,0.0
1,238,4.76,-3.3772,-1.82325,2.34387,-2.08666,-1.57088,-1.80604,-0.00529,-0.00542,-0.00516,-0.00512,-0.00498,-0.00523,0.52171,0.00831,0.02489,1.0,0.0,0.0,-0.0,-3.38739,-3.38739,-1.80662,-1.80662,2.33552,2.33552,-2.09946,-2.09946,-1.57086,-1.57086,-1.81638,-1.81638,0.0,0.0
1,239,4.78,-3.38401,-1.81124,2.34003,-2.0948,-1.57087,-1.81285,-0.00529,-0.00541,-0.00516,-0.00512,-0.00498,-0.00522,0.52171,0.00831,0.02489,1.0,0.0,-0.0,-0.0,-3.39396,-3.39396,-1.79458,-1.79458,2.33144,2.33144,-2.10743,-2.10743,-1.57086,-1.57086,-1.82296,-1.82296,0.0,0.0
1,240,4.8,-3.39066,-1.79918,2.33602,-2.10282,-1.57087,-1.81951,-0.00529,-0.00541,-0.00516,-0.00512,-0.00498,-0.00522,0.52171,0.00831,0.02489,1.0,0.0,0.0,-0.0,-3.40039,-3.40039,-1.78251,-1.78251,2.3272,2.3272,-2.11527,-2.11527,-1.57086,-1.57086,-1.82939,-1.82939,0.0,0.0
1,241,4.82,-3.39717,-1.78708,2.33184,-2.11071,-1.57087,-1.82602,-0.00528,-0.0054,-0.00516,-0.00512,-0.00499,-0.00522,0.52171,0.00831,0.02489,1.0,0.0,-0.0,-0.0,-3.40668,-3.40668,-1.7704,-1.7704,2.32279,2.32279,-2.12297,-2.12297,-1.57085,-1.57085,-1.83568,-1.83568,0.0,0.0
1,242,4.84,-3.40353,-1.77495,2.3275,-2.11846,-1.57086,-1.83238,-0.00528,-0.0054,-0.00516,-0.00512,-0.00499,-0.00522,0.52171,0.00831,0.02489,1.0,0.0,0.0,-0.0,-3.41282,-3.41282,-1.75827,-1.75827,2.31821,2.31821,-2.13053,-2.13053,-1.57085,-1.57085,-1.84183,-1.84183,0.0,0.0
1,243,4.86,-3.40975,-1.76278,2.32299,-2.12608,-1.57086,-1.83861,-0.00528,-0.0054,-0.00516,-0.00513,-0.00499,-0.00522,0.52171,0.00831,0.02489,1.0,0.0,0.0,-0.0,-3.41883,-3.41883,-1.74612,-1.74612,2.31347,2.31347,-2.13794,-2.13794,-1.57085,-1.57085,-1.84785,-1.84785,0.0,0.0
1,244,4.88,-3.41583,-1.7506,2.31832,-2.13356,-1.57086,-1.84469,-0.00528,-0.00539,-0.00517,-0.00513,-0.005,-0.00522,0.52171,0.00831,0.02489,1.0,0.0,0.0,-0.0,-3.42471,-3.42471,-1.73396,-1.73396,2.30857,2.30857,-2.14521,-2.14521,-1.57084,-1.57084,-1.85373,-1.85373,0.0,0.0
1,245,4.9,-3.42178,-1.7384,2.31349,-2.14089,-1.57085,-1.85065,-0.00528,-0.00539,-0.00517,-0.00513,-0.005,-0.00522,0.52171,0.00831,0.02489,1.0,0.0,-0.0,-0.0,-3.43046,-3.43046,-1.72179,-1.72179,2.3035,2.3035,-2.15232,-2.15232,-1.57084,-1.57084,-1.85949,-1.85949,0.0,0.0
1,246,4.92,-3.42759,-1.72619,2.30849,-2.14807,-1.57085,-1.85647,-0.00527,-0.00538,-0.00517,-0.00513,-0.00501,-0.00522,0.52171,0.00831,0.02489,1.0,0.0,0.0,-0.0,-3.43609,-3.43609,-1.70962,-1.70962,2.29828,2.29828,-2.15927,-2.15927,-1.57084,-1.57084,-1.86511,-1.86511,0.0,0.0
1,247,4.94,-3.43328,-1.71397,2.30333,-2.1551,-1.57085,-1.86216,-0.00527,-0.00538,-0.00517,-0.00513,-0.00501,-0.00522,0.52171,0.00831,0.02489,1.0,0.0,0.0,-0.0,-3.44159,-3.44159,-1.69744,-1.69744,2.2929,2.2929,-2.16607,-2.16607,-1.57084,-1.57084,-1.87062,-1.87062,0.0,0.0
1,248,4.96,-3.43885,-1.70175,2.29801,-2.16196,-1.57085,-1.86774,-0.00527,-0.00538,-0.00517,-0.00514,-0.00502,-0.00521,0.52171,0.00831,0.02489,1.0,0.0,-0.0,-0.0,-3.44698,-3.44698,-1.68528,-1.68528,2.28736,2.28736,-2.1727,-2.1727,-1.57084,-1.57084,-1.87601,-1.87601,0.0,0.0
1,249,4.98,-3.4443,-1.68954,2.29254,-2.16867,-1.57084,-1.87319,-0.00527,-0.00537,-0.00517,-0.00514,-0.00502,-0.00521,0.52171,0.00831,0.02489,1.0,0.0,0.0,-0.0,-3.45225,-3.45225,-1.67312,-1.67312,2.28166,2.28166,-2.17917,-2.17917,-1.57083,-1.57083,-1.88128,-1.88128,0.0,0.0
1,250,5.0,-3.44963,-1.67733,2.28691,-2.17522,-1.57084,-1.87852,-0.00527,-0.00537,-0.00517,-0.00514,-0.00502,-0.00521,0.52171,0.00831,0.02489,1.0,0.0,-0.0,-0.0,-3.4574,-3.4574,-1.66098,-1.66098,2.27581,2.27581,-2.18548,-2.18548,-1.57083,-1.57083,-1.88645,-1.88645,0.0,0.0
1,251,5.02,-3.45317,-1.66822,2.28408,-2.18132,-1.57085,-1.88185,-0.00527,-0.00537,-0.00517,-0.00514,-0.00502,-0.00521,0.52171,0.00831,0.02489,1.0,0.0,0.0,-0.0,-3.45751,-3.45751,-1.65761,-1.65761,2.27785,2.27785,-2.1908,-2.1908,-1.57079,-1.57079,-1.88671,-1.88671,0.0,0.0
1,252,5.04,-3.45516,-1.66177,2.28349,-2.18709,-1.57084,-1.88383,-0.00527,-0.00536,-0.00517,-0.00514,-0.00503,-0.00522,0.52171,0.00831,0.02489,1.0,0.0,-0.0,-0.0,-3.45751,-3.45751,-1.65469,-1.65469,2.28028,2.28028,-2.19614,-2.19614,-1.57079,-1.57079,-1.88672,-1.88672,0.0,0.0
1,253,5.06,-3.45624,-1.65688,2.28421,-2.19268,-1.57083,-1.885,-0.00527,-0.00536,-0.00517,-0.00514,-0.00504,-0.00522,0.52171,0.00831,0.02489,1.0,0.0,-0.0,-0.0,-3.45751,-3.45751,-1.65177,-1.65177,2.28273,2.28273,-2.20151,-2.20151,-1.57079,-1.57079,-1.88672,-1.88672,0.0,0.0
1,254,5.08,-3.45683,-1.65285,2.28567,-2.19818,-1.57082,-1.8857,-0.00527,-0.00535,-0.00517,-0.00514,-0.00504,-0.00522,0.52171,0.00831,0.02489,1.0,0.0,-0.0,-0.0,-3.45752,-3.45752,-1.64883,-1.64883,2.28516,2.28516,-2.20688,-2.20688,-1.57079,-1.57079,-1.88672,-1.88672,0.0,0.0
1,255,5.1,-3.45715,-1.64928,2.28753,-2.20362,-1.57081,-1.88611,-0.00527,-0.00535,-0.00517,-0.00514,-0.00504,-0.00522,0.52171,0.00831,0.02489,1.0,0.0,0.0,0.0,-3.45752,-3.45752,-1.64586,-1.64586,2.28758,2.28758,-2.21227,-2.21227,-1.57079,-1.57079,-1.88672,-1.88672,0.0,0.0
1,256,5.12,-3.45732,-1.64597,2.28963,-2.20905,-1.5708,-1.88636,-0.00527,-0.00535,-0.00517,-0.00514,-0.00504,-0.00522,0.52171,0.00831,0.02489,1.0,0.0,-0.0,0.0,-3.45752,-3.45752,-1.64285,-1.64285,2.28998,2.28998,-2.21767,-2.21767,-1.57079,-1.57079,-1.88672,-1.88672,0.0,0.0
1,257,5.14,-3.45741,-1.64277,2.29184,-2.21447,-1.5708,-1.88651,-0.00527,-0.00535,-0.00517,-0.00514,-0.00504,-0.00522,0.52171,0.00831,0.02489,1.0,0.0,0.0,-0.0,-3.45752,-3.45752,-1.63983,-1.63983,2.29236,2.29236,-2.22309,-2.22309,-1.57079,-1.57079,-1.88672,-1.88672,0.0,0.0
1,258,5.16,-3.45747,-1.63964,2.29412,-2.21989,-1.5708,-1.88659,-0.00527,-0.00535,-0.00517,-0.00514,-0.00504,-0.00522,0.52171,0.00831,0.02489,1.0,0.0,0.0,-0.0,-3.45752,-3.45752,-1.63677,-1.63677,2.29473,2.29473,-2.22851,-2.22851,-1.57079,-1.57079,-1.88672,-1.88672,0.0,0.0
1,259,5.18,-3.45749,-1.63653,2.29643,-2.22532,-1.57079,-1.88664,-0.00527,-0.00535,-0.00516,-0.00514,-0.00504,-0.00522,0.52171,0.00831,0.02489,1.0,0.0,0.0,0.0,-3.45752,-3.45752,-1.63368,-1.63368,2.29709,2.29709,-2.23395,-2.23395,-1.57079,-1.57079,-1.88672,-1.88672,0.0,0.0
1,260,5.2,-3.45751,-1.63341,2.29875,-2.23076,-1.57079,-1.88668,-0.00527,-0.00535,-0.00516,-0.00514,-0.00504,-0.00522,0.52171,0.00831,0.02489,1.0,0.0,0.0,-0.0,-3.45752,-3.45752,-1.63057,-1.63057,2.29943,2.29943,-2.2394,-2.2394,-1.57079,-1.57079,-1.88672,-1.88672,0.0,0.0
1,261,5.22,-3.45752,-1.63029,2.30107,-2.2362,-1.57079,-1.88669,-0.00527,-0.00535,-0.00516,-0.00514,-0.00504,-0.00522,0.52171,0.00831,0.02489,1.0,0.0,-0.0,0.0,-3.45752,-3.45752,-1.62743,-1.62743,2.30175,2.30175,-2.24487,-2.24487,-1.57079,-1.57079,-1.88672,-1.88672,0.0,0.0
1,262,5.24,-3.45752,-1.62714,2.30338,-2.24166,-1.57079,-1.8867,-0.00527,-0.00535,-0.00516,-0.00514,-0.00504,-0.00522,0.52171,0.00831,0.02489,1.0,0.0,0.0,0.0,-3.45752,-3.45752,-1.62426,-1.62426,2.30406,2.30406,-2.25034,-2.25034,-1.57079,-1.57079,-1.88672,-1.88672,0.0,0.0
1,263,5.26,-3.45752,-1.62397,2.30568,-2.24713,-1.57079,-1.88671,-0.00527,-0.00535,-0.00516,-0.00514,-0.00504,-0.00522,0.52171,0.00831,0.02489,1.0,0.0,-0.0,0.0,-3.45752,-3.45752,-1.62106,-1.62106,2.30635,2.30635,-2.25583,-2.25583,-1.57079,-1.57079,-1.88672,-1.88672,0.0,0.0
1,264,5.28,-3.45752,-1.62077,2.30796,-2.25261,-1.57079,-1.88671,-0.00527,-0.00535,-0.00516,-0.00514,-0.00504,-0.00522,0.52171,0.00831,0.02489,1.0,0.0,-0.0,0.0,-3.45752,-3.45752,-1.61784,-1.61784,2.30862,2.30862,-2.26133,-2.26133,-1.57079,-1.57079,-1.88672,-1.88672,0.0,0.0
1,265,5.3,-3.45753,-1.61755,2.31023,-2.25811,-1.57079,-1.88672,-0.00527,-0.00535,-0.00516,-0.00514,-0.00504,-0.00522,0.52171,0.00831,0.02489,1.0,0.0,0.0,0.0,-3.45752,-3.45752,-1.61458,-1.61458,2.31088,2.31088,-2.26684,-2.26684,-1.57079,-1.57079,-1.88672,-1.88672,0.0,0.0
1,266,5.32,-3.45753,-1.6143,2.31249,-2.26362,-1.57079,-1.88672,-0.00527,-0.00535,-0.00516,-0.00514,-0.00504,-0.00522,0.52171,0.00831,0.02489,1.0,0.0,-0.0,0.0,-3.45752,-3.45752,-1.6113,-1.6113,2.31312,2.31312,-2.27237,-2.27237,-1.57079,-1.57079,-1.88672,-1.88672,0.0,0.0
1,267,5.34,-3.45753,-1.61102,2.31473,-2.26913,-1.57079,-1.88672,-0.00527,-0.00535,-0.00516,-0.00514,-0.00504,-0.00522,0.52171,0.00831,0.02489,1.0,0.0,0.0,0.0,-3.45752,-3.45752,-1.60799,-1.60799,2.31535,2.31535,-2.27791,-2.27791,-1.57079,-1.57079,-1.88672,-1.88672,0.0,0.0
1,268,5.36,-3.45753,-1.60771,2.31695,-2.27467,-1.57079,-1.88672,-0.00527,-0.00535,-0.00516,-0.00514,-0.00504,-0.00522,0.52171,0.00831,0.02489,1.0,0.0,0.0,0.0,-3.45752,-3.45752,-1.60465,-1.60465,2.31756,2.31756,-2.28345,-2.28345,-1.57079,-1.57079,-1.88672,-1.88672,0.0,0.0
1,269,5.38,-3.45753,-1.60438,2.31916,-2.28021,-1.57079,-1.88672,-0.00527,-0.00535,-0.00516,-0.00514,-0.00504,-0.00522,0.52171,0.00831,0.02489,1.0,0.0,-0.0,0.0,-3.45752,-3.45752,-1.60128,-1.60128,2.31976,2.31976,-2.28902,-2.28902,-1.57079,-1.57079,-1.88672,-1.88672,0.0,0.0
1,270,5.4,-3.45753,-1.60101,2.32135,-2.28576,-1.57079,-1.88672,-0.00527,-0.00535,-0.00516,-0.00514,-0.00504,-0.00522,0.52171,0.00831,0.02489,1.0,0.0,-0.0,0.0,-3.45752,-3.45752,-1.59789,-1.59789,2.32193,2.32193,-2.29459,-2.29459,-1.57079,-1.57079,-1.88672,-1.88672,0.0,0.0
1,271,5.42,-3.45753,-1.59762,2.32352,-2.29133,-1.57079,-1.88672,-0.00527,-0.00535,-0.00516,-0.00514,-0.00504,-0.00522,0.52171,0.00831,0.02489,1.0,0.0,0.0,0.0,-3.45752,-3.45752,-1.59446,-1.59446,2.32409,2.32409,-2.30017,-2.30017,-1.57079,-1.57079,-1.88672,-1.88672,0.0,0.0
1,272,5.44,-3.45753,-1.5942,2.32568,-2.29691,-1.57079,-1.88672,-0.00527,-0.00535,-0.00516,-0.00514,-0.00504,-0.00522,0.52171,0.00831,0.02489,1.0,0.0,-0.0,0.0,-3.45752,-3.45752,-1.59101,-1.59101,2.32624,2.32624,-2.30577,-2.30577,-1.57079,-1.57079,-1.88672,-1.88672,0.0,0.0
1,273,5.46,-3.45753,-1.59075,2.32782,-2.3025,-1.57079,-1.88672,-0.00527,-0.00535,-0.00516,-0.00514,-0.00504,-0.00522,0.52171,0.00831,0.02489,1.0,0.0,0.0,0.0,-3.45752,-3.45752,-1.58753,-1.58753,2.32837,2.32837,-2.31138,-2.31138,-1.57079,-1.57079,-1.88672,-1.88672,0.0,0.0
1,274,5.48,-3.45753,-1.58728,2.32994,-2.3081,-1.57079,-1.88672,-0.00527,-0.00535,-0.00516,-0.00514,-0.00504,-0.00522,0.52171,0.00831,0.02489,1.0,0.0,-0.0,0.0,-3.45752,-3.45752,-1.58402,-1.58402,2.33048,2.33048,-2.31699,-2.31699,-1.57079,-1.57079,-1.88672,-1.88672,0.0,0.0
1,275,5.5,-3.45753,-1.58377,2.33205,-2.31371,-1.57079,-1.88672,-0.00527,-0.00535,-0.00516,-0.00514,-0.00504,-0.00522,0.52171,0.00831,0.02489,1.0,0.0,0.0,0.0,-3.45752,-3.45752,-1.58048,-1.58048,2.33257,2.33257,-2.32263,-2.32263,-1.57079,-1.57079,-1.88672,-1.88672,0.0,0.0
1,276,5.52,-3.45753,-1.58024,2.33414,-2.31934,-1.57079,-1.88672,-0.00527,-0.00535,-0.00516,-0.00514,-0.00504,-0.00522,0.52171,0.00831,0.02489,1.0,0.0,-0.0,0.0,-3.45752,-3.45752,-1.57691,-1.57691,2.33464,2.33464,-2.32827,-2.32827,-1.57079,-1.57079,-1.88672,-1.88672,0.0,0.0
1,277,5.54,-3.45753,-1.57667,2.33621,-2.32497,-1.57079,-1.88672,-0.00527,-0.00535,-0.00516,-0.00514,-0.00504,-0.00522,0.52171,0.00831,0.02489,1.0,0.0,0.0,0.0,-3.45752,-3.45752,-1.57332,-1.57332,2.3367,2.3367,-2.33392,-2.33392,-1.57079,-1.57079,-1.88672,-1.88672,0.0,0.0
1,278,5.56,-3.45753,-1.57308,2.33827,-2.33062,-1.57079,-1.88672,-0.00527,-0.00535,-0.00516,-0.00514,-0.00504,-0.00522,0.52171,0.00831,0.02489,1.0,0.0,0.0,0.0,-3.45752,-3.45752,-1.5697,-1.5697,2.33875,2.33875,-2.33959,-2.33959,-1.57079,-1.57079,-1.88672,-1.88672,0.0,0.0
1,279,5.58,-3.45753,-1.56946,2.34031,-2.33628,-1.57079,-1.88672,-0.00527,-0.00535,-0.00516,-0.00514,-0.00504,-0.00522,0.52171,0.00831,0.02489,1.0,0.0,0.0,0.0,-3.45752,-3.45752,-1.56604,-1.56604,2.34077,2.34077,-2.34526,-2.34526,-1.57079,-1.57079,-1.88672,-1.88672,0.0,0.0
1,280,5.6,-3.45753,-1.56581,2.34233,-2.34195,-1.57079,-1.88672,-0.00527,-0.00535,-0.00516,-0.00514,-0.00504,-0.00522,0.52171,0.00831,0.02489,1.0,0.0,0.0,0.0,-3.45752,-3.45752,-1.56236,-1.56236,2.34278,2.34278,-2.35095,-2.35095,-1.57079,-1.57079,-1.88672,-1.88672,0.0,0.0
1,281,5.62,-3.45753,-1.56214,2.34433,-2.34763,-1.57079,-1.88672,-0.00527,-0.00535,-0.00516,-0.00514,-0.00504,-0.00522,0.52171,0.00831,0.02489,1.0,0.0,-0.0,0.0,-3.45752,-3.45752,-1.55865,-1.55865,2.34477,2.34477,-2.35665,-2.35665,-1.57079,-1.57079,-1.88672,-1.88672,0.0,0.0
1,282,5.64,-3.45753,-1.55843,2.34631,-2.35332,-1.57079,-1.88672,-0.00527,-0.00535,-0.00516,-0.00514,-0.00504,-0.00522,0.52171,0.00831,0.02489,1.0,0.0,-0.0,0.0,-3.45752,-3.45752,-1.55492,-1.55492,2.34674,2.34674,-2.36235,-2.36235,-1.57079,-1.57079,-1.88672,-1.88672,0.0,0.0
1,283,5.66,-3.45753,-1.5547,2.34828,-2.35903,-1.57079,-1.88672,-0.00527,-0.00535,-0.00516,-0.00514,-0.00504,-0.00522,0.52171,0.00831,0.02489,1.0,0.0,0.0,0.0,-3.45752,-3.45752,-1.55115,-1.55115,2.34869,2.34869,-2.36807,-2.36807,-1.57079,-1.57079,-1.88672,-1.88672,0.0,0.0
1,284,5.68,-3.45753,-1.55093,2.35023,-2.36474,-1.57079,-1.88672,-0.00527,-0.00536,-0.00516,-0.00514,-0.00504,-0.00522,0.52171,0.00831,0.02489,1.0,0.0,-0.0,0.0,-3.45752,-3.45752,-1.54736,-1.54736,2.35063,2.35063,-2.3738,-2.3738,-1.57079,-1.57079,-1.88672,-1.88672,0.0,0.0
1,285,5.7,-3.45753,-1.54714,2.35217,-2.37046,-1.57079,-1.88672,-0.00527,-0.00536,-0.00516,-0.00514,-0.00504,-0.00522,0.52171,0.00831,0.02489,1.0,0.0,0.0,0.0,-3.45752,-3.45752,-1.54353,-1.54353,2.35255,2.35255,-2.37954,-2.37954,-1.57079,-1.57079,-1.88672,-1.88672,0.0,0.0
1,286,5.72,-3.45753,-1.54332,2.35408,-2.3762,-1.57079,-1.88672,-0.00527,-0.00536,-0.00516,-0.00514,-0.00504,-0.00522,0.52171,0.00831,0.02489,1.0,0.0,-0.0,0.0,-3.45752,-3.45752,-1.53968,-1.53968,2.35445,2.35445,-2.38529,-2.38529,-1.57079,-1.57079,-1.88672,-1.88672,0.0,0.0
1,287,5.74,-3.45753,-1.53947,2.35598,-2.38194,-1.57079,-1.88672,-0.00527,-0.00536,-0.00516,-0.00514,-0.00504,-0.00522,0.52171,0.00831,0.02489,1.0,0.0,0.0,0.0,-3.45752,-3.45752,-1.5358,-1.5358,2.35633,2.35633,-2.39105,-2.39105,-1.57079,-1.57079,-1.88672,-1.88672,0.0,0.0
1,288,5.76,-3.45753,-1.5356,2.35785,-2.3877,-1.57079,-1.88672,-0.00527,-0.00536,-0.00516,-0.00514,-0.00504,-0.00522,0.52171,0.00831,0.02489,1.0,0.0,-0.0,0.0,-3.45752,-3.45752,-1.5319,-1.5319,2.35819,2.35819,-2.39682,-2.39682,-1.57079,-1.57079,-1.88672,-1.88672,0.0,0.0
1,289,5.78,-3.45753,-1.53169,2.35971,-2.39346,-1.57079,-1.88672,-0.00527,-0.00536,-0.00516,-0.00514,-0.00504,-0.00522,0.52171,0.00831,0.02489,1.0,0.0,0.0,0.0,-3.45752,-3.45752,-1.52796,-1.52796,2.36004,2.36004,-2.4026,-2.4026,-1.57079,-1.57079,-1.88672,-1.88672,0.0,0.0
1,290,5.8,-3.45753,-1.52776,2.36155,-2.39924,-1.57079,-1.88672,-0.00527,-0.00536,-0.00516,-0.00514,-0.00504,-0.00522,0.52171,0.00831,0.02489,1.0,0.0,0.0,0.0,-3.45752,-3.45752,-1.524,-1.524,2.36186,2.36186,-2.40839,-2.40839,-1.57079,-1.57079,-1.88672,-1.88672,0.0,0.0
1,291,5.82,-3.45753,-1.5238,2.36338,-2.40502,-1.57079,-1.88672,-0.00527,-0.00536,-0.00516,-0.00514,-0.00504,-0.00522,0.52171,0.00831,0.02489,1.0,0.0,-0.0,0.0,-3.45752,-3.45752,-1.52,-1.52,2.36367,2.36367,-2.41419,-2.41419,-1.57079,-1.57079,-1.88672,-1.88672,0.0,0.0
1,292,5.84,-3.45753,-1.51981,2.36518,-2.41082,-1.57079,-1.88672,-0.00527,-0.00536,-0.00516,-0.00514,-0.00504,-0.00522,0.52171,0.00831,0.02489,1.0,0.0,0.0,0.0,-3.45752,-3.45752,-1.51598,-1.51598,2.36546,2.36546,-2.42,-2.42,-1.57079,-1.57079,-1.88672,-1.88672,0.0,0.0
1,293,5.86,-3.45753,-1.51579,2.36697,-2.41662,-1.57079,-1.88672,-0.00527,-0.00536,-0.00516,-0.00514,-0.00504,-0.00522,0.52171,0.00831,0.02489,1.0,0.0,-0.0,0.0,-3.45752,-3.45752,-1.51194,-1.51194,2.36723,2.36723,-2.42582,-2.42582,-1.57079,-1.57079,-1.88672,-1.88672,0.0,0.0
1,294,5.88,-3.45753,-1.51175,2.36873,-2.42244,-1.57079,-1.88672,-0.00527,-0.00536,-0.00516,-0.00514,-0.00504,-0.00522,0.52171,0.00831,0.02489,1.0,0.0,0.0,0.0,-3.45752,-3.45752,-1.50786,-1.50786,2.36899,2.36899,-2.43165,-2.43165,-1.57079,-1.57079,-1.88672,-1.88672,0.0,0.0
1,295,5.9,-3.45753,-1.50767,2.37048,-2.42826,-1.57079,-1.88672,-0.00527,-0.00536,-0.00516,-0.00514,-0.00504,-0.00522,0.52171,0.00831,0.02489,1.0,0.0,-0.0,0.0,-3.45752,-3.45752,-1.50376,-1.50376,2.37072,2.37072,-2.43748,-2.43748,-1.57079,-1.57079,-1.88672,-1.88672,0.0,0.0
1,296,5.92,-3.45753,-1.50357,2.37221,-2.43409,-1.57079,-1.88672,-0.00527,-0.00536,-0.00516,-0.00514,-0.00504,-0.00522,0.52171,0.00831,0.02489,1.0,0.0,-0.0,0.0,-3.45752,-3.45752,-1.49963,-1.49963,2.37243,2.37243,-2.44333,-2.44333,-1.57079,-1.57079,-1.88672,-1.88672,0.0,0.0
1,297,5.94,-3.45753,-1.49944,2.37392,-2.43993,-1.57079,-1.88672,-0.00527,-0.00536,-0.00516,-0.00514,-0.00504,-0.00522,0.52171,0.00831,0.02489,1.0,0.0,-0.0,0.0,-3.45751,-3.45751,-1.49547,-1.49547,2.37413,2.37413,-2.44918,-2.44918,-1.57079,-1.57079,-1.88672,-1.88672,0.0,0.0
1,298,5.96,-3.45753,-1.49528,2.37561,-2.44578,-1.57079,-1.88672,-0.00527,-0.00536,-0.00516,-0.00514,-0.00504,-0.00522,0.52171,0.00831,0.02489,1.0,0.0,0.0,0.0,-3.45751,-3.45751,-1.49128,-1.49128,2.37581,2.37581,-2.45504,-2.45504,-1.57079,-1.57079,-1.88672,-1.88672,0.0,0.0
1,299,5.98,-3.45753,-1.4911,2.37728,-2.45164,-1.57079,-1.88672,-0.00527,-0.00536,-0.00516,-0.00514,-0.00504,-0.00522,0.52171,0.00831,0.02489,1.0,0.0,0.0,0.0,-3.45751,-3.45751,-1.48707,-1.48707,2.37746,2.37746,-2.46091,-2.46091,-1.57079,-1.57079,-1.88672,-1.88672,0.0,0.0
1,300,6.0,-3.45753,-1.48689,2.37894,-2.4575,-1.57079,-1.88672,-0.00527,-0.00536,-0.00516,-0.00514,-0.00504,-0.00522,0.52171,0.00831,0.02489,1.0,0.0,-0.0,0.0,-3.45751,-3.45751,-1.48282,-1.48282,2.3791,2.3791,-2.46679,-2.46679,-1.57079,-1.57079,-1.88672,-1.88672,0.0,0.0
1,301,6.02,-3.45753,-1.48265,2.38057,-2.46338,-1.57079,-1.88672,-0.00527,-0.00536,-0.00516,-0.00514,-0.00504,-0.00522,0.52171,0.00831,0.02489,1.0,0.0,0.0,0.0,-3.45751,-3.45751,-1.47856,-1.47856,2.38072,2.38072,-2.47268,-2.47268,-1.57079,-1.57079,-1.88672,-1.88672,0.0,0.0
1,302,6.04,-3.45753,-1.47838,2.38218,-2.46926,-1.57079,-1.88672,-0.00527,-0.00536,-0.00516,-0.00514,-0.00504,-0.00522,0.52171,0.00831,0.02489,1.0,0.0,0.0,0.0,-3.45751,-3.45751,-1.47426,-1.47426,2.38232,2.38232,-2.47857,-2.47857,-1.57079,-1.57079,-1.88672,-1.88672,0.0,0.0
1,303,6.06,-3.45753,-1.47408,2.38378,-2.47515,-1.57079,-1.88672,-0.00527,-0.00536,-0.00516,-0.00514,-0.00504,-0.00522,0.52171,0.00831,0.02489,1.0,0.0,-0.0,0.0,-3.45751,-3.45751,-1.46994,-1.46994,2.38389,2.38389,-2.48447,-2.48447,-1.57079,-1.57079,-1.88672,-1.88672,0.0,0.0
1,304,6.08,-3.45753,-1.46976,2.38535,-2.48104,-1.57079,-1.88672,-0.00527,-0.00536,-0.00516,-0.00514,-0.00504,-0.00522,0.52171,0.00831,0.02489,1.0,0.0,0.0,0.0,-3.45751,-3.45751,-1.46559,-1.46559,2.38545,2.38545,-2.49038,-2.49038,-1.57079,-1.57079,-1.88672,-1.88672,0.0,0.0
1,305,6.1,-3.45753,-1.46541,2.3869,-2.48695,-1.57079,-1.88672,-0.00527,-0.00536,-0.00516,-0.00514,-0.00504,-0.00522,0.52171,0.00831,0.02489,1.0,0.0,-0.0,0.0,-3.45751,-3.45751,-1.46121,-1.46121,2.38699,2.38699,-2.49629,-2.49629,-1.57079,-1.57079,-1.88672,-1.88672,0.0,0.0
1,306,6.12,-3.45753,-1.46104,2.38844,-2.49286,-1.57079,-1.88672,-0.00527,-0.00536,-0.00516,-0.00514,-0.00504,-0.00522,0.52171,0.00831,0.02489,1.0,0.0,0.0,0.0,-3.45751,-3.45751,-1.45681,-1.45681,2.38851,2.38851,-2.50222,-2.50222,-1.57079,-1.57079,-1.88672,-1.88672,0.0,0.0
1,307,6.14,-3.45753,-1.45663,2.38995,-2.49878,-1.57079,-1.88672,-0.00527,-0.00536,-0.00516,-0.00514,-0.00504,-0.00522,0.52171,0.00831,0.02489,1.0,0.0,-0.0,0.0,-3.45751,-3.45751,-1.45238,-1.45238,2.39001,2.39001,-2.50814,-2.50814,-1.57079,-1.57079,-1.88672,-1.88672,0.0,0.0
1,308,6.16,-3.45753,-1.45221,2.39145,-2.5047,-1.57079,-1.88672,-0.00527,-0.00536,-0.00516,-0.00514,-0.00504,-0.00522,0.52171,0.00831,0.02489,1.0,0.0,-0.0,0.0,-3.45751,-3.45751,-1.44792,-1.44792,2.39149,2.39149,-2.51408,-2.51408,-1.57079,-1.57079,-1.88672,-1.88672,0.0,0.0
1,309,6.18,-3.45753,-1.44775,2.39292,-2.51063,-1.57079,-1.88672,-0.00527,-0.00536,-0.00516,-0.00514,-0.00503,-0.00522,0.52171,0.00831,0.02489,1.0,0.0,-0.0,0.0,-3.45751,-3.45751,-1.44344,-1.44344,2.39295,2.39295,-2.52002,-2.52002,-1.57079,-1.57079,-1.88672,-1.88672,0.0,0.0
1,310,6.2,-3.45753,-1.44327,2.39437,-2.51657,-1.57079,-1.88672,-0.00527,-0.00536,-0.00516,-0.00514,-0.00503,-0.00522,0.52171,0.00831,0.02489,1.0,0.0,0.0,0.0,-3.45751,-3.45751,-1.43893,-1.43893,2.39439,2.39439,-2.52597,-2.52597,-1.57079,-1.57079,-1.88672,-1.88672,0.0,0.0
1,311,6.22,-3.45753,-1.43876,2.39581,-2.52252,-1.57079,-1.88672,-0.00527,-0.00536,-0.00516,-0.00514,-0.00503,-0.00522,0.52171,0.00831,0.02489,1.0,0.0,0.0,0.0,-3.45751,-3.45751,-1.43439,-1.43439,2.39581,2.39581,-2.53192,-2.53192,-1.57079,-1.57079,-1.88671,-1.88671,0.0,0.0
1,312,6.24,-3.45753,-1.43422,2.39722,-2.52847,-1.57079,-1.88672,-0.00527,-0.00536,-0.00516,-0.00514,-0.00503,-0.00522,0.52171,0.00831,0.02489,1.0,0.0,0.0,0.0,-3.45751,-3.45751,-1.42983,-1.42983,2.3972,2.3972,-2.53788,-2.53788,-1.57079,-1.57079,-1.88671,-1.88671,0.0,0.0
1,313,6.26,-3.45753,-1.42966,2.39861,-2.53442,-1.57079,-1.88671,-0.00527,-0.00536,-0.00516,-0.00514,-0.00503,-0.00522,0.52171,0.00831,0.02489,1.0,0.0,-0.0,0.0,-3.45751,-3.45751,-1.42524,-1.42524,2.39858,2.39858,-2.54384,-2.54384,-1.57079,-1.57079,-1.88671,-1.88671,0.0,0.0
1,314,6.28,-3.45746,-1.42558,2.39972,-2.54054,-1.57072,-1.88674,-0.00524,-0.00529,-0.00509,-0.00522,-0.00637,-0.01128,0.52171,0.00831,0.02489,1.0,0.0,-0.0,0.0,-3.45751,-3.45751,-1.42063,-1.42063,2.39994,2.39994,-2.54981,-2.54981,-1.57079,-1.57079,-1.88671,-1.88671,0.0,0.0
1,315,6.3,-3.4569,-1.42428,2.40051,-2.54606,-1.57084,-1.88669,-0.00545,-0.00738,-0.00503,-0.00521,-0.00784,-0.02309,0.52171,0.00831,0.02489,1.0,0.0,-0.0,0.0,-3.45751,-3.45751,-1.41599,-1.41599,2.40127,2.40127,-2.55578,-2.55578,-1.57079,-1.57079,-1.88671,-1.88671,0.0,0.0
1,316,6.32,-3.45627,-1.42373,2.40132,-2.55045,-1.57134,-1.88654,-0.00584,-0.01152,-0.00691,-0.00523,-0.00652,-0.0154,0.52171,0.00831,0.02489,1.0,0.0,-0.0,0.0,-3.45751,-3.45751,-1.41133,-1.41133,2.40259,2.40259,-2.56176,-2.56176,-1.57079,-1.57079,-1.88671,-1.88671,0.0,0.0
1,317,6.34,-3.45559,-1.42345,2.402,-2.55433,-1.57183,-1.88656,-0.00611,-0.01324,-0.00601,-0.00533,-0.00568,-0.00913,0.52171,0.00831,0.02489,1.0,0.0,-0.0,0.0,-3.45751,-3.45751,-1.40664,-1.40664,2.40388,2.40388,-2.56774,-2.56774,-1.57079,-1.57079,-1.88671,-1.88671,0.0,0.0
1,318,6.36,-3.45489,-1.4233,2.40271,-2.55823,-1.5724,-1.88657,-0.0063,-0.01401,-0.00527,-0.00544,-0.00564,-0.0078,0.52171,0.00831,0.02489,1.0,0.0,-0.0,0.0,-3.45751,-3.45751,-1.40193,-1.40193,2.40515,2.40515,-2.57372,-2.57372,-1.57079,-1.57079,-1.88671,-1.88671,0.0,0.0
1,319,6.38,-3.45419,-1.42306,2.40333,-2.5623,-1.57294,-1.88659,-0.00649,-0.01466,-0.00486,-0.00554,-0.00549,-0.0057,0.52171,0.00831,0.02489,1.0,0.0,0.0,0.0,-3.45751,-3.45751,-1.39719,-1.39719,2.40641,2.40641,-2.57971,-2.57971,-1.57079,-1.57079,-1.88671,-1.88671,0.0,0.0
1,320,6.4,-3.4535,-1.42274,2.40389,-2.56653,-1.57344,-1.88659,-0.00666,-0.01517,-0.00437,-0.00563,-0.00557,-0.00566,0.52171,0.00831,0.02489,1.0,0.0,-0.0,0.0,-3.45751,-3.45751,-1.39243,-1.39243,2.40764,2.40764,-2.5857,-2.5857,-1.57079,-1.57079,-1.88671,-1.88671,0.0,0.0
1,321,6.42,-3.45282,-1.42235,2.40441,-2.57092,-1.57392,-1.88658,-0.00683,-0.01571,-0.00447,-0.0057,-0.00564,-0.00573,0.52171,0.00831,0.02489,1.0,0.0,-0.0,0.0,-3.45751,-3.45751,-1.38765,-1.38765,2.40885,2.40885,-2.5917,-2.5917,-1.57079,-1.57079,-1.88671,-1.88671,0.0,0.0
1,322,6.44,-3.45214,-1.42186,2.40487,-2.57547,-1.57436,-1.88658,-0.007,-0.01624,-0.00474,-0.00576,-0.0057,-0.00579,0.52171,0.00831,0.02489,1.0,0.0,-0.0,0.0,-3.45751,-3.45751,-1.38284,-1.38284,2.41003,2.41003,-2.59769,-2.59769,-1.57079,-1.57079,-1.88671,-1.88671,0.0,0.0
1,323,6.46,-3.45148,-1.42129,2.40526,-2.58017,-1.57478,-1.88657,-0.00717,-0.01674,-0.00508,-0.00582,-0.00576,-0.00584,0.52171,0.00831,0.02489,1.0,0.0,-0.0,0.0,-3.45751,-3.45751,-1.378,-1.378,2.4112,2.4112,-2.60369,-2.60369,-1.57079,-1.57079,-1.88671,-1.88671,0.0,0.0
1,324,6.48,-3.45082,-1.42064,2.40559,-2.58501,-1.57516,-1.88656,-0.00734,-0.01721,-0.00548,-0.00587,-0.00581,-0.0059,0.52171,0.00831,0.02489,1.0,0.0,0.0,0.0,-3.45751,-3.45751,-1.37314,-1.37314,2.41234,2.41234,-2.60969,-2.60969,-1.57079,-1.57079,-1.88671,-1.88671,0.0,0.0
1,325,6.5,-3.45017,-1.4199,2.40585,-2.58998,-1.57552,-1.88654,-0.0075,-0.01767,-0.00593,-0.00592,-0.00586,-0.00595,0.52171,0.00831,0.02489,1.0,0.0,-0.0,0.0,-3.45751,-3.45751,-1.36826,-1.36826,2.41347,2.41347,-2.6157,-2.6157,-1.57079,-1.57079,-1.88671,-1.88671,0.0,0.0
1,326,6.52,-3.44986,-1.41908,2.40565,-2.59357,-1.5756,-1.88655,-0.00744,-0.01762,-0.00666,-0.0059,-0.00584,-0.00594,0.52171,0.00831,0.02489,1.0,0.0,-0.0,0.0,-3.45751,-3.45751,-1.36826,-1.36826,2.41347,2.41347,-2.6157,-2.6157,-1.57079,-1.57079,-1.88671,-1.88671,0.0,0.0
1,327,6.54,-3.44973,-1.41826,2.4052,-2.59618,-1.57548,-1.88653,-0.00708,-0.01729,-0.0071,-0.00561,-0.00558,-0.00564,0.52171,0.00831,0.02489,1.0,0.0,0.0,0.0,-3.45751,-3.45751,-1.36826,-1.36826,2.41347,2.41347,-2.6157,-2.6157,-1.57079,-1.57079,-1.88671,-1.88671,8.7931,8.7931
1,328,6.56,-3.44972,-1.41744,2.4046,-2.5982,-1.57524,-1.8865,-0.00671,-0.01692,-0.00749,-0.00529,-0.00528,-0.00531,0.52171,0.00831,0.02489,1.0,0.0,-0.0,0.0,-3.45751,-3.45751,-1.36826,-1.36826,2.41347,2.41347,-2.6157,-2.6157,-1.57079,-1.57079,-1.88671,-1.88671,17.58621,17.58621
1,329,6.58,-3.44978,-1.41662,2.40393,-2.59984,-1.57495,-1.88647,-0.00634,-0.01657,-0.00788,-0.00497,-0.00496,-0.00498,0.52171,0.00831,0.02489,1.0,0.0,0.0,0.0,-3.45751,-3.45751,-1.36826,-1.36826,2.41347,2.41347,-2.6157,-2.6157,-1.57079,-1.57079,-1.88671,-1.88671,26.37931,26.37931
1,330,6.6,-3.44988,-1.41584,2.40323,-2.60122,-1.57464,-1.88645,-0.00597,-0.01622,-0.00825,-0.00465,-0.00465,-0.00466,0.52171,0.00831,0.02489,1.0,0.0,-0.0,0.0,-3.45751,-3.45751,-1.36826,-1.36826,2.41347,2.41347,-2.6157,-2.6157,-1.57079,-1.57079,-1.88671,-1.88671,35.17241,35.17241
1,331,6.62,-3.45001,-1.41508,2.40253,-2.60242,-1.57434,-1.88642,-0.00561,-0.01587,-0.0086,-0.00433,-0.00433,-0.00433,0.52171,0.00831,0.02489,1.0,0.0,0.0,0.0,-3.45751,-3.45751,-1.36826,-1.36826,2.41347,2.41347,-2.6157,-2.6157,-1.57079,-1.57079,-1.88671,-1.88671,43.96552,43.96552
1,332,6.64,-3.45016,-1.41435,2.40184,-2.60351,-1.57406,-1.8864,-0.00526,-0.01552,-0.00894,-0.00401,-0.00401,-0.00401,0.52171,0.00831,0.02489,1.0,0.0,-0.0,0.0,-3.45751,-3.45751,-1.36826,-1.36826,2.41347,2.41347,-2.6157,-2.6157,-1.57079,-1.57079,-1.88671,-1.88671,52.75862,52.75862
1,333,6.66,-3.45032,-1.41365,2.40115,-2.60452,-1.57379,-1.88637,-0.0049,-0.01517,-0.00929,-0.00369,-0.00369,-0.00369,0.52171,0.00831,0.02489,1.0,0.0,0.0,0.0,-3.45751,-3.45751,-1.36826,-1.36826,2.41347,2.41347,-2.6157,-2.6157,-1.57079,-1.57079,-1.88671,-1.88671,61.55172,61.55172
1,334,6.68,-3.4505,-1.41294,2.40046,-2.60549,-1.57354,-1.88634,-0.00454,-0.01472,-0.0094,-0.00337,-0.0034,-0.00337,0.52171,0.00831,0.02489,1.0,0.0,-0.0,0.0,-3.45751,-3.45751,-1.36826,-1.36826,2.41347,2.41347,-2.6157,-2.6157,-1.57079,-1.57079,-1.88671,-1.88671,70.34483,70.34483
1,335,6.7,-3.45069,-1.4122,2.39973,-2.60646,-1.57329,-1.88632,-0.00418,-0.01441,-0.00974,-0.00304,-0.00304,-0.00304,0.52171,0.00831,0.02489,1.0,0.0,-0.0,0.0,-3.45751,-3.45751,-1.36826,-1.36826,2.41347,2.41347,-2.6157,-2.6157,-1.57079,-1.57079,-1.88671,-1.88671,79.13793,79.13793
1,336,6.72,-3.4509,-1.41144,2.39898,-2.60744,-1.57305,-1.8863,-0.00381,-0.01399,-0.00991,-0.00272,-0.00273,-0.00271,0.52183,0.00829,0.0249,1.0,6e-05,0.00074,-8e-05,-3.45751,-3.45751,-1.36826,-1.36826,2.41347,2.41347,-2.6157,-2.6157,-1.57079,-1.57079,-1.88671,-1.88671,87.93103,87.93103
1,337,6.74,-3.45112,-1.41066,2.39821,-2.60843,-1.57281,-1.88627,-0.00345,-0.01355,-0.01006,-0.0024,-0.00241,-0.00239,0.52213,0.00824,0.02491,1.0,0.00014,0.00232,-0.00028,-3.45751,-3.45751,-1.36826,-1.36826,2.41347,2.41347,-2.6157,-2.6157,-1.57079,-1.57079,-1.88671,-1.88671,96.72414,96.72414
1,338,6.76,-3.45136,-1.40985,2.3974,-2.60944,-1.57254,-1.88627,-0.00309,-0.0132,-0.01064,-0.00207,-0.00208,-0.00207,0.52254,0.00817,0.02491,1.0,0.0003,0.00304,-0.00051,-3.45751,-3.45751,-1.36826,-1.36826,2.41347,2.41347,-2.6157,-2.6157,-1.57079,-1.57079,-1.88671,-1.88671,105.51724,105.51724
1,339,6.78,-3.45158,-1.4091,2.39665,-2.61039,-1.57231,-1.88627,-0.00274,-0.01287,-0.01135,-0.00175,-0.00175,-0.00175,0.52299,0.00809,0.02491,1.0,0.00046,0.00296,-0.00072,-3.45751,-3.45751,-1.36826,-1.36826,2.41347,2.41347,-2.6157,-2.6157,-1.57079,-1.57079,-1.88671,-1.88671,114.31034,114.31034
1,340,6.8,-3.4518,-1.4084,2.39595,-2.61129,-1.5721,-1.88627,-0.00239,-0.01254,-0.01205,-0.00143,-0.00143,-0.00143,0.52344,0.00802,0.0249,1.0,0.00052,0.00278,-0.00105,-3.45751,-3.45751,-1.36826,-1.36826,2.41347,2.41347,-2.6157,-2.6157,-1.57079,-1.57079,-1.88671,-1.88671,123.10345,123.10345
1,341,6.82,-3.45201,-1.40774,2.39529,-2.61214,-1.57192,-1.88628,-0.00204,-0.01221,-0.01272,-0.0011,-0.00111,-0.0011,0.52385,0.00795,0.02489,0.99999,0.00049,0.00291,-0.00153,-3.45751,-3.45751,-1.36826,-1.36826,2.41347,2.41347,-2.6157,-2.6157,-1.57079,-1.57079,-1.88671,-1.88671,131.89655,131.89655
1,342,6.84,-3.45221,-1.40712,2.39466,-2.61294,-1.57176,-1.88628,-0.00172,-0.0119,-0.0134,-0.00084,-0.00085,-0.00084,0.52426,0.00788,0.02488,0.99999,0.00044,0.003,-0.00204,-3.45751,-3.45751,-1.36826,-1.36826,2.41347,2.41347,-2.6157,-2.6157,-1.57079,-1.57079,-1.88671,-1.88671,140.68966,140.68966
1,343,6.86,-3.45241,-1.40652,2.39407,-2.6137,-1.57161,-1.88628,-0.00145,-0.01162,-0.01409,-0.00065,-0.00065,-0.00064,0.52465,0.00782,0.02488,0.99999,0.00041,0.00302,-0.00257,-3.45751,-3.45751,-1.36826,-1.36826,2.41347,2.41347,-2.6157,-2.6157,-1.57079,-1.57079,-1.88671,-1.88671,149.48276,149.48276
1,344,6.88,-3.4526,-1.40598,2.39352,-2.61441,-1.57148,-1.88628,-0.00109,-0.01127,-0.01463,-0.00026,-0.00027,-0.00026,0.52501,0.00776,0.02487,0.99999,0.00037,0.00308,-0.00315,-3.45751,-3.45751,-1.36826,-1.36826,2.41347,2.41347,-2.6157,-2.6157,-1.57079,-1.57079,-1.88671,-1.88671,158.27586,158.27586
1,345,6.9,-3.45278,-1.40547,2.393,-2.61507,-1.57137,-1.88629,-0.00072,-0.01089,-0.01511,0.00045,0.00042,0.00044,0.52536,0.0077,0.02487,0.99999,0.00035,0.00306,-0.00374,-3.45751,-3.45751,-1.36826,-1.36826,2.41347,2.41347,-2.6157,-2.6157,-1.57079,-1.57079,-1.88671,-1.88671,167.06897,167.06897
1,346,6.92,-3.4529,-1.40552,2.39258,-2.61538,-1.57139,-1.88631,0.00372,-0.00655,-0.01031,0.00542,0.00548,0.00544,0.52573,0.00764,0.02489,0.99999,0.00042,0.00319,-0.00421,-3.45751,-3.45751,-1.36826,-1.36826,2.41347,2.41347,-2.6157,-2.6157,-1.57079,-1.57079,-1.88671,-1.88671,175.86207,175.86207
1,347,6.94,-3.45278,-1.40765,2.39257,-2.61444,-1.57196,-1.88637,0.02331,0.0128,0.01381,0.02539,0.02551,0.02541,0.5262,0.00756,0.02499,0.99998,0.00067,0.00409,-0.00463,-3.45751,-3.45751,-1.36826,-1.36826,2.41347,2.41347,-2.6157,-2.6157,-1.57079,-1.57079,-1.88671,-1.88671,184.65517,184.65517
1,348,6.96,-3.45246,-1.41167,2.39311,-2.61237,-1.5732,-1.88652,0.05552,0.0451,0.05217,0.05799,0.05802,0.05796,0.52684,0.00747,0.02515,0.99997,0.0009,0.00628,-0.00525,-3.45751,-3.45751,-1.36826,-1.36826,2.41347,2.41347,-2.6157,-2.6157,-1.57079,-1.57079,-1.88671,-1.88671,193.44828,193.44828
1,349,6.98,-3.45199,-1.4172,2.39435,-2.60925,-1.57504,-1.88677,0.0968,0.08639,0.09858,0.09969,0.09968,0.09968,0.5275,0.00742,0.02528,0.99994,0.00076,0.00915,-0.00526,-3.45751,-3.45751,-1.36826,-1.36826,2.41347,2.41347,-2.6157,-2.6157,-1.57079,-1.57079,-1.88671,-1.88671,202.24138,202.24138
1,350,7.0,-3.4514,-1.42379,2.39599,-2.60541,-1.57733,-1.88706,0.14773,0.13733,0.15497,0.15107,0.15098,0.151,0.52847,0.00739,0.02557,0.99993,0.00032,0.01144,-0.0043,-3.45751,-3.45751,-1.36826,-1.36826,2.41347,2.41347,-2.6157,-2.6157,-1.57079,-1.57079,-1.88671,-1.88671,211.03448,211.03448
1,351,7.02,-3.45071,-1.43123,2.398,-2.60097,-1.58001,-1.8874,0.2089,0.19858,0.22182,0.21267,0.2126,0.21262,0.52998,0.00736,0.0255,0.99993,-0.00107,0.01132,-0.00288,-3.45751,-3.45751,-1.36826,-1.36826,2.41347,2.41347,-2.6157,-2.6157,-1.57079,-1.57079,-1.88671,-1.88671,219.82759,219.82759
1,352,7.04,-3.44998,-1.43932,2.4003,-2.59611,-1.58301,-1.88793,0.28286,0.27252,0.3013,0.287,0.28704,0.28703,0.53182,0.00744,0.02544,0.99996,8e-05,0.00914,0.00175,-3.45751,-3.45751,-1.36826,-1.36826,2.41347,2.41347,-2.6157,-2.6157,-1.57079,-1.57079,-1.88671,-1.88671,228.62069,228.62069
1,353,7.06,-3.44922,-1.44803,2.40311,-2.59074,-1.58647,-1.88853,0.37286,0.36232,0.39758,0.37733,0.37753,0.37745,0.534,0.0075,0.02482,0.99997,-0.00025,0.00105,0.00711,-3.45751,-3.45751,-1.36826,-1.36826,2.41347,2.41347,-2.6157,-2.6157,-1.57079,-1.57079,-1.88671,-1.88671,237.41379,237.41379
1,354,7.08,-3.44923,-1.44904,2.40318,-2.59156,-1.58736,-1.88878,0.40184,0.38843,0.42284,0.40454,0.39446,0.40372,0.5349,0.00739,0.02494,0.99977,-0.00146,-0.02084,0.00494,-3.45751,-3.45751,-1.36826,-1.36826,2.41347,2.41347,-2.6157,-2.6157,-1.57079,-1.57079,-1.88671,-1.88671,246.2069,246.2069
1,355,7.1,-3.44941,-1.44673,2.40117,-2.59415,-1.58598,-1.88868,0.40251,0.39035,0.42326,0.40546,0.39554,0.41107,0.53646,0.00723,0.02499,0.99967,-0.00107,-0.02495,0.0051,-3.45751,-3.45751,-1.36826,-1.36826,2.41347,2.41347,-2.6157,-2.6157,-1.57079,-1.57079,-1.88671,-1.88671,255.0,255.0
1,356,7.12,-3.45022,-1.44454,2.39851,-2.59384,-1.58412,-1.88848,0.40319,0.39118,0.42172,0.40567,0.39554,0.41327,0.53774,0.00704,0.025,0.99963,-0.00013,-0.02661,0.00469,-3.45748,-3.45748,-1.37784,-1.37784,2.41144,2.41144,-2.60495,-2.60495,-1.5708,-1.5708,-1.88669,-1.88669,255.0,255.0
1,357,7.14,-3.45148,-1.44259,2.39529,-2.59057,-1.5819,-1.8882,0.40395,0.39205,0.42034,0.4058,0.39536,0.41462,0.5387,0.00684,0.02495,0.99962,0.00111,-0.02712,0.004,-3.45748,-3.45748,-1.38887,-1.38887,2.4088,2.4088,-2.59141,-2.59141,-1.5708,-1.5708,-1.88669,-1.88669,255.0,255.0
1,358,7.16,-3.45299,-1.441,2.39188,-2.58506,-1.57959,-1.88789,0.40464,0.39284,0.41902,0.40586,0.39513,0.41563,0.53931,0.00665,0.02487,0.99963,0.00244,-0.02675,0.00315,-3.45748,-3.45748,-1.39997,-1.39997,2.40594,2.40594,-2.57747,-2.57747,-1.5708,-1.5708,-1.88668,-1.88668,255.0,255.0
1,359,7.18,-3.45458,-1.43969,2.38837,-2.57816,-1.57729,-1.88756,0.40524,0.39351,0.41762,0.40594,0.39495,0.41652,0.53967,0.00649,0.02477,0.99966,0.00373,-0.02583,0.00221,-3.45748,-3.45748,-1.41096,-1.41096,2.40295,2.40295,-2.56348,-2.56348,-1.5708,-1.5708,-1.88668,-1.88668,255.0,255.0
1,360,7.2,-3.45617,-1.43878,2.38501,-2.57017,-1.57514,-1.88727,0.40564,0.39398,0.41584,0.40598,0.39477,0.4173,0.53973,0.00637,0.02468,0.99969,0.00493,-0.02437,0.00128,-3.45748,-3.45748,-1.42182,-1.42182,2.39984,2.39984,-2.54951,-2.54951,-1.5708,-1.5708,-1.88668,-1.88668,255.0,255.0
1,361,7.22,-3.45733,-1.43929,2.38275,-2.56024,-1.57326,-1.88704,0.4062,0.3946,0.41536,0.40563,0.39429,0.41739,0.53893,0.00665,0.02456,0.99974,0.00608,-0.02183,0.00056,-3.45747,-3.45747,-1.43254,-1.43254,2.39661,2.39661,-2.53556,-2.53556,-1.5708,-1.5708,-1.88668,-1.88668,255.0,255.0
1,362,7.24,-3.45789,-1.44222,2.38253,-2.54739,-1.57218,-1.88692,0.40625,0.39477,0.41659,0.40574,0.39437,0.4177,0.53656,0.00742,0.02438,0.99983,0.00649,-0.01714,0.0002,-3.45747,-3.45747,-1.44312,-1.44312,2.39328,2.39328,-2.52164,-2.52164,-1.5708,-1.5708,-1.88668,-1.88668,255.0,255.0
1,363,7.26,-3.45804,-1.44705,2.38337,-2.53292,-1.57159,-1.88685,0.4063,0.39486,0.41749,0.40576,0.39443,0.4176,0.53343,0.0085,0.02447,0.9999,0.00618,-0.01256,5e-05,-3.45747,-3.45747,-1.45356,-1.45356,2.38983,2.38983,-2.50775,-2.50775,-1.5708,-1.5708,-1.88667,-1.88667,255.0,255.0
1,364,7.28,-3.45793,-1.45327,2.3844,-2.51762,-1.57128,-1.88681,0.40627,0.39491,0.41798,0.40578,0.39445,0.41747,0.53017,0.00967,0.02497,0.99995,0.00598,-0.00798,-3e-05,-3.45747,-3.45747,-1.46386,-1.46386,2.38627,2.38627,-2.49389,-2.49389,-1.5708,-1.5708,-1.88667,-1.88667,255.0,255.0
1,365,7.3,-3.45774,-1.46066,2.38455,-2.50234,-1.57107,-1.88677,0.40623,0.39487,0.41809,0.40586,0.39453,0.41752,0.52749,0.01065,0.02623,0.99997,0.00663,-0.00415,-5e-05,-3.45747,-3.45747,-1.474,-1.474,2.38261,2.38261,-2.48007,-2.48007,-1.5708,-1.5708,-1.88667,-1.88667,255.0,255.0
1,366,7.32,-3.45761,-1.469,2.38345,-2.48749,-1.57096,-1.88673,0.40624,0.39489,0.41821,0.40585,0.39451,0.41742,0.52568,0.01131,0.02832,0.99997,0.00739,-0.00164,-3e-05,-3.45747,-3.45747,-1.48401,-1.48401,2.37884,2.37884,-2.46629,-2.46629,-1.5708,-1.5708,-1.88667,-1.88667,255.0,255.0
1,367,7.34,-3.45753,-1.47805,2.38112,-2.47313,-1.5709,-1.8867,0.40623,0.39489,0.41822,0.40586,0.39452,0.41742,0.52468,0.01167,0.03114,0.99997,0.00772,-0.00019,-1e-05,-3.45746,-3.45746,-1.49386,-1.49386,2.37496,2.37496,-2.45256,-2.45256,-1.5708,-1.5708,-1.88667,-1.88667,255.0,255.0
