ikatsov/phy-harness/artifacts/path_tracing/joints.csv
episode,sim_step,time_sec,shoulder_pan_joint,shoulder_lift_joint,elbow_joint,wrist_1_joint,wrist_2_joint,wrist_3_joint,left_driver_joint,left_spring_link_joint,left_follower,right_driver_joint,right_spring_link_joint,right_follower_joint,grasp_box_free.px,grasp_box_free.py,grasp_box_free.pz,grasp_box_free.qw,grasp_box_free.qx,grasp_box_free.qy,grasp_box_free.qz,target_a_shoulder_pan,ctrl_a_shoulder_pan,target_a_shoulder_lift,ctrl_a_shoulder_lift,target_a_elbow,ctrl_a_elbow,target_a_wrist_1,ctrl_a_wrist_1,target_a_wrist_2,ctrl_a_wrist_2,target_a_wrist_3,ctrl_a_wrist_3,target_a_gripper,ctrl_a_gripper
1,0,0.0,0.0,0.0,0.0,0.0,0.0,0.0,0.0,0.0,0.0,0.0,0.0,0.0,0.52171,0.00831,0.035,1.0,0.0,0.0,0.0,-1.5708,-1.5708,-1.5708,-1.5708,1.5708,1.5708,-1.5708,-1.5708,-1.5708,-1.5708,0.0,0.0,220.0,220.0
1,1,0.02,1e-05,0.00091,0.00166,0.00289,-0.00287,-0.00035,0.05165,0.05144,0.0503,0.05166,0.05148,0.05041,0.52171,0.00831,0.03284,1.0,0.0,0.0,0.0,0.00029,0.00029,-0.00254,-0.00254,0.00266,0.00266,0.00746,0.00746,-0.00735,-0.00735,-0.00084,-0.00084,220.0,220.0
1,2,0.04,0.00012,0.00167,0.00473,0.00826,-0.00812,-0.00127,0.18462,0.18442,0.18363,0.1847,0.18464,0.1837,0.52171,0.00831,0.02676,1.0,0.0,0.0,0.0,0.00051,0.00051,-0.00541,-0.00541,0.00597,0.00597,0.01636,0.01636,-0.01605,-0.01605,-0.00267,-0.00267,220.0,220.0
1,3,0.06,0.00032,0.00121,0.00814,0.01521,-0.01483,-0.00291,0.38424,0.38407,0.38365,0.38438,0.38443,0.38366,0.52171,0.00831,0.02179,1.0,0.0,-0.0,0.0,0.00071,0.00071,-0.00837,-0.00837,0.0095,0.0095,0.02559,0.02559,-0.02487,-0.02487,-0.00538,-0.00538,220.0,220.0
1,4,0.08,0.00056,-0.0004,0.0116,0.02314,-0.02235,-0.00531,0.63817,0.63803,0.63786,0.63835,0.63848,0.63782,0.52171,0.00831,0.02253,1.0,0.0,-0.0,-0.0,0.00091,0.00091,-0.01137,-0.01137,0.01318,0.01318,0.03496,0.03496,-0.03355,-0.03355,-0.00892,-0.00892,220.0,220.0
1,5,0.1,0.00082,-0.00279,0.0151,0.03169,-0.03025,-0.00847,0.83613,0.83149,0.83088,0.83626,0.83149,0.83298,0.52171,0.00831,0.0236,1.0,0.0,-0.0,-0.0,0.00111,0.00111,-0.01441,-0.01441,0.01701,0.01701,0.04441,0.04441,-0.04201,-0.04201,-0.0132,-0.0132,220.0,220.0
1,6,0.12,0.00105,-0.0056,0.01873,0.04064,-0.03829,-0.01236,0.8256,0.8242,0.82466,0.8258,0.82473,0.82481,0.52171,0.00831,0.02426,1.0,0.0,-0.0,-0.0,0.00133,0.00133,-0.01749,-0.01749,0.021,0.021,0.05397,0.05397,-0.05024,-0.05024,-0.01817,-0.01817,220.0,220.0
1,7,0.14,0.00126,-0.00863,0.02252,0.04988,-0.04631,-0.01694,0.82541,0.82396,0.82619,0.82562,0.82457,0.826,0.52171,0.00831,0.0246,1.0,0.0,-0.0,0.0,0.00155,0.00155,-0.02062,-0.02062,0.02518,0.02518,0.06363,0.06363,-0.05822,-0.05822,-0.02379,-0.02379,220.0,220.0
1,8,0.16,0.00147,-0.01177,0.02653,0.05932,-0.05421,-0.02218,0.82565,0.82405,0.82734,0.82586,0.82466,0.82715,0.52171,0.00831,0.02476,1.0,0.0,-0.0,0.0,0.00178,0.00178,-0.02381,-0.02381,0.02954,0.02954,0.07339,0.07339,-0.06594,-0.06594,-0.02999,-0.02999,220.0,220.0
1,9,0.18,0.00169,-0.01496,0.03075,0.06893,-0.06193,-0.02803,0.82566,0.82407,0.82738,0.82587,0.82466,0.8272,0.52171,0.00831,0.02483,1.0,0.0,-0.0,0.0,0.00201,0.00201,-0.02705,-0.02705,0.03411,0.03411,0.08326,0.08326,-0.07339,-0.07339,-0.03675,-0.03675,220.0,220.0
1,10,0.2,0.00192,-0.0182,0.0352,0.07868,-0.06943,-0.03445,0.82567,0.82408,0.82737,0.82587,0.82466,0.82722,0.52171,0.00831,0.02486,1.0,0.0,-0.0,0.0,0.00225,0.00225,-0.03037,-0.03037,0.0389,0.0389,0.09322,0.09322,-0.08058,-0.08058,-0.04403,-0.04403,220.0,220.0
1,11,0.22,0.00216,-0.0215,0.03988,0.08855,-0.0767,-0.04142,0.82565,0.82407,0.82735,0.82584,0.82463,0.8272,0.52171,0.00831,0.02488,1.0,0.0,0.0,0.0,0.0025,0.0025,-0.03375,-0.03375,0.04391,0.04391,0.10327,0.10327,-0.0875,-0.0875,-0.0518,-0.0518,220.0,220.0
1,12,0.24,0.0024,-0.02486,0.04478,0.09852,-0.08372,-0.0489,0.82567,0.82409,0.82736,0.82585,0.82463,0.82721,0.52171,0.00831,0.02489,1.0,0.0,0.0,0.0,0.00275,0.00275,-0.03722,-0.03722,0.04916,0.04916,0.1134,0.1134,-0.09415,-0.09415,-0.06004,-0.06004,220.0,220.0
1,13,0.26,0.00264,-0.0283,0.04993,0.10858,-0.09048,-0.05686,0.82568,0.82411,0.82737,0.82585,0.82463,0.82722,0.52171,0.00831,0.02489,1.0,0.0,0.0,0.0,0.003,0.003,-0.04076,-0.04076,0.05467,0.05467,0.1236,0.1236,-0.10054,-0.10054,-0.06871,-0.06871,220.0,220.0
1,14,0.28,0.00289,-0.03182,0.05532,0.11872,-0.09698,-0.06527,0.82567,0.8241,0.82736,0.82584,0.82461,0.82721,0.52171,0.00831,0.02489,1.0,0.0,0.0,0.0,0.00325,0.00325,-0.04439,-0.04439,0.06043,0.06043,0.13387,0.13387,-0.10666,-0.10666,-0.07779,-0.07779,220.0,220.0
1,15,0.3,0.00314,-0.03542,0.06097,0.12892,-0.10323,-0.07411,0.82568,0.82411,0.82736,0.82583,0.8246,0.82721,0.52171,0.00831,0.02489,1.0,0.0,0.0,0.0,0.00351,0.00351,-0.04811,-0.04811,0.06647,0.06647,0.14418,0.14418,-0.11253,-0.11253,-0.08727,-0.08727,220.0,220.0
1,16,0.32,0.0034,-0.03911,0.06689,0.13918,-0.10922,-0.08336,0.82568,0.82412,0.82737,0.82583,0.82459,0.82721,0.52171,0.00831,0.02489,1.0,0.0,0.0,0.0,0.00376,0.00376,-0.05193,-0.05193,0.07279,0.07279,0.15453,0.15453,-0.11813,-0.11813,-0.09712,-0.09712,220.0,220.0
1,17,0.34,0.00366,-0.04289,0.07308,0.14948,-0.11495,-0.09299,0.82569,0.82414,0.82736,0.82583,0.82458,0.82722,0.52171,0.00831,0.02489,1.0,0.0,0.0,0.0,0.00402,0.00402,-0.05586,-0.05586,0.07941,0.07941,0.16489,0.16489,-0.12349,-0.12349,-0.10733,-0.10733,220.0,220.0
1,18,0.36,0.00391,-0.04678,0.07957,0.15981,-0.12043,-0.10299,0.8257,0.82415,0.82736,0.82583,0.82458,0.82722,0.52171,0.00831,0.02489,1.0,0.0,0.0,0.0,0.00428,0.00428,-0.05989,-0.05989,0.08632,0.08632,0.17527,0.17527,-0.1286,-0.1286,-0.11787,-0.11787,220.0,220.0
1,19,0.38,0.00417,-0.05077,0.08635,0.17014,-0.12565,-0.11334,0.82571,0.82417,0.82736,0.82583,0.82457,0.82723,0.52171,0.00831,0.02489,1.0,0.0,0.0,0.0,0.00454,0.00454,-0.06403,-0.06403,0.09356,0.09356,0.18563,0.18563,-0.13345,-0.13345,-0.12874,-0.12874,220.0,220.0
1,20,0.4,0.00443,-0.05487,0.09344,0.18048,-0.13063,-0.12402,0.8257,0.82417,0.82735,0.82581,0.82455,0.82722,0.52171,0.00831,0.02489,1.0,0.0,0.0,0.0,0.0048,0.0048,-0.06829,-0.06829,0.10112,0.10112,0.19597,0.19597,-0.13807,-0.13807,-0.13991,-0.13991,220.0,220.0
1,21,0.42,0.00469,-0.05909,0.10086,0.19079,-0.13536,-0.13502,0.8257,0.82417,0.82734,0.8258,0.82453,0.82722,0.52171,0.00831,0.02489,1.0,0.0,0.0,0.0,0.00506,0.00506,-0.07268,-0.07268,0.10901,0.10901,0.20626,0.20626,-0.14244,-0.14244,-0.15138,-0.15138,220.0,220.0
1,22,0.44,0.00495,-0.06343,0.1086,0.20107,-0.13985,-0.14632,0.82572,0.8242,0.82735,0.82581,0.82454,0.82724,0.52171,0.00831,0.02489,1.0,0.0,0.0,0.0,0.00532,0.00532,-0.0772,-0.0772,0.11726,0.11726,0.21649,0.21649,-0.14656,-0.14656,-0.16312,-0.16312,220.0,220.0
1,23,0.46,0.00521,-0.0679,0.11669,0.21129,-0.14409,-0.1579,0.82572,0.8242,0.82734,0.8258,0.82452,0.82723,0.52171,0.00831,0.02489,1.0,0.0,0.0,0.0,0.00557,0.00557,-0.08185,-0.08185,0.12586,0.12586,0.22664,0.22664,-0.15045,-0.15045,-0.17512,-0.17512,220.0,220.0
1,24,0.48,0.00546,-0.0725,0.12513,0.22144,-0.14809,-0.16975,0.82571,0.8242,0.82734,0.82579,0.82451,0.82723,0.52171,0.00831,0.02489,1.0,0.0,0.0,0.0,0.00583,0.00583,-0.08665,-0.08665,0.13482,0.13482,0.23669,0.23669,-0.15408,-0.15408,-0.18737,-0.18737,220.0,220.0
1,25,0.5,0.00572,-0.07725,0.13393,0.2315,-0.15184,-0.18185,0.82572,0.82421,0.82734,0.82579,0.8245,0.82724,0.52171,0.00831,0.02489,1.0,0.0,0.0,0.0,0.00608,0.00608,-0.0916,-0.0916,0.14416,0.14416,0.24663,0.24663,-0.15748,-0.15748,-0.19985,-0.19985,220.0,220.0
1,26,0.52,0.00597,-0.08214,0.14309,0.24145,-0.15534,-0.19419,0.82573,0.82422,0.82733,0.82578,0.82449,0.82724,0.52171,0.00831,0.02489,1.0,0.0,-0.0,0.0,0.00633,0.00633,-0.0967,-0.0967,0.15388,0.15388,0.25642,0.25642,-0.16062,-0.16062,-0.21254,-0.21254,220.0,220.0
1,27,0.54,0.00622,-0.08718,0.15264,0.25128,-0.1586,-0.20675,0.82574,0.82424,0.82734,0.82578,0.82449,0.82724,0.52171,0.00831,0.02489,1.0,0.0,-0.0,0.0,0.00658,0.00658,-0.10196,-0.10196,0.16399,0.16399,0.26606,0.26606,-0.16351,-0.16351,-0.22543,-0.22543,220.0,220.0
1,28,0.56,0.00647,-0.09238,0.16257,0.26095,-0.1616,-0.21952,0.82574,0.82424,0.82733,0.82578,0.82447,0.82724,0.52171,0.00831,0.02489,1.0,0.0,-0.0,0.0,0.00682,0.00682,-0.10739,-0.10739,0.1745,0.1745,0.27552,0.27552,-0.16615,-0.16615,-0.23851,-0.23851,220.0,220.0
1,29,0.58,0.00671,-0.09774,0.17288,0.27045,-0.16435,-0.23248,0.82575,0.82426,0.82733,0.82578,0.82447,0.82725,0.52171,0.00831,0.02489,1.0,0.0,-0.0,0.0,0.00706,0.00706,-0.11299,-0.11299,0.1854,0.1854,0.28478,0.28478,-0.16852,-0.16852,-0.25175,-0.25175,220.0,220.0
1,30,0.6,0.00695,-0.10327,0.1836,0.27977,-0.16684,-0.24561,0.82575,0.82427,0.82733,0.82577,0.82445,0.82725,0.52171,0.00831,0.02489,1.0,0.0,-0.0,0.0,0.0073,0.0073,-0.11876,-0.11876,0.1967,0.1967,0.29383,0.29383,-0.17063,-0.17063,-0.26514,-0.26514,220.0,220.0
1,31,0.62,0.00719,-0.10896,0.1947,0.28888,-0.16907,-0.2589,0.82575,0.82427,0.82732,0.82576,0.82444,0.82725,0.52171,0.00831,0.02489,1.0,0.0,-0.0,0.0,0.00753,0.00753,-0.1247,-0.1247,0.2084,0.2084,0.30263,0.30263,-0.17247,-0.17247,-0.27865,-0.27865,220.0,220.0
1,32,0.64,0.00742,-0.11484,0.20621,0.29775,-0.17102,-0.27233,0.82576,0.82429,0.82732,0.82576,0.82444,0.82726,0.52171,0.00831,0.02489,1.0,0.0,-0.0,0.0,0.00775,0.00775,-0.13083,-0.13083,0.2205,0.2205,0.31118,0.31118,-0.17402,-0.17402,-0.29228,-0.29228,220.0,220.0
1,33,0.66,0.00765,-0.12089,0.2181,0.30638,-0.1727,-0.28587,0.82576,0.8243,0.82732,0.82575,0.82442,0.82726,0.52171,0.00831,0.02489,1.0,0.0,0.0,0.0,0.00797,0.00797,-0.13713,-0.13713,0.23298,0.23298,0.31944,0.31944,-0.17529,-0.17529,-0.306,-0.306,220.0,220.0
1,34,0.68,0.00787,-0.12712,0.23039,0.31475,-0.17409,-0.29951,0.82577,0.82431,0.82732,0.82576,0.82442,0.82727,0.52171,0.00831,0.02489,1.0,0.0,-0.0,0.0,0.00818,0.00818,-0.14362,-0.14362,0.24585,0.24585,0.32742,0.32742,-0.17627,-0.17627,-0.3198,-0.3198,220.0,220.0
1,35,0.7,0.00809,-0.13352,0.24306,0.32283,-0.1752,-0.31324,0.82576,0.82431,0.82731,0.82574,0.82439,0.82725,0.52171,0.00831,0.02489,1.0,0.0,-0.0,0.0,0.00839,0.00839,-0.15028,-0.15028,0.25909,0.25909,0.33508,0.33508,-0.17695,-0.17695,-0.33364,-0.33364,220.0,220.0
1,36,0.72,0.0083,-0.14011,0.25609,0.3306,-0.17601,-0.32702,0.82577,0.82432,0.82731,0.82573,0.82438,0.82725,0.52171,0.00831,0.02489,1.0,0.0,0.0,0.0,0.00859,0.00859,-0.15713,-0.15713,0.27269,0.27269,0.34242,0.34242,-0.17733,-0.17733,-0.34751,-0.34751,220.0,220.0
1,37,0.74,0.0085,-0.14687,0.26949,0.33806,-0.17652,-0.34084,0.82578,0.82434,0.82731,0.82574,0.82438,0.82727,0.52171,0.00831,0.02489,1.0,0.0,-0.0,0.0,0.00879,0.00879,-0.16414,-0.16414,0.28662,0.28662,0.34941,0.34941,-0.17739,-0.17739,-0.36139,-0.36139,220.0,220.0
1,38,0.76,0.0087,-0.15381,0.28323,0.34519,-0.17672,-0.35468,0.82578,0.82434,0.82731,0.82573,0.82437,0.82727,0.52171,0.00831,0.02489,1.0,0.0,-0.0,0.0,0.00897,0.00897,-0.17132,-0.17132,0.30087,0.30087,0.35606,0.35606,-0.17715,-0.17715,-0.37525,-0.37525,220.0,220.0
1,39,0.78,0.00888,-0.16091,0.29729,0.35198,-0.17661,-0.36851,0.82579,0.82436,0.82731,0.82573,0.82436,0.82727,0.52171,0.00831,0.02489,1.0,0.0,0.0,-0.0,0.00915,0.00915,-0.17867,-0.17867,0.31541,0.31541,0.36235,0.36235,-0.17659,-0.17659,-0.38907,-0.38907,220.0,220.0
1,40,0.8,0.00907,-0.16818,0.31165,0.35842,-0.1762,-0.38231,0.82579,0.82437,0.82731,0.82573,0.82435,0.82727,0.52171,0.00831,0.02489,1.0,0.0,0.0,-0.0,0.00933,0.00933,-0.18616,-0.18616,0.33022,0.33022,0.36828,0.36828,-0.17572,-0.17572,-0.40282,-0.40282,220.0,220.0
1,41,0.82,0.00924,-0.1756,0.32628,0.36451,-0.17547,-0.39606,0.82579,0.82437,0.8273,0.82571,0.82434,0.82727,0.52171,0.00831,0.02489,1.0,0.0,0.0,-0.0,0.00949,0.00949,-0.1938,-0.1938,0.34526,0.34526,0.37384,0.37384,-0.17453,-0.17453,-0.4165,-0.4165,220.0,220.0
1,42,0.84,0.00941,-0.18317,0.34116,0.37023,-0.17444,-0.40974,0.82581,0.82439,0.82731,0.82572,0.82434,0.82728,0.52171,0.00831,0.02489,1.0,0.0,0.0,-0.0,0.00965,0.00965,-0.20157,-0.20157,0.36051,0.36051,0.37903,0.37903,-0.17305,-0.17305,-0.43006,-0.43006,220.0,220.0
1,43,0.86,0.00958,-0.19087,0.35625,0.3756,-0.1731,-0.42332,0.8258,0.82439,0.82729,0.8257,0.82432,0.82727,0.52171,0.00831,0.02489,1.0,0.0,0.0,-0.0,0.0098,0.0098,-0.20945,-0.20945,0.37593,0.37593,0.38387,0.38387,-0.17127,-0.17127,-0.44349,-0.44349,220.0,220.0
1,44,0.88,0.00973,-0.19869,0.37152,0.3806,-0.17147,-0.43677,0.82581,0.8244,0.82729,0.82571,0.82431,0.82728,0.52171,0.00831,0.02489,1.0,0.0,-0.0,-0.0,0.00995,0.00995,-0.21744,-0.21744,0.39148,0.39148,0.38834,0.38834,-0.1692,-0.1692,-0.45677,-0.45677,220.0,220.0
1,45,0.9,0.00988,-0.20662,0.38695,0.38525,-0.16955,-0.45009,0.82582,0.82442,0.8273,0.82571,0.82431,0.8273,0.52171,0.00831,0.02489,1.0,0.0,0.0,-0.0,0.01009,0.01009,-0.22552,-0.22552,0.40713,0.40713,0.39247,0.39247,-0.16685,-0.16685,-0.46987,-0.46987,220.0,220.0
1,46,0.92,0.01003,-0.21465,0.40249,0.38955,-0.16735,-0.46324,0.82581,0.82442,0.82728,0.8257,0.82429,0.82728,0.52171,0.00831,0.02489,1.0,0.0,0.0,-0.0,0.01023,0.01023,-0.23367,-0.23367,0.42285,0.42285,0.39626,0.39626,-0.16425,-0.16425,-0.48279,-0.48279,220.0,220.0
1,47,0.94,0.01017,-0.22276,0.41811,0.39352,-0.16489,-0.47622,0.82583,0.82444,0.82729,0.8257,0.8243,0.8273,0.52171,0.00831,0.02489,1.0,0.0,0.0,-0.0,0.01036,0.01036,-0.24188,-0.24188,0.43859,0.43859,0.39973,0.39973,-0.16141,-0.16141,-0.49549,-0.49549,220.0,220.0
1,48,0.96,0.0103,-0.23093,0.43377,0.39716,-0.16219,-0.48899,0.82582,0.82443,0.82728,0.82569,0.82428,0.82729,0.52171,0.00831,0.02489,1.0,0.0,-0.0,-0.0,0.01049,0.01049,-0.25013,-0.25013,0.45434,0.45434,0.40289,0.40289,-0.15834,-0.15834,-0.50797,-0.50797,220.0,220.0
1,49,0.98,0.01044,-0.23916,0.44946,0.40049,-0.15926,-0.50155,0.82582,0.82444,0.82727,0.82569,0.82427,0.82729,0.52171,0.00831,0.02489,1.0,0.0,0.0,-0.0,0.01062,0.01062,-0.25841,-0.25841,0.47005,0.47005,0.40576,0.40576,-0.15508,-0.15508,-0.5202,-0.5202,220.0,220.0
1,50,1.0,0.01057,-0.24742,0.46512,0.40352,-0.15612,-0.51388,0.82582,0.82444,0.82727,0.82568,0.82426,0.8273,0.52171,0.00831,0.02489,1.0,0.0,-0.0,-0.0,0.01075,0.01075,-0.26671,-0.26671,0.48569,0.48569,0.40836,0.40836,-0.15164,-0.15164,-0.53219,-0.53219,220.0,220.0
1,51,1.02,0.01069,-0.25571,0.48073,0.40627,-0.15279,-0.52596,0.82582,0.82445,0.82727,0.82569,0.82427,0.8273,0.52171,0.00831,0.02489,1.0,0.0,-0.0,-0.0,0.01087,0.01087,-0.27501,-0.27501,0.50124,0.50124,0.4107,0.4107,-0.14804,-0.14804,-0.54391,-0.54391,220.0,220.0
1,52,1.04,0.01082,-0.264,0.49627,0.40876,-0.14931,-0.53779,0.82584,0.82447,0.82729,0.8257,0.82428,0.82731,0.52171,0.00831,0.02489,1.0,0.0,0.0,-0.0,0.011,0.011,-0.28329,-0.28329,0.51667,0.51667,0.41281,0.41281,-0.14431,-0.14431,-0.55535,-0.55535,220.0,220.0
1,53,1.06,0.01095,-0.27229,0.51171,0.41101,-0.14568,-0.54935,0.82583,0.82445,0.82727,0.82568,0.82426,0.8273,0.52171,0.00831,0.02489,1.0,0.0,-0.0,-0.0,0.01112,0.01112,-0.29155,-0.29155,0.53196,0.53196,0.4147,0.4147,-0.14047,-0.14047,-0.56652,-0.56652,220.0,220.0
1,54,1.08,0.01107,-0.28056,0.52702,0.41303,-0.14193,-0.56064,0.82583,0.82446,0.82727,0.82569,0.82426,0.8273,0.52171,0.00831,0.02489,1.0,0.0,-0.0,-0.0,0.01125,0.01125,-0.29977,-0.29977,0.5471,0.5471,0.41639,0.41639,-0.13656,-0.13656,-0.5774,-0.5774,220.0,220.0
1,55,1.1,0.0112,-0.2888,0.54219,0.41485,-0.13808,-0.57165,0.82584,0.82447,0.82728,0.82569,0.82427,0.82731,0.52171,0.00831,0.02489,1.0,0.0,0.0,-0.0,0.01138,0.01138,-0.30795,-0.30795,0.56205,0.56205,0.4179,0.4179,-0.13257,-0.13257,-0.588,-0.588,220.0,220.0
1,56,1.12,0.01133,-0.297,0.55719,0.41647,-0.13417,-0.58237,0.82584,0.82447,0.82728,0.82569,0.82427,0.82731,0.52171,0.00831,0.02489,1.0,0.0,-0.0,-0.0,0.01151,0.01151,-0.31607,-0.31607,0.57682,0.57682,0.41925,0.41925,-0.12855,-0.12855,-0.5983,-0.5983,220.0,220.0
1,57,1.14,0.01146,-0.30515,0.57202,0.41793,-0.1302,-0.59282,0.82583,0.82446,0.82726,0.82568,0.82425,0.82731,0.52171,0.00831,0.02489,1.0,0.0,-0.0,-0.0,0.01164,0.01164,-0.32413,-0.32413,0.59139,0.59139,0.42046,0.42046,-0.12451,-0.12451,-0.60832,-0.60832,220.0,220.0
1,58,1.16,0.01159,-0.31325,0.58665,0.41923,-0.1262,-0.60297,0.82583,0.82445,0.82727,0.82568,0.82425,0.8273,0.52171,0.00831,0.02489,1.0,0.0,0.0,-0.0,0.01178,0.01178,-0.33211,-0.33211,0.60575,0.60575,0.42153,0.42153,-0.12047,-0.12047,-0.61806,-0.61806,220.0,220.0
1,59,1.18,0.01173,-0.32128,0.60108,0.42039,-0.12219,-0.61285,0.82582,0.82445,0.82727,0.82568,0.82426,0.8273,0.52171,0.00831,0.02489,1.0,0.0,0.0,-0.0,0.01192,0.01192,-0.34003,-0.34003,0.61989,0.61989,0.42249,0.42249,-0.11645,-0.11645,-0.62751,-0.62751,220.0,220.0
1,60,1.2,0.01187,-0.32924,0.61531,0.42143,-0.11819,-0.62244,0.82583,0.82446,0.82727,0.82569,0.82426,0.82731,0.52171,0.00831,0.02489,1.0,0.0,-0.0,-0.0,0.01207,0.01207,-0.34786,-0.34786,0.63381,0.63381,0.42334,0.42334,-0.11246,-0.11246,-0.63668,-0.63668,220.0,220.0
1,61,1.22,0.01202,-0.33712,0.62932,0.42236,-0.11421,-0.63175,0.82583,0.82445,0.82727,0.82569,0.82427,0.82731,0.52171,0.00831,0.02489,1.0,0.0,0.0,-0.0,0.01222,0.01222,-0.35561,-0.35561,0.64751,0.64751,0.42411,0.42411,-0.10851,-0.10851,-0.64557,-0.64557,220.0,220.0
1,62,1.24,0.01216,-0.34493,0.64311,0.42319,-0.11027,-0.64079,0.82583,0.82446,0.82728,0.8257,0.82428,0.82731,0.52171,0.00831,0.02489,1.0,0.0,0.0,-0.0,0.01237,0.01237,-0.36328,-0.36328,0.66098,0.66098,0.4248,0.4248,-0.10463,-0.10463,-0.6542,-0.6542,220.0,220.0
1,63,1.26,0.01232,-0.35265,0.65669,0.42393,-0.10637,-0.64956,0.82582,0.82445,0.82727,0.82569,0.82427,0.82731,0.52171,0.00831,0.02489,1.0,0.0,0.0,-0.0,0.01253,0.01253,-0.37086,-0.37086,0.67423,0.67423,0.42541,0.42541,-0.10082,-0.10082,-0.66257,-0.66257,220.0,220.0
1,64,1.28,0.01247,-0.36028,0.67004,0.4246,-0.10255,-0.65806,0.82583,0.82445,0.82728,0.8257,0.82428,0.82731,0.52171,0.00831,0.02489,1.0,0.0,-0.0,-0.0,0.01269,0.01269,-0.37835,-0.37835,0.68726,0.68726,0.42597,0.42597,-0.09709,-0.09709,-0.67069,-0.67069,220.0,220.0
1,65,1.3,0.01263,-0.36784,0.68317,0.4252,-0.09879,-0.66631,0.82582,0.82444,0.82727,0.8257,0.82428,0.8273,0.52171,0.00831,0.02489,1.0,0.0,0.0,-0.0,0.01286,0.01286,-0.38575,-0.38575,0.70008,0.70008,0.42647,0.42647,-0.09344,-0.09344,-0.67856,-0.67856,220.0,220.0
1,66,1.32,0.0128,-0.3753,0.69608,0.42574,-0.09512,-0.67431,0.82583,0.82445,0.82729,0.82571,0.8243,0.82731,0.52171,0.00831,0.02489,1.0,0.0,0.0,-0.0,0.01303,0.01303,-0.39307,-0.39307,0.71267,0.71267,0.42693,0.42693,-0.08989,-0.08989,-0.68619,-0.68619,220.0,220.0
1,67,1.34,0.01297,-0.38268,0.70878,0.42623,-0.09153,-0.68207,0.82582,0.82443,0.82727,0.8257,0.82428,0.8273,0.52171,0.00831,0.02489,1.0,0.0,-0.0,0.0,0.0132,0.0132,-0.40029,-0.40029,0.72506,0.72506,0.42735,0.42735,-0.08644,-0.08644,-0.6936,-0.6936,220.0,220.0
1,68,1.36,0.01314,-0.38996,0.72127,0.42668,-0.08804,-0.6896,0.82582,0.82443,0.82728,0.8257,0.82429,0.8273,0.52171,0.00831,0.02489,1.0,0.0,0.0,0.0,0.01338,0.01338,-0.40744,-0.40744,0.73724,0.73724,0.42774,0.42774,-0.0831,-0.0831,-0.70078,-0.70078,220.0,220.0
1,69,1.38,0.01332,-0.39717,0.73355,0.42709,-0.08465,-0.69691,0.82581,0.82442,0.82727,0.8257,0.82429,0.82729,0.52171,0.00831,0.02489,1.0,0.0,-0.0,0.0,0.01356,0.01356,-0.41449,-0.41449,0.74922,0.74922,0.42809,0.42809,-0.07985,-0.07985,-0.70775,-0.70775,220.0,220.0
1,70,1.4,0.0135,-0.40429,0.74564,0.42747,-0.08137,-0.70399,0.82581,0.82442,0.82729,0.82571,0.8243,0.8273,0.52171,0.00831,0.02489,1.0,0.0,0.0,0.0,0.01375,0.01375,-0.42146,-0.42146,0.76101,0.76101,0.42843,0.42843,-0.07672,-0.07672,-0.71451,-0.71451,220.0,220.0
1,71,1.42,0.01368,-0.41132,0.75752,0.42782,-0.07819,-0.71087,0.82582,0.82443,0.82729,0.82572,0.82431,0.8273,0.52171,0.00831,0.02489,1.0,0.0,0.0,-0.0,0.01394,0.01394,-0.42836,-0.42836,0.77261,0.77261,0.42873,0.42873,-0.0737,-0.0737,-0.72109,-0.72109,220.0,220.0
1,72,1.44,0.01387,-0.41827,0.76922,0.42815,-0.07511,-0.71755,0.82581,0.82442,0.82729,0.82571,0.82431,0.8273,0.52171,0.00831,0.02489,1.0,0.0,-0.0,-0.0,0.01414,0.01414,-0.43517,-0.43517,0.78403,0.78403,0.42903,0.42903,-0.07078,-0.07078,-0.72747,-0.72747,220.0,220.0
1,73,1.46,0.01407,-0.42515,0.78072,0.42845,-0.07214,-0.72404,0.82581,0.82442,0.82729,0.82572,0.82431,0.8273,0.52171,0.00831,0.02489,1.0,0.0,0.0,-0.0,0.01434,0.01434,-0.4419,-0.4419,0.79527,0.79527,0.4293,0.4293,-0.06797,-0.06797,-0.73367,-0.73367,220.0,220.0
1,74,1.48,0.01426,-0.43194,0.79206,0.42874,-0.06928,-0.73034,0.8258,0.8244,0.82728,0.82571,0.82431,0.82729,0.52171,0.00831,0.02489,1.0,0.0,-0.0,-0.0,0.01454,0.01454,-0.44856,-0.44856,0.80634,0.80634,0.42956,0.42956,-0.06527,-0.06527,-0.7397,-0.7397,220.0,220.0
1,75,1.5,0.01446,-0.43866,0.80321,0.42901,-0.06653,-0.73647,0.82581,0.82441,0.82728,0.82572,0.82432,0.8273,0.52171,0.00831,0.02489,1.0,0.0,0.0,-0.0,0.01474,0.01474,-0.45515,-0.45515,0.81724,0.81724,0.42981,0.42981,-0.06268,-0.06268,-0.74557,-0.74557,220.0,220.0
1,76,1.52,0.01467,-0.44531,0.81421,0.42927,-0.06388,-0.74243,0.82581,0.8244,0.82729,0.82572,0.82433,0.82729,0.52171,0.00831,0.02489,1.0,0.0,-0.0,-0.0,0.01495,0.01495,-0.46167,-0.46167,0.82799,0.82799,0.43005,0.43005,-0.06019,-0.06019,-0.75128,-0.75128,220.0,220.0
1,77,1.54,0.01488,-0.45188,0.82504,0.42951,-0.06133,-0.74823,0.8258,0.82439,0.82729,0.82571,0.82432,0.82728,0.52171,0.00831,0.02489,1.0,0.0,-0.0,-0.0,0.01517,0.01517,-0.46813,-0.46813,0.83859,0.83859,0.43028,0.43028,-0.0578,-0.0578,-0.75684,-0.75684,220.0,220.0
1,78,1.56,0.01509,-0.45839,0.83571,0.42975,-0.05889,-0.75388,0.82579,0.82439,0.82728,0.82571,0.82432,0.82728,0.52171,0.00831,0.02489,1.0,0.0,-0.0,-0.0,0.01538,0.01538,-0.47452,-0.47452,0.84904,0.84904,0.4305,0.4305,-0.0555,-0.0555,-0.76226,-0.76226,220.0,220.0
1,79,1.58,0.0153,-0.46483,0.84624,0.42997,-0.05654,-0.75938,0.8258,0.82439,0.8273,0.82573,0.82434,0.82729,0.52171,0.00831,0.02489,1.0,0.0,0.0,-0.0,0.0156,0.0156,-0.48084,-0.48084,0.85935,0.85935,0.43071,0.43071,-0.0533,-0.0533,-0.76754,-0.76754,220.0,220.0
1,80,1.6,0.01552,-0.47121,0.85662,0.43019,-0.05429,-0.76474,0.82581,0.8244,0.8273,0.82573,0.82434,0.82729,0.52171,0.00831,0.02489,1.0,0.0,0.0,-0.0,0.01582,0.01582,-0.48711,-0.48711,0.86953,0.86953,0.43092,0.43092,-0.0512,-0.0512,-0.77269,-0.77269,220.0,220.0
1,81,1.62,0.01574,-0.47753,0.86687,0.4304,-0.05213,-0.76996,0.8258,0.82439,0.8273,0.82573,0.82434,0.82729,0.52171,0.00831,0.02489,1.0,0.0,0.0,-0.0,0.01604,0.01604,-0.49332,-0.49332,0.87957,0.87957,0.43112,0.43112,-0.04918,-0.04918,-0.77772,-0.77772,220.0,220.0
1,82,1.64,0.01596,-0.48379,0.87698,0.43061,-0.05007,-0.77506,0.82579,0.82438,0.82729,0.82572,0.82434,0.82727,0.52171,0.00831,0.02489,1.0,0.0,-0.0,-0.0,0.01627,0.01627,-0.49948,-0.49948,0.88949,0.88949,0.43132,0.43132,-0.04724,-0.04724,-0.78262,-0.78262,220.0,220.0
1,83,1.66,0.01618,-0.49,0.88696,0.43081,-0.04808,-0.78003,0.8258,0.82439,0.8273,0.82574,0.82435,0.82729,0.52171,0.00831,0.02489,1.0,0.0,0.0,-0.0,0.0165,0.0165,-0.50558,-0.50558,0.89929,0.89929,0.43151,0.43151,-0.04539,-0.04539,-0.78742,-0.78742,220.0,220.0
1,84,1.68,0.01641,-0.49615,0.89682,0.431,-0.04619,-0.78489,0.82579,0.82438,0.8273,0.82573,0.82435,0.82728,0.52171,0.00831,0.02489,1.0,0.0,0.0,-0.0,0.01673,0.01673,-0.51163,-0.51163,0.90897,0.90897,0.4317,0.4317,-0.04362,-0.04362,-0.7921,-0.7921,220.0,220.0
1,85,1.7,0.01664,-0.50225,0.90656,0.43119,-0.04437,-0.78963,0.82579,0.82437,0.8273,0.82573,0.82435,0.82728,0.52171,0.00831,0.02489,1.0,0.0,-0.0,-0.0,0.01696,0.01696,-0.51764,-0.51764,0.91854,0.91854,0.43189,0.43189,-0.04192,-0.04192,-0.79668,-0.79668,220.0,220.0
1,86,1.72,0.01687,-0.5083,0.91619,0.43138,-0.04263,-0.79427,0.82578,0.82437,0.82729,0.82573,0.82435,0.82728,0.52171,0.00831,0.02489,1.0,0.0,0.0,-0.0,0.0172,0.0172,-0.52359,-0.52359,0.928,0.928,0.43207,0.43207,-0.04029,-0.04029,-0.80115,-0.80115,220.0,220.0
1,87,1.74,0.01711,-0.5143,0.92571,0.43156,-0.04096,-0.7988,0.82578,0.82436,0.82729,0.82573,0.82435,0.82728,0.52171,0.00831,0.02489,1.0,0.0,0.0,-0.0,0.01744,0.01744,-0.52951,-0.52951,0.93736,0.93736,0.43225,0.43225,-0.03874,-0.03874,-0.80554,-0.80554,220.0,220.0
1,88,1.76,0.01735,-0.52026,0.93512,0.43174,-0.03936,-0.80324,0.8258,0.82438,0.82731,0.82574,0.82436,0.82729,0.52171,0.00831,0.02489,1.0,0.0,-0.0,-0.0,0.01768,0.01768,-0.53538,-0.53538,0.94662,0.94662,0.43243,0.43243,-0.03724,-0.03724,-0.80983,-0.80983,220.0,220.0
1,89,1.78,0.01759,-0.52617,0.94443,0.43192,-0.03783,-0.80758,0.82579,0.82437,0.8273,0.82574,0.82436,0.82728,0.52171,0.00831,0.02489,1.0,0.0,0.0,-0.0,0.01792,0.01792,-0.54121,-0.54121,0.95578,0.95578,0.4326,0.4326,-0.03581,-0.03581,-0.81403,-0.81403,220.0,220.0
1,90,1.8,0.01783,-0.53205,0.95364,0.4321,-0.03637,-0.81183,0.82579,0.82437,0.82731,0.82575,0.82437,0.82728,0.52171,0.00831,0.02489,1.0,0.0,-0.0,-0.0,0.01816,0.01816,-0.54701,-0.54701,0.96485,0.96485,0.43277,0.43277,-0.03444,-0.03444,-0.81814,-0.81814,220.0,220.0
1,91,1.82,0.01807,-0.53788,0.96275,0.43227,-0.03496,-0.81599,0.82579,0.82437,0.82731,0.82574,0.82437,0.82728,0.52171,0.00831,0.02489,1.0,0.0,-0.0,-0.0,0.01841,0.01841,-0.55276,-0.55276,0.97383,0.97383,0.43294,0.43294,-0.03313,-0.03313,-0.82218,-0.82218,220.0,220.0
1,92,1.84,0.01832,-0.54367,0.97178,0.43244,-0.03361,-0.82007,0.82578,0.82435,0.8273,0.82573,0.82436,0.82727,0.52171,0.00831,0.02489,1.0,0.0,0.0,-0.0,0.01866,0.01866,-0.55848,-0.55848,0.98272,0.98272,0.43311,0.43311,-0.03186,-0.03186,-0.82614,-0.82614,220.0,220.0
1,93,1.86,0.01856,-0.54943,0.98071,0.43261,-0.03232,-0.82407,0.82578,0.82436,0.82731,0.82574,0.82437,0.82727,0.52171,0.00831,0.02489,1.0,0.0,-0.0,-0.0,0.01891,0.01891,-0.56417,-0.56417,0.99153,0.99153,0.43327,0.43327,-0.03065,-0.03065,-0.83002,-0.83002,220.0,220.0
1,94,1.88,0.01881,-0.55516,0.98956,0.43277,-0.03108,-0.828,0.82579,0.82436,0.82731,0.82574,0.82437,0.82727,0.52171,0.00831,0.02489,1.0,0.0,0.0,-0.0,0.01916,0.01916,-0.56983,-0.56983,1.00025,1.00025,0.43344,0.43344,-0.02949,-0.02949,-0.83382,-0.83382,220.0,220.0
1,95,1.9,0.01907,-0.56085,0.99833,0.43294,-0.02988,-0.83185,0.82579,0.82436,0.82732,0.82575,0.82437,0.82728,0.52171,0.00831,0.02489,1.0,0.0,-0.0,-0.0,0.01942,0.01942,-0.57545,-0.57545,1.0089,1.0089,0.4336,0.4336,-0.02837,-0.02837,-0.83756,-0.83756,220.0,220.0
1,96,1.92,0.01932,-0.56651,1.00701,0.4331,-0.02874,-0.83562,0.82578,0.82435,0.82731,0.82574,0.82437,0.82727,0.52171,0.00831,0.02489,1.0,0.0,-0.0,-0.0,0.01968,0.01968,-0.58104,-0.58104,1.01747,1.01747,0.43376,0.43376,-0.0273,-0.0273,-0.84123,-0.84123,220.0,220.0
1,97,1.94,0.01958,-0.57214,1.01562,0.43326,-0.02764,-0.83933,0.82578,0.82435,0.82731,0.82574,0.82437,0.82727,0.52171,0.00831,0.02489,1.0,0.0,0.0,-0.0,0.01994,0.01994,-0.58661,-0.58661,1.02596,1.02596,0.43392,0.43392,-0.02626,-0.02626,-0.84484,-0.84484,220.0,220.0
1,98,1.96,0.01984,-0.57774,1.02415,0.43342,-0.02658,-0.84297,0.82579,0.82436,0.82732,0.82575,0.82438,0.82727,0.52171,0.00831,0.02489,1.0,0.0,-0.0,-0.0,0.0202,0.0202,-0.59215,-0.59215,1.03438,1.03438,0.43408,0.43408,-0.02527,-0.02527,-0.84838,-0.84838,220.0,220.0
1,99,1.98,0.0201,-0.58331,1.03261,0.43358,-0.02556,-0.84655,0.82578,0.82435,0.82731,0.82574,0.82437,0.82726,0.52171,0.00831,0.02489,1.0,0.0,0.0,-0.0,0.02046,0.02046,-0.59766,-0.59766,1.04274,1.04274,0.43424,0.43424,-0.02431,-0.02431,-0.85186,-0.85186,220.0,220.0
1,100,2.0,0.02036,-0.58886,1.04099,0.43374,-0.02458,-0.85006,0.82577,0.82434,0.82731,0.82574,0.82437,0.82726,0.52171,0.00831,0.02489,1.0,0.0,-0.0,-0.0,0.02072,0.02072,-0.60315,-0.60315,1.05102,1.05102,0.4344,0.4344,-0.02338,-0.02338,-0.85528,-0.85528,220.0,220.0
1,101,2.02,0.02062,-0.59438,1.04931,0.43389,-0.02363,-0.85352,0.82578,0.82435,0.82732,0.82575,0.82438,0.82727,0.52171,0.00831,0.02489,1.0,0.0,-0.0,-0.0,0.02099,0.02099,-0.60861,-0.60861,1.05924,1.05924,0.43455,0.43455,-0.02249,-0.02249,-0.85865,-0.85865,220.0,220.0
1,102,2.04,0.02089,-0.59987,1.05756,0.43405,-0.02272,-0.85691,0.82578,0.82435,0.82732,0.82575,0.82438,0.82727,0.52171,0.00831,0.02489,1.0,0.0,0.0,-0.0,0.02126,0.02126,-0.61405,-0.61405,1.06739,1.06739,0.43471,0.43471,-0.02163,-0.02163,-0.86196,-0.86196,220.0,220.0
1,103,2.06,0.02115,-0.60534,1.06574,0.43421,-0.02184,-0.86025,0.82578,0.82434,0.82731,0.82574,0.82438,0.82726,0.52171,0.00831,0.02489,1.0,0.0,0.0,-0.0,0.02153,0.02153,-0.61947,-0.61947,1.07548,1.07548,0.43487,0.43487,-0.0208,-0.0208,-0.86521,-0.86521,220.0,220.0
1,104,2.08,0.02142,-0.61079,1.07386,0.43436,-0.02099,-0.86353,0.82578,0.82435,0.82732,0.82575,0.82438,0.82727,0.52171,0.00831,0.02489,1.0,0.0,0.0,-0.0,0.0218,0.0218,-0.62486,-0.62486,1.08351,1.08351,0.43502,0.43502,-0.02,-0.02,-0.86841,-0.86841,220.0,220.0
1,105,2.1,0.0217,-0.61622,1.08192,0.43452,-0.02017,-0.86676,0.82576,0.82433,0.8273,0.82573,0.82436,0.82725,0.52171,0.00831,0.02489,1.0,0.0,-0.0,-0.0,0.02208,0.02208,-0.63024,-0.63024,1.09148,1.09148,0.43518,0.43518,-0.01922,-0.01922,-0.87156,-0.87156,220.0,220.0
1,106,2.12,0.02197,-0.62163,1.08992,0.43467,-0.01938,-0.86994,0.82577,0.82434,0.82731,0.82574,0.82438,0.82726,0.52171,0.00831,0.02489,1.0,0.0,-0.0,-0.0,0.02235,0.02235,-0.63559,-0.63559,1.09939,1.09939,0.43534,0.43534,-0.01847,-0.01847,-0.87466,-0.87466,220.0,220.0
1,107,2.14,0.02225,-0.62701,1.09785,0.43483,-0.01861,-0.87307,0.82577,0.82434,0.82731,0.82574,0.82437,0.82726,0.52171,0.00831,0.02489,1.0,0.0,0.0,-0.0,0.02263,0.02263,-0.64093,-0.64093,1.10724,1.10724,0.43549,0.43549,-0.01774,-0.01774,-0.87772,-0.87772,220.0,220.0
1,108,2.16,0.02252,-0.63238,1.10573,0.43499,-0.01787,-0.87615,0.82578,0.82434,0.82732,0.82575,0.82438,0.82726,0.52171,0.00831,0.02489,1.0,0.0,-0.0,-0.0,0.02291,0.02291,-0.64625,-0.64625,1.11504,1.11504,0.43565,0.43565,-0.01703,-0.01703,-0.88072,-0.88072,220.0,220.0
1,109,2.18,0.0228,-0.63773,1.11355,0.43514,-0.01715,-0.87918,0.82577,0.82434,0.82732,0.82575,0.82438,0.82726,0.52171,0.00831,0.02489,1.0,0.0,0.0,-0.0,0.02319,0.02319,-0.65155,-0.65155,1.12278,1.12278,0.43581,0.43581,-0.01635,-0.01635,-0.88368,-0.88368,220.0,220.0
1,110,2.2,0.02308,-0.64306,1.12132,0.4353,-0.01645,-0.88216,0.82578,0.82434,0.82732,0.82575,0.82439,0.82726,0.52171,0.00831,0.02489,1.0,0.0,-0.0,-0.0,0.02348,0.02348,-0.65684,-0.65684,1.13046,1.13046,0.43597,0.43597,-0.01568,-0.01568,-0.8866,-0.8866,220.0,220.0
1,111,2.22,0.02337,-0.64837,1.12903,0.43546,-0.01578,-0.8851,0.82578,0.82435,0.82732,0.82575,0.82439,0.82727,0.52171,0.00831,0.02489,1.0,0.0,-0.0,-0.0,0.02376,0.02376,-0.66211,-0.66211,1.1381,1.1381,0.43613,0.43613,-0.01504,-0.01504,-0.88947,-0.88947,220.0,220.0
1,112,2.24,0.02365,-0.65367,1.13669,0.43562,-0.01512,-0.888,0.82576,0.82433,0.82731,0.82574,0.82437,0.82725,0.52171,0.00831,0.02489,1.0,0.0,-0.0,-0.0,0.02405,0.02405,-0.66736,-0.66736,1.14568,1.14568,0.43629,0.43629,-0.01441,-0.01441,-0.8923,-0.8923,220.0,220.0
1,113,2.26,0.02394,-0.65895,1.1443,0.43578,-0.01448,-0.89085,0.82577,0.82434,0.82732,0.82575,0.82438,0.82726,0.52171,0.00831,0.02489,1.0,0.0,-0.0,-0.0,0.02434,0.02434,-0.6726,-0.6726,1.15321,1.15321,0.43646,0.43646,-0.0138,-0.0138,-0.89508,-0.89508,220.0,220.0
1,114,2.28,0.02423,-0.66422,1.15185,0.43595,-0.01386,-0.89366,0.82577,0.82433,0.82731,0.82574,0.82438,0.82725,0.52171,0.00831,0.02489,1.0,0.0,-0.0,-0.0,0.02463,0.02463,-0.67782,-0.67782,1.1607,1.1607,0.43662,0.43662,-0.01321,-0.01321,-0.89783,-0.89783,220.0,220.0
1,115,2.3,0.02452,-0.66947,1.15935,0.43611,-0.01326,-0.89642,0.82578,0.82434,0.82732,0.82575,0.82439,0.82727,0.52171,0.00831,0.02489,1.0,0.0,-0.0,-0.0,0.02493,0.02493,-0.68303,-0.68303,1.16813,1.16813,0.43679,0.43679,-0.01263,-0.01263,-0.90053,-0.90053,220.0,220.0
1,116,2.32,0.02481,-0.67471,1.16681,0.43628,-0.01267,-0.89915,0.82577,0.82433,0.82732,0.82575,0.82438,0.82726,0.52171,0.00831,0.02489,1.0,0.0,-0.0,-0.0,0.02522,0.02522,-0.68823,-0.68823,1.17551,1.17551,0.43696,0.43696,-0.01206,-0.01206,-0.9032,-0.9032,220.0,220.0
1,117,2.34,0.02511,-0.67993,1.17422,0.43645,-0.01209,-0.90184,0.82577,0.82434,0.82732,0.82575,0.82439,0.82726,0.52171,0.00831,0.02489,1.0,0.0,-0.0,-0.0,0.02552,0.02552,-0.69341,-0.69341,1.18285,1.18285,0.43713,0.43713,-0.01151,-0.01151,-0.90583,-0.90583,220.0,220.0
1,118,2.36,0.02541,-0.68514,1.18158,0.43662,-0.01153,-0.90448,0.82577,0.82433,0.82732,0.82574,0.82438,0.82725,0.52171,0.00831,0.02489,1.0,0.0,0.0,-0.0,0.02582,0.02582,-0.69859,-0.69859,1.19015,1.19015,0.43731,0.43731,-0.01098,-0.01098,-0.90842,-0.90842,220.0,220.0
1,119,2.38,0.0257,-0.69034,1.18889,0.43679,-0.01099,-0.90709,0.82577,0.82433,0.82732,0.82575,0.82438,0.82726,0.52171,0.00831,0.02489,1.0,0.0,-0.0,-0.0,0.02612,0.02612,-0.70375,-0.70375,1.19739,1.19739,0.43749,0.43749,-0.01045,-0.01045,-0.91097,-0.91097,220.0,220.0
1,120,2.4,0.02601,-0.69553,1.19616,0.43697,-0.01046,-0.90967,0.82577,0.82434,0.82732,0.82575,0.82439,0.82726,0.52171,0.00831,0.02489,1.0,0.0,0.0,-0.0,0.02643,0.02643,-0.7089,-0.7089,1.20459,1.20459,0.43767,0.43767,-0.00994,-0.00994,-0.91349,-0.91349,220.0,220.0
1,121,2.42,0.02631,-0.7007,1.20338,0.43714,-0.00994,-0.9122,0.82578,0.82435,0.82733,0.82576,0.8244,0.82727,0.52171,0.00831,0.02489,1.0,0.0,-0.0,-0.0,0.02674,0.02674,-0.71403,-0.71403,1.21175,1.21175,0.43785,0.43785,-0.00944,-0.00944,-0.91597,-0.91597,220.0,220.0
1,122,2.44,0.02661,-0.70587,1.21055,0.43732,-0.00943,-0.9147,0.82578,0.82435,0.82733,0.82576,0.8244,0.82727,0.52171,0.00831,0.02489,1.0,0.0,-0.0,-0.0,0.02704,0.02704,-0.71916,-0.71916,1.21886,1.21886,0.43804,0.43804,-0.00895,-0.00895,-0.91842,-0.91842,220.0,220.0
1,123,2.46,0.02692,-0.71102,1.21769,0.43751,-0.00893,-0.91717,0.82578,0.82434,0.82733,0.82576,0.8244,0.82727,0.52171,0.00831,0.02489,1.0,0.0,0.0,-0.0,0.02735,0.02735,-0.72428,-0.72428,1.22593,1.22593,0.43823,0.43823,-0.00847,-0.00847,-0.92083,-0.92083,220.0,220.0
1,124,2.48,0.02723,-0.71616,1.22477,0.4377,-0.00845,-0.9196,0.82577,0.82433,0.82732,0.82575,0.82438,0.82725,0.52171,0.00831,0.02489,1.0,0.0,-0.0,-0.0,0.02767,0.02767,-0.72938,-0.72938,1.23296,1.23296,0.43842,0.43842,-0.008,-0.008,-0.92321,-0.92321,220.0,220.0
1,125,2.5,0.02754,-0.7213,1.23182,0.43789,-0.00797,-0.92199,0.82577,0.82434,0.82732,0.82575,0.82439,0.82726,0.52171,0.00831,0.02489,1.0,0.0,0.0,-0.0,0.02798,0.02798,-0.73448,-0.73448,1.23995,1.23995,0.43862,0.43862,-0.00754,-0.00754,-0.92555,-0.92555,220.0,220.0
1,126,2.52,0.02779,-0.728,1.24428,0.43896,-0.00883,-0.92492,0.82578,0.82435,0.8273,0.82575,0.82438,0.82729,0.52171,0.00831,0.02489,1.0,0.0,-0.0,-0.0,0.02853,0.02853,-0.74335,-0.74335,1.26133,1.26133,0.44112,0.44112,-0.01048,-0.01048,-0.92927,-0.92927,220.0,220.0
1,127,2.54,0.02814,-0.73585,1.26095,0.44022,-0.01048,-0.92864,0.82575,0.82431,0.82727,0.82574,0.82439,0.82728,0.52171,0.00831,0.02489,1.0,0.0,-0.0,-0.0,0.02889,0.02889,-0.75293,-0.75293,1.28389,1.28389,0.44258,0.44258,-0.01327,-0.01327,-0.93419,-0.93419,220.0,220.0
1,128,2.56,0.02854,-0.74447,1.28016,0.44113,-0.01244,-0.93321,0.82575,0.82429,0.82728,0.82575,0.82441,0.82728,0.52171,0.00831,0.02489,1.0,0.0,-0.0,-0.0,0.02923,0.02923,-0.76278,-0.76278,1.30661,1.30661,0.44294,0.44294,-0.01564,-0.01564,-0.94003,-0.94003,220.0,220.0
1,129,2.58,0.02895,-0.75366,1.30085,0.44147,-0.0144,-0.93857,0.82577,0.8243,0.82731,0.82577,0.82445,0.82729,0.52171,0.00831,0.02489,1.0,0.0,0.0,-0.0,0.02958,0.02958,-0.77279,-0.77279,1.32933,1.32933,0.44241,0.44241,-0.01759,-0.01759,-0.94658,-0.94658,220.0,220.0
1,130,2.6,0.02935,-0.76324,1.32236,0.44117,-0.01621,-0.94463,0.82575,0.82427,0.82729,0.82575,0.82443,0.82726,0.52171,0.00831,0.02489,1.0,0.0,-0.0,-0.0,0.02993,0.02993,-0.78292,-0.78292,1.352,1.352,0.44114,0.44114,-0.01918,-0.01918,-0.95366,-0.95366,220.0,220.0
1,131,2.62,0.02974,-0.77311,1.34432,0.44024,-0.0178,-0.95125,0.82576,0.82428,0.8273,0.82576,0.82444,0.82727,0.52171,0.00831,0.02489,1.0,0.0,0.0,-0.0,0.03029,0.03029,-0.79314,-0.79314,1.37458,1.37458,0.43929,0.43929,-0.02042,-0.02042,-0.96112,-0.96112,220.0,220.0
1,132,2.64,0.03013,-0.78316,1.36648,0.43876,-0.01913,-0.95832,0.82578,0.8243,0.82732,0.82577,0.82445,0.82728,0.52171,0.00831,0.02489,1.0,0.0,0.0,-0.0,0.03065,0.03065,-0.8034,-0.8034,1.39703,1.39703,0.43698,0.43698,-0.02137,-0.02137,-0.96886,-0.96886,220.0,220.0
1,133,2.66,0.03051,-0.79334,1.38869,0.43679,-0.0202,-0.96574,0.82576,0.82429,0.8273,0.82575,0.82442,0.82727,0.52171,0.00831,0.02489,1.0,0.0,0.0,-0.0,0.03102,0.03102,-0.81369,-0.81369,1.41934,1.41934,0.4343,0.4343,-0.02206,-0.02206,-0.97677,-0.97677,220.0,220.0
1,134,2.68,0.03089,-0.80359,1.41088,0.43442,-0.02102,-0.9734,0.82576,0.82429,0.8273,0.82575,0.82442,0.82726,0.52171,0.00831,0.02489,1.0,0.0,-0.0,-0.0,0.0314,0.0314,-0.82398,-0.82398,1.44149,1.44149,0.43134,0.43134,-0.02251,-0.02251,-0.98479,-0.98479,220.0,220.0
1,135,2.7,0.03128,-0.81389,1.43297,0.43172,-0.02161,-0.98122,0.82577,0.8243,0.8273,0.82575,0.82442,0.82727,0.52171,0.00831,0.02489,1.0,0.0,-0.0,-0.0,0.03179,0.03179,-0.83426,-0.83426,1.46346,1.46346,0.42815,0.42815,-0.02277,-0.02277,-0.99287,-0.99287,220.0,220.0
1,136,2.72,0.03167,-0.82419,1.45493,0.42875,-0.022,-0.98916,0.82577,0.82431,0.82731,0.82575,0.82442,0.82728,0.52171,0.00831,0.02489,1.0,0.0,-0.0,-0.0,0.03219,0.03219,-0.84452,-0.84452,1.48525,1.48525,0.42479,0.42479,-0.02286,-0.02286,-1.00096,-1.00096,220.0,220.0
1,137,2.74,0.03207,-0.83448,1.47674,0.42556,-0.02221,-0.99715,0.82577,0.82431,0.8273,0.82575,0.82441,0.82727,0.52171,0.00831,0.02489,1.0,0.0,0.0,-0.0,0.03259,0.03259,-0.85474,-0.85474,1.50685,1.50685,0.42129,0.42129,-0.02279,-0.02279,-1.00903,-1.00903,220.0,220.0
1,138,2.76,0.03247,-0.84476,1.49838,0.42221,-0.02225,-1.00515,0.82577,0.82431,0.8273,0.82574,0.8244,0.82727,0.52171,0.00831,0.02489,1.0,0.0,-0.0,-0.0,0.03301,0.03301,-0.86491,-0.86491,1.52826,1.52826,0.41771,0.41771,-0.02261,-0.02261,-1.01705,-1.01705,220.0,220.0
1,139,2.78,0.03289,-0.85499,1.51984,0.41874,-0.02216,-1.01314,0.82577,0.82431,0.82729,0.82574,0.8244,0.82727,0.52171,0.00831,0.02489,1.0,0.0,-0.0,-0.0,0.03344,0.03344,-0.87503,-0.87503,1.54948,1.54948,0.41404,0.41404,-0.02231,-0.02231,-1.025,-1.025,220.0,220.0
1,140,2.8,0.03331,-0.86518,1.54113,0.41517,-0.02195,-1.02108,0.82579,0.82433,0.82731,0.82576,0.82441,0.82729,0.52171,0.00831,0.02489,1.0,0.0,0.0,-0.0,0.03387,0.03387,-0.88509,-0.88509,1.57052,1.57052,0.41033,0.41033,-0.02193,-0.02193,-1.03288,-1.03288,220.0,220.0
1,141,2.82,0.03375,-0.87532,1.56222,0.41152,-0.02164,-1.02896,0.82578,0.82433,0.82731,0.82575,0.8244,0.82728,0.52171,0.00831,0.02489,1.0,0.0,0.0,-0.0,0.03432,0.03432,-0.8951,-0.8951,1.59136,1.59136,0.40659,0.40659,-0.02147,-0.02147,-1.04068,-1.04068,220.0,220.0
1,142,2.84,0.03419,-0.88541,1.58314,0.40783,-0.02124,-1.03677,0.82579,0.82433,0.82731,0.82575,0.8244,0.82728,0.52171,0.00831,0.02489,1.0,0.0,0.0,-0.0,0.03478,0.03478,-0.90504,-0.90504,1.61202,1.61202,0.40282,0.40282,-0.02095,-0.02095,-1.04837,-1.04837,220.0,220.0
1,143,2.86,0.03465,-0.89543,1.60386,0.4041,-0.02078,-1.0445,0.82577,0.82432,0.82729,0.82574,0.82439,0.82727,0.52171,0.00831,0.02489,1.0,0.0,0.0,-0.0,0.03525,0.03525,-0.91492,-0.91492,1.63249,1.63249,0.39904,0.39904,-0.02038,-0.02038,-1.05597,-1.05597,220.0,220.0
1,144,2.88,0.03512,-0.9054,1.62441,0.40034,-0.02025,-1.05213,0.82578,0.82433,0.8273,0.82574,0.82439,0.82728,0.52171,0.00831,0.02489,1.0,0.0,-0.0,-0.0,0.03574,0.03574,-0.92473,-0.92473,1.65279,1.65279,0.39525,0.39525,-0.01977,-0.01977,-1.06347,-1.06347,220.0,220.0
1,145,2.9,0.0356,-0.9153,1.64478,0.39657,-0.01968,-1.05967,0.82579,0.82434,0.82731,0.82575,0.8244,0.82728,0.52171,0.00831,0.02489,1.0,0.0,-0.0,0.0,0.03624,0.03624,-0.93448,-0.93448,1.67291,1.67291,0.39147,0.39147,-0.01913,-0.01913,-1.07087,-1.07087,220.0,220.0
1,146,2.92,0.0361,-0.92513,1.66497,0.3928,-0.01907,-1.06711,0.82578,0.82433,0.8273,0.82574,0.82438,0.82727,0.52171,0.00831,0.02489,1.0,0.0,0.0,0.0,0.03676,0.03676,-0.94416,-0.94416,1.69286,1.69286,0.38769,0.38769,-0.01846,-0.01846,-1.07816,-1.07816,220.0,220.0
1,147,2.94,0.03661,-0.9349,1.68499,0.38903,-0.01843,-1.07445,0.82578,0.82433,0.8273,0.82574,0.82438,0.82727,0.52171,0.00831,0.02489,1.0,0.0,-0.0,0.0,0.03729,0.03729,-0.95378,-0.95378,1.71265,1.71265,0.38392,0.38392,-0.01778,-0.01778,-1.08536,-1.08536,220.0,220.0
1,148,2.96,0.03713,-0.94461,1.70484,0.38526,-0.01777,-1.0817,0.82578,0.82433,0.8273,0.82574,0.82438,0.82728,0.52171,0.00831,0.02489,1.0,0.0,0.0,-0.0,0.03783,0.03783,-0.96333,-0.96333,1.73227,1.73227,0.38016,0.38016,-0.01708,-0.01708,-1.09246,-1.09246,220.0,220.0
1,149,2.98,0.03489,-0.95373,1.72304,0.38136,-0.01697,-1.08871,0.82576,0.8243,0.82728,0.82574,0.8244,0.82727,0.52171,0.00831,0.02489,1.0,0.0,0.0,-0.0,0.02988,0.02988,-0.97117,-0.97117,1.74753,1.74753,0.37597,0.37597,-0.01602,-0.01602,-1.09912,-1.09912,220.0,220.0
1,150,3.0,0.02779,-0.96177,1.73865,0.37731,-0.01614,-1.09532,0.82578,0.82432,0.8273,0.82576,0.82442,0.8273,0.52171,0.00831,0.02489,1.0,0.0,0.0,-0.0,0.01501,0.01501,-0.97739,-0.97739,1.75916,1.75916,0.3717,0.3717,-0.01513,-0.01513,-1.10514,-1.10514,220.0,220.0
1,151,3.02,0.01703,-0.96885,1.75234,0.37332,-0.01556,-1.1015,0.82578,0.82433,0.82729,0.82574,0.82438,0.82728,0.52171,0.00831,0.02489,1.0,0.0,-0.0,-0.0,-0.00012,-0.00012,-0.98319,-0.98319,1.77036,1.77036,0.36784,0.36784,-0.01498,-0.01498,-1.11065,-1.11065,220.0,220.0
1,152,3.04,0.00419,-0.97523,1.7648,0.36949,-0.01541,-1.10724,0.82579,0.82435,0.8273,0.82574,0.82437,0.82728,0.52171,0.00831,0.02489,1.0,0.0,0.0,0.0,-0.01538,-0.01538,-0.98863,-0.98863,1.78121,1.78121,0.36428,0.36428,-0.0155,-0.0155,-1.11575,-1.11575,220.0,220.0
1,153,3.06,-0.00983,-0.98106,1.77641,0.36585,-0.01576,-1.11258,0.82579,0.82436,0.82729,0.82573,0.82436,0.82728,0.52171,0.00831,0.02489,1.0,0.0,0.0,-0.0,-0.03075,-0.03075,-0.99374,-0.99374,1.79173,1.79173,0.36096,0.36096,-0.01662,-0.01662,-1.1205,-1.1205,220.0,220.0
1,154,3.08,-0.02452,-0.98648,1.78743,0.36242,-0.01663,-1.11756,0.82579,0.82436,0.8273,0.82574,0.82437,0.82728,0.52171,0.00831,0.02489,1.0,0.0,-0.0,0.0,-0.04624,-0.04624,-0.99856,-0.99856,1.80192,1.80192,0.35782,0.35782,-0.01826,-0.01826,-1.12495,-1.12495,220.0,220.0
1,155,3.1,-0.03962,-0.99154,1.79796,0.35915,-0.018,-1.12223,0.82578,0.82435,0.82729,0.82573,0.82435,0.82727,0.52171,0.00831,0.02489,1.0,0.0,0.0,-0.0,-0.06184,-0.06184,-1.0031,-1.0031,1.8118,1.8118,0.35481,0.35481,-0.02037,-0.02037,-1.12915,-1.12915,220.0,220.0
1,156,3.12,-0.05498,-0.9963,1.8081,0.35602,-0.01983,-1.12662,0.82579,0.82436,0.82731,0.82575,0.82437,0.82728,0.52171,0.00831,0.02489,1.0,0.0,-0.0,0.0,-0.07755,-0.07755,-1.00739,-1.00739,1.82138,1.82138,0.3519,0.3519,-0.02289,-0.02289,-1.13312,-1.13312,220.0,220.0
1,157,3.14,-0.07054,-1.00077,1.81788,0.353,-0.02209,-1.13075,0.82578,0.82434,0.8273,0.82574,0.82437,0.82727,0.52171,0.00831,0.02489,1.0,0.0,-0.0,0.0,-0.09336,-0.09336,-1.01145,-1.01145,1.83066,1.83066,0.34904,0.34904,-0.02579,-0.02579,-1.13689,-1.13689,220.0,220.0
1,158,3.16,-0.08624,-1.005,1.82734,0.35006,-0.02474,-1.13466,0.82579,0.82435,0.82732,0.82576,0.82439,0.82728,0.52171,0.00831,0.02489,1.0,0.0,0.0,0.0,-0.10926,-0.10926,-1.01529,-1.01529,1.83965,1.83965,0.34621,0.34621,-0.02901,-0.02901,-1.14045,-1.14045,220.0,220.0
1,159,3.18,-0.10206,-1.00899,1.83648,0.34717,-0.02774,-1.13835,0.82578,0.82434,0.82731,0.82575,0.82439,0.82726,0.52171,0.00831,0.02489,1.0,0.0,-0.0,0.0,-0.12525,-0.12525,-1.01892,-1.01892,1.84834,1.84834,0.3434,0.3434,-0.03253,-0.03253,-1.14382,-1.14382,220.0,220.0
1,160,3.2,-0.11799,-1.01277,1.84532,0.34431,-0.03106,-1.14184,0.82578,0.82434,0.82732,0.82575,0.82439,0.82726,0.52171,0.00831,0.02489,1.0,0.0,-0.0,0.0,-0.14132,-0.14132,-1.02235,-1.02235,1.85675,1.85675,0.34058,0.34058,-0.03632,-0.03632,-1.14701,-1.14701,220.0,220.0
1,161,3.22,-0.134,-1.01634,1.85386,0.34146,-0.03466,-1.14512,0.82576,0.82432,0.8273,0.82574,0.82437,0.82725,0.52171,0.00831,0.02489,1.0,0.0,0.0,0.0,-0.15747,-0.15747,-1.02561,-1.02561,1.86487,1.86487,0.33774,0.33774,-0.04035,-0.04035,-1.15,-1.15,220.0,220.0
1,162,3.24,-0.1501,-1.01972,1.86211,0.33859,-0.03852,-1.14822,0.82576,0.82432,0.8273,0.82574,0.82438,0.82725,0.52171,0.00831,0.02489,1.0,0.0,-0.0,0.0,-0.17368,-0.17368,-1.02868,-1.02868,1.87269,1.87269,0.33486,0.33486,-0.04458,-0.04458,-1.1528,-1.1528,220.0,220.0
1,163,3.26,-0.16626,-1.02291,1.87007,0.3357,-0.04261,-1.15111,0.82576,0.82432,0.8273,0.82574,0.82438,0.82725,0.52171,0.00831,0.02489,1.0,0.0,0.0,0.0,-0.18995,-0.18995,-1.03159,-1.03159,1.88023,1.88023,0.33193,0.33193,-0.04902,-0.04902,-1.1554,-1.1554,220.0,220.0
1,164,3.28,-0.18249,-1.02593,1.87773,0.33277,-0.04691,-1.1538,0.82577,0.82433,0.82732,0.82576,0.8244,0.82726,0.52171,0.00831,0.02489,1.0,0.0,0.0,0.0,-0.20627,-0.20627,-1.03433,-1.03433,1.88748,1.88748,0.32894,0.32894,-0.05363,-0.05363,-1.15779,-1.15779,220.0,220.0
1,165,3.3,-0.19878,-1.02878,1.8851,0.32978,-0.0514,-1.15628,0.82577,0.82432,0.82732,0.82575,0.8244,0.82725,0.52171,0.00831,0.02489,1.0,0.0,-0.0,0.0,-0.22263,-0.22263,-1.03691,-1.03691,1.89443,1.89443,0.32587,0.32587,-0.05841,-0.05841,-1.15995,-1.15995,220.0,220.0
1,166,3.32,-0.21511,-1.03147,1.89218,0.32673,-0.05607,-1.15854,0.82578,0.82432,0.82733,0.82576,0.8244,0.82725,0.52171,0.00831,0.02489,1.0,0.0,-0.0,-0.0,-0.23903,-0.23903,-1.03935,-1.03935,1.90108,1.90108,0.32272,0.32272,-0.06334,-0.06334,-1.16189,-1.16189,220.0,220.0
1,167,3.34,-0.23147,-1.034,1.89896,0.32359,-0.0609,-1.16057,0.82577,0.82433,0.82733,0.82576,0.82441,0.82725,0.52171,0.00831,0.02489,1.0,0.0,-0.0,-0.0,-0.25546,-0.25546,-1.04163,-1.04163,1.90744,1.90744,0.31947,0.31947,-0.06841,-0.06841,-1.16359,-1.16359,220.0,220.0
1,168,3.36,-0.24787,-1.03638,1.90545,0.32037,-0.06589,-1.16237,0.82577,0.82432,0.82732,0.82576,0.8244,0.82725,0.52171,0.00831,0.02489,1.0,0.0,0.0,-0.0,-0.2719,-0.2719,-1.04377,-1.04377,1.9135,1.9135,0.31612,0.31612,-0.07362,-0.07362,-1.16503,-1.16503,220.0,220.0
1,169,3.38,-0.26429,-1.03861,1.91163,0.31705,-0.07102,-1.16392,0.82577,0.82432,0.82732,0.82576,0.8244,0.82725,0.52171,0.00831,0.02489,1.0,0.0,-0.0,-0.0,-0.28834,-0.28834,-1.04578,-1.04578,1.91924,1.91924,0.31265,0.31265,-0.07896,-0.07896,-1.1662,-1.1662,220.0,220.0
1,170,3.4,-0.28072,-1.04071,1.91751,0.31362,-0.07628,-1.1652,0.82577,0.82432,0.82733,0.82577,0.82441,0.82725,0.52171,0.00831,0.02489,1.0,0.0,0.0,0.0,-0.30479,-0.30479,-1.04764,-1.04764,1.92468,1.92468,0.30905,0.30905,-0.08443,-0.08443,-1.16709,-1.16709,220.0,220.0
1,171,3.42,-0.29715,-1.04266,1.92308,0.31007,-0.08168,-1.1662,0.82577,0.82432,0.82733,0.82576,0.82441,0.82725,0.52171,0.00831,0.02489,1.0,0.0,-0.0,-0.0,-0.32123,-0.32123,-1.04937,-1.04937,1.92981,1.92981,0.30532,0.30532,-0.09003,-0.09003,-1.16768,-1.16768,220.0,220.0
1,172,3.44,-0.31265,-1.04406,1.92722,0.30632,-0.08696,-1.16683,0.82577,0.82432,0.82733,0.82576,0.82441,0.82725,0.52171,0.00831,0.02489,1.0,0.0,-0.0,0.0,-0.33508,-0.33508,-1.04994,-1.04994,1.93168,1.93168,0.30127,0.30127,-0.09511,-0.09511,-1.16776,-1.16776,220.0,220.0
1,173,3.46,-0.3208,-1.04215,1.92239,0.30206,-0.09037,-1.16646,0.82578,0.82435,0.8273,0.82575,0.82437,0.82727,0.52171,0.00831,0.02489,1.0,0.0,-0.0,0.0,-0.33068,-0.33068,-1.04308,-1.04308,1.91256,1.91256,0.29615,0.29615,-0.09565,-0.09565,-1.16588,-1.16588,220.0,220.0
1,174,3.48,-0.32317,-1.0378,1.91093,0.298,-0.0925,-1.16486,0.82576,0.82433,0.82732,0.82577,0.8244,0.82725,0.52171,0.00831,0.02489,1.0,0.0,0.0,0.0,-0.32532,-0.32532,-1.03507,-1.03507,1.89173,1.89173,0.2925,0.2925,-0.09592,-0.09592,-1.16246,-1.16246,220.0,220.0
1,175,3.5,-0.32222,-1.03176,1.89547,0.29462,-0.09388,-1.16205,0.82574,0.8243,0.82735,0.82578,0.82442,0.82723,0.52171,0.00831,0.02489,1.0,0.0,0.0,0.0,-0.32007,-0.32007,-1.02655,-1.02655,1.87069,1.87069,0.29015,0.29015,-0.09621,-0.09621,-1.15781,-1.15781,220.0,220.0
1,176,3.52,-0.31947,-1.02455,1.87764,0.29205,-0.09481,-1.15812,0.82574,0.82429,0.82737,0.82579,0.82444,0.82722,0.52171,0.00831,0.02489,1.0,0.0,0.0,0.0,-0.31499,-0.31499,-1.01767,-1.01767,1.84953,1.84953,0.28883,0.28883,-0.0965,-0.0965,-1.15222,-1.15222,220.0,220.0
1,177,3.54,-0.31577,-1.01653,1.85839,0.2903,-0.09547,-1.15322,0.82572,0.82428,0.82737,0.82579,0.82444,0.8272,0.52171,0.00831,0.02489,1.0,0.0,-0.0,0.0,-0.31007,-0.31007,-1.00852,-1.00852,1.82827,1.82827,0.28829,0.28829,-0.09677,-0.09677,-1.14589,-1.14589,220.0,220.0
1,178,3.56,-0.31161,-1.00793,1.83827,0.28928,-0.09596,-1.14751,0.82573,0.82429,0.82739,0.8258,0.82445,0.8272,0.52171,0.00831,0.02489,1.0,0.0,0.0,0.0,-0.30531,-0.30531,-0.99916,-0.99916,1.80692,1.80692,0.28836,0.28836,-0.09701,-0.09701,-1.13898,-1.13898,220.0,220.0
1,179,3.58,-0.30723,-0.99892,1.81762,0.28889,-0.09633,-1.14112,0.82572,0.82428,0.82738,0.82579,0.82444,0.82718,0.52171,0.00831,0.02489,1.0,0.0,-0.0,0.0,-0.3007,-0.3007,-0.98962,-0.98962,1.78547,1.78547,0.28889,0.28889,-0.0972,-0.0972,-1.1316,-1.1316,220.0,220.0
1,180,3.6,-0.30281,-0.98961,1.7966,0.28902,-0.09661,-1.13419,0.82573,0.82429,0.82739,0.82579,0.82444,0.82719,0.52171,0.00831,0.02489,1.0,0.0,-0.0,0.0,-0.29623,-0.29623,-0.97995,-0.97995,1.76392,1.76392,0.28979,0.28979,-0.09734,-0.09734,-1.12386,-1.12386,220.0,220.0
1,181,3.62,-0.29842,-0.98007,1.77534,0.28957,-0.09681,-1.12681,0.82572,0.82429,0.82739,0.82579,0.82443,0.82719,0.52171,0.00831,0.02489,1.0,0.0,0.0,0.0,-0.2919,-0.2919,-0.97016,-0.97016,1.74227,1.74227,0.29096,0.29096,-0.09742,-0.09742,-1.11581,-1.11581,220.0,220.0
1,182,3.64,-0.2941,-0.97037,1.75389,0.29046,-0.09693,-1.11906,0.82573,0.8243,0.8274,0.82579,0.82443,0.82719,0.52171,0.00831,0.02489,1.0,0.0,-0.0,0.0,-0.2877,-0.2877,-0.96027,-0.96027,1.72052,1.72052,0.29235,0.29235,-0.09744,-0.09744,-1.10753,-1.10753,220.0,220.0
1,183,3.66,-0.28988,-0.96052,1.73229,0.29162,-0.09699,-1.11102,0.82573,0.82429,0.82739,0.82578,0.82442,0.82718,0.52171,0.00831,0.02489,1.0,0.0,-0.0,0.0,-0.28363,-0.28363,-0.95029,-0.95029,1.69866,1.69866,0.2939,0.2939,-0.0974,-0.0974,-1.09905,-1.09905,220.0,220.0
1,184,3.68,-0.28577,-0.95056,1.71054,0.29299,-0.09699,-1.10273,0.82574,0.82431,0.8274,0.82579,0.82443,0.8272,0.52171,0.00831,0.02489,1.0,0.0,0.0,0.0,-0.27968,-0.27968,-0.94024,-0.94024,1.67669,1.67669,0.29558,0.29558,-0.0973,-0.0973,-1.0904,-1.0904,220.0,220.0
1,185,3.7,-0.28176,-0.94051,1.68868,0.29452,-0.09692,-1.09423,0.82573,0.8243,0.82739,0.82578,0.82442,0.82719,0.52171,0.00831,0.02489,1.0,0.0,0.0,0.0,-0.27584,-0.27584,-0.93011,-0.93011,1.6546,1.6546,0.29734,0.29734,-0.09713,-0.09713,-1.0816,-1.0816,220.0,220.0
1,186,3.72,-0.27787,-0.93037,1.66668,0.29617,-0.09679,-1.08557,0.82573,0.82431,0.82739,0.82578,0.82442,0.82719,0.52171,0.00831,0.02489,1.0,0.0,0.0,0.0,-0.27211,-0.27211,-0.91991,-0.91991,1.63239,1.63239,0.29918,0.29918,-0.09691,-0.09691,-1.07268,-1.07268,220.0,220.0
1,187,3.74,-0.27408,-0.92015,1.64456,0.29792,-0.0966,-1.07675,0.82573,0.82431,0.82739,0.82578,0.82441,0.82718,0.52171,0.00831,0.02489,1.0,0.0,0.0,0.0,-0.26849,-0.26849,-0.90964,-0.90964,1.61006,1.61006,0.30106,0.30106,-0.09662,-0.09662,-1.06365,-1.06365,220.0,220.0
1,188,3.76,-0.2704,-0.90986,1.62231,0.29974,-0.09634,-1.06781,0.82573,0.82431,0.82739,0.82578,0.82441,0.82719,0.52171,0.00831,0.02489,1.0,0.0,0.0,0.0,-0.26496,-0.26496,-0.8993,-0.8993,1.58759,1.58759,0.30298,0.30298,-0.09628,-0.09628,-1.05451,-1.05451,220.0,220.0
1,189,3.78,-0.26683,-0.8995,1.59993,0.3016,-0.09603,-1.05874,0.82574,0.82432,0.8274,0.82579,0.82441,0.82719,0.52171,0.00831,0.02489,1.0,0.0,-0.0,0.0,-0.26153,-0.26153,-0.88889,-0.88889,1.56498,1.56498,0.30491,0.30491,-0.09587,-0.09587,-1.04527,-1.04527,220.0,220.0
1,190,3.8,-0.26335,-0.88906,1.57741,0.3035,-0.09565,-1.04957,0.82575,0.82433,0.8274,0.82579,0.82442,0.8272,0.52171,0.00831,0.02489,1.0,0.0,-0.0,0.0,-0.2582,-0.2582,-0.87842,-0.87842,1.54223,1.54223,0.30685,0.30685,-0.0954,-0.0954,-1.03594,-1.03594,220.0,220.0
1,191,3.82,-0.25996,-0.87856,1.55475,0.30541,-0.09522,-1.0403,0.82573,0.82432,0.82739,0.82578,0.8244,0.82719,0.52171,0.00831,0.02489,1.0,0.0,0.0,0.0,-0.25495,-0.25495,-0.86787,-0.86787,1.51932,1.51932,0.30879,0.30879,-0.09487,-0.09487,-1.02651,-1.02651,220.0,220.0
1,192,3.84,-0.25667,-0.86798,1.53193,0.30734,-0.09472,-1.03092,0.82573,0.82431,0.82738,0.82577,0.82439,0.82718,0.52171,0.00831,0.02489,1.0,0.0,0.0,0.0,-0.25179,-0.25179,-0.85725,-0.85725,1.49625,1.49625,0.31072,0.31072,-0.09428,-0.09428,-1.01699,-1.01699,220.0,220.0
1,193,3.86,-0.25346,-0.85733,1.50895,0.30925,-0.09416,-1.02145,0.82574,0.82433,0.8274,0.82578,0.82441,0.82719,0.52171,0.00831,0.02489,1.0,0.0,-0.0,0.0,-0.24871,-0.24871,-0.84655,-0.84655,1.47301,1.47301,0.31262,0.31262,-0.09363,-0.09363,-1.00737,-1.00737,220.0,220.0
1,194,3.88,-0.25033,-0.84661,1.48581,0.31116,-0.09354,-1.01188,0.82573,0.82432,0.82739,0.82577,0.82439,0.82718,0.52171,0.00831,0.02489,1.0,0.0,-0.0,0.0,-0.24571,-0.24571,-0.83578,-0.83578,1.44959,1.44959,0.31451,0.31451,-0.09291,-0.09291,-0.99765,-0.99765,220.0,220.0
1,195,3.9,-0.24729,-0.83581,1.46249,0.31304,-0.09285,-1.00221,0.82574,0.82433,0.82739,0.82577,0.8244,0.82718,0.52171,0.00831,0.02489,1.0,0.0,0.0,0.0,-0.24278,-0.24278,-0.82492,-0.82492,1.42599,1.42599,0.31636,0.31636,-0.09213,-0.09213,-0.98783,-0.98783,220.0,220.0
1,196,3.92,-0.24252,-0.82658,1.44334,0.31561,-0.09303,-0.99285,0.82575,0.82435,0.8274,0.82577,0.82437,0.82718,0.52171,0.00831,0.02489,1.0,0.0,-0.0,0.0,-0.23371,-0.23371,-0.81853,-0.81853,1.41379,1.41379,0.32009,0.32009,-0.09373,-0.09373,-0.97894,-0.97894,220.0,220.0
1,197,3.94,-0.23499,-0.81948,1.42943,0.31878,-0.09407,-0.98416,0.82575,0.82434,0.8274,0.82577,0.82439,0.82719,0.52171,0.00831,0.02489,1.0,0.0,0.0,0.0,-0.2219,-0.2219,-0.81473,-0.81473,1.40765,1.40765,0.32417,0.32417,-0.09604,-0.09604,-0.97126,-0.97126,220.0,220.0
1,198,3.96,-0.22541,-0.81396,1.41902,0.32205,-0.09532,-0.97626,0.82574,0.82432,0.82739,0.82578,0.82441,0.82719,0.52171,0.00831,0.02489,1.0,0.0,0.0,0.0,-0.21014,-0.21014,-0.81144,-0.81144,1.40199,1.40199,0.32749,0.32749,-0.09753,-0.09753,-0.96456,-0.96456,220.0,220.0
1,199,3.98,-0.21472,-0.80949,1.41065,0.32509,-0.09634,-0.96916,0.82573,0.8243,0.82739,0.82578,0.82442,0.82719,0.52171,0.00831,0.02489,1.0,0.0,-0.0,0.0,-0.19841,-0.19841,-0.80841,-0.80841,1.39639,1.39639,0.33014,0.33014,-0.09816,-0.09816,-0.95864,-0.95864,220.0,220.0
1,200,4.0,-0.20348,-0.80571,1.40345,0.32778,-0.0969,-0.96278,0.82575,0.82431,0.8274,0.82579,0.82443,0.8272,0.52171,0.00831,0.02489,1.0,0.0,0.0,0.0,-0.18669,-0.18669,-0.80558,-0.80558,1.39079,1.39079,0.33227,0.33227,-0.09801,-0.09801,-0.95334,-0.95334,220.0,220.0
1,201,4.02,-0.19198,-0.80239,1.3969,0.3301,-0.09689,-0.95704,0.82574,0.8243,0.82739,0.82577,0.82442,0.82719,0.52171,0.00831,0.02489,1.0,0.0,-0.0,0.0,-0.175,-0.175,-0.80289,-0.80289,1.38513,1.38513,0.33401,0.33401,-0.09713,-0.09713,-0.94854,-0.94854,220.0,220.0
1,202,4.04,-0.18038,-0.79938,1.39071,0.33207,-0.09627,-0.95184,0.82574,0.82431,0.82738,0.82577,0.82441,0.82719,0.52171,0.00831,0.02489,1.0,0.0,0.0,0.0,-0.16333,-0.16333,-0.80031,-0.80031,1.3794,1.3794,0.33547,0.33547,-0.0956,-0.0956,-0.94414,-0.94414,220.0,220.0
1,203,4.06,-0.16874,-0.79658,1.38467,0.33376,-0.09504,-0.94709,0.82575,0.82432,0.82738,0.82576,0.8244,0.82719,0.52171,0.00831,0.02489,1.0,0.0,-0.0,0.0,-0.15169,-0.15169,-0.7978,-0.7978,1.37357,1.37357,0.33673,0.33673,-0.09347,-0.09347,-0.94006,-0.94006,220.0,220.0
1,204,4.08,-0.1571,-0.79391,1.37867,0.33522,-0.09323,-0.94272,0.82575,0.82432,0.82737,0.82575,0.82438,0.82719,0.52171,0.00831,0.02489,1.0,0.0,-0.0,0.0,-0.14007,-0.14007,-0.79533,-0.79533,1.36762,1.36762,0.33785,0.33785,-0.0908,-0.0908,-0.93623,-0.93623,220.0,220.0
1,205,4.1,-0.14547,-0.79133,1.37264,0.3365,-0.09088,-0.93864,0.82576,0.82435,0.82738,0.82575,0.82438,0.8272,0.52171,0.00831,0.02489,1.0,0.0,-0.0,0.0,-0.12847,-0.12847,-0.79288,-0.79288,1.36153,1.36153,0.33888,0.33888,-0.08764,-0.08764,-0.9326,-0.9326,220.0,220.0
1,206,4.12,-0.13387,-0.7888,1.36652,0.33766,-0.08803,-0.9348,0.82577,0.82436,0.82738,0.82575,0.82437,0.82721,0.52171,0.00831,0.02489,1.0,0.0,-0.0,0.0,-0.11691,-0.11691,-0.79043,-0.79043,1.35528,1.35528,0.33985,0.33985,-0.08404,-0.08404,-0.92911,-0.92911,220.0,220.0
1,207,4.14,-0.12229,-0.7863,1.36029,0.33873,-0.0847,-0.93115,0.82577,0.82437,0.82737,0.82574,0.82435,0.82721,0.52171,0.00831,0.02489,1.0,0.0,-0.0,0.0,-0.10537,-0.10537,-0.78795,-0.78795,1.34887,1.34887,0.3408,0.3408,-0.08003,-0.08003,-0.92574,-0.92574,220.0,220.0
1,208,4.16,-0.11073,-0.78379,1.35392,0.33975,-0.08096,-0.92765,0.82578,0.82438,0.82737,0.82574,0.82435,0.82721,0.52171,0.00831,0.02489,1.0,0.0,-0.0,0.0,-0.09386,-0.09386,-0.78545,-0.78545,1.34229,1.34229,0.34173,0.34173,-0.07566,-0.07566,-0.92246,-0.92246,220.0,220.0
1,209,4.18,-0.09921,-0.78126,1.34739,0.34074,-0.07683,-0.92426,0.82578,0.82439,0.82737,0.82574,0.82434,0.82722,0.52171,0.00831,0.02489,1.0,0.0,0.0,0.0,-0.08238,-0.08238,-0.7829,-0.7829,1.33552,1.33552,0.34268,0.34268,-0.07095,-0.07095,-0.91922,-0.91922,220.0,220.0
1,210,4.2,-0.08772,-0.77869,1.34069,0.34172,-0.07234,-0.92094,0.82579,0.82441,0.82737,0.82574,0.82433,0.82722,0.52171,0.00831,0.02489,1.0,0.0,0.0,0.0,-0.07094,-0.07094,-0.78029,-0.78029,1.32856,1.32856,0.34364,0.34364,-0.06595,-0.06595,-0.91602,-0.91602,220.0,220.0
1,211,4.22,-0.07627,-0.77608,1.33381,0.3427,-0.06754,-0.91768,0.82579,0.82441,0.82736,0.82573,0.82432,0.82722,0.52171,0.00831,0.02489,1.0,0.0,0.0,0.0,-0.05953,-0.05953,-0.77762,-0.77762,1.3214,1.3214,0.34462,0.34462,-0.06067,-0.06067,-0.91283,-0.91283,220.0,220.0
1,212,4.24,-0.06484,-0.77341,1.32674,0.34369,-0.06245,-0.91444,0.82578,0.82441,0.82735,0.82572,0.8243,0.82722,0.52171,0.00831,0.02489,1.0,0.0,-0.0,0.0,-0.04816,-0.04816,-0.77488,-0.77488,1.31404,1.31404,0.34562,0.34562,-0.05515,-0.05515,-0.90963,-0.90963,220.0,220.0
1,213,4.26,-0.05346,-0.77068,1.31947,0.34469,-0.05709,-0.91121,0.82579,0.82442,0.82735,0.82572,0.8243,0.82722,0.52171,0.00831,0.02489,1.0,0.0,0.0,0.0,-0.03682,-0.03682,-0.77206,-0.77206,1.30648,1.30648,0.34665,0.34665,-0.04941,-0.04941,-0.90641,-0.90641,220.0,220.0
1,214,4.28,-0.0421,-0.76787,1.312,0.34571,-0.0515,-0.90797,0.8258,0.82444,0.82736,0.82573,0.82431,0.82723,0.52171,0.00831,0.02489,1.0,0.0,0.0,0.0,-0.02553,-0.02553,-0.76916,-0.76916,1.2987,1.2987,0.34769,0.34769,-0.04346,-0.04346,-0.90315,-0.90315,220.0,220.0
1,215,4.3,-0.03079,-0.76499,1.30433,0.34675,-0.04569,-0.9047,0.8258,0.82444,0.82736,0.82573,0.82429,0.82724,0.52171,0.00831,0.02489,1.0,0.0,-0.0,0.0,-0.01427,-0.01427,-0.76618,-0.76618,1.29071,1.29071,0.34875,0.34875,-0.03733,-0.03733,-0.89984,-0.89984,220.0,220.0
1,216,4.32,-0.01952,-0.76202,1.29644,0.3478,-0.03969,-0.90139,0.82581,0.82445,0.82735,0.82572,0.82429,0.82724,0.52171,0.00831,0.02489,1.0,0.0,0.0,0.0,-0.00306,-0.00306,-0.76311,-0.76311,1.28251,1.28251,0.34982,0.34982,-0.03104,-0.03104,-0.89647,-0.89647,220.0,220.0
1,217,4.34,-0.00829,-0.75897,1.28834,0.34886,-0.03351,-0.89802,0.8258,0.82445,0.82735,0.82571,0.82428,0.82724,0.52171,0.00831,0.02489,1.0,0.0,0.0,0.0,0.00811,0.00811,-0.75994,-0.75994,1.27409,1.27409,0.3509,0.3509,-0.02459,-0.02459,-0.89301,-0.89301,220.0,220.0
1,218,4.36,0.0029,-0.75583,1.28003,0.34993,-0.02716,-0.89458,0.8258,0.82445,0.82735,0.82571,0.82427,0.82723,0.52171,0.00831,0.02489,1.0,0.0,0.0,0.0,0.01923,0.01923,-0.75669,-0.75669,1.26545,1.26545,0.35197,0.35197,-0.01801,-0.01801,-0.88947,-0.88947,220.0,220.0
1,219,4.38,0.0132,-0.75357,1.27219,0.35142,-0.02112,-0.89103,0.8258,0.82444,0.82732,0.8257,0.82426,0.82724,0.52171,0.00831,0.02489,1.0,0.0,0.0,0.0,0.02761,0.02761,-0.75642,-0.75642,1.25801,1.25801,0.35415,0.35415,-0.01245,-0.01245,-0.88574,-0.88574,220.0,220.0
1,220,4.4,0.02008,-0.75515,1.26654,0.35447,-0.01661,-0.88727,0.82579,0.82444,0.82728,0.82571,0.82428,0.82729,0.52171,0.00831,0.02489,1.0,0.0,-0.0,0.0,0.02782,0.02782,-0.76544,-0.76544,1.25486,1.25486,0.35971,0.35971,-0.01035,-0.01035,-0.88169,-0.88169,220.0,220.0
1,221,4.42,0.02387,-0.76011,1.26189,0.35871,-0.01322,-0.8833,0.82579,0.82443,0.82728,0.82572,0.8243,0.8273,0.52171,0.00831,0.02489,1.0,0.0,-0.0,0.0,0.02783,0.02783,-0.77463,-0.77463,1.25198,1.25198,0.36561,0.36561,-0.00857,-0.00857,-0.8774,-0.8774,220.0,220.0
1,222,4.44,0.02582,-0.76706,1.2577,0.3637,-0.01054,-0.87911,0.82579,0.82441,0.82729,0.82573,0.82431,0.82728,0.52171,0.00831,0.02489,1.0,0.0,-0.0,0.0,0.02782,0.02782,-0.78366,-0.78366,1.24883,1.24883,0.37162,0.37162,-0.00689,-0.00689,-0.8729,-0.8729,220.0,220.0
1,223,4.46,0.02681,-0.77499,1.25372,0.36916,-0.00832,-0.87473,0.82578,0.82439,0.82729,0.82572,0.82432,0.82727,0.52171,0.00831,0.02489,1.0,0.0,0.0,0.0,0.02782,0.02782,-0.79251,-0.79251,1.24537,1.24537,0.37773,0.37773,-0.00531,-0.00531,-0.8682,-0.8682,220.0,220.0
1,224,4.48,0.02731,-0.78334,1.24979,0.37492,-0.00639,-0.87014,0.8258,0.8244,0.82732,0.82574,0.82434,0.82727,0.52171,0.00831,0.02489,1.0,0.0,-0.0,0.0,0.02781,0.02781,-0.80119,-0.80119,1.24162,1.24162,0.3839,0.3839,-0.00379,-0.00379,-0.86333,-0.86333,220.0,220.0
1,225,4.5,0.02756,-0.79181,1.24579,0.38087,-0.00466,-0.86537,0.82578,0.82438,0.82731,0.82573,0.82433,0.82726,0.52171,0.00831,0.02489,1.0,0.0,0.0,0.0,0.02781,0.02781,-0.80969,-0.80969,1.23757,1.23757,0.39014,0.39014,-0.00235,-0.00235,-0.85828,-0.85828,220.0,220.0
1,226,4.52,0.02768,-0.80026,1.24166,0.38697,-0.00307,-0.86043,0.82579,0.82438,0.82732,0.82574,0.82434,0.82726,0.52171,0.00831,0.02489,1.0,0.0,0.0,0.0,0.02781,0.02781,-0.81802,-0.81802,1.23323,1.23323,0.39643,0.39643,-0.00097,-0.00097,-0.85309,-0.85309,220.0,220.0
1,227,4.54,0.02774,-0.80861,1.23733,0.39316,-0.00159,-0.85533,0.82578,0.82438,0.82732,0.82574,0.82435,0.82726,0.52171,0.00831,0.02489,1.0,0.0,-0.0,0.0,0.0278,0.0278,-0.82618,-0.82618,1.22859,1.22859,0.40276,0.40276,0.00036,0.00036,-0.84775,-0.84775,220.0,220.0
1,228,4.56,0.02777,-0.81682,1.23276,0.39943,-0.00019,-0.85008,0.82579,0.82438,0.82733,0.82574,0.82435,0.82726,0.52171,0.00831,0.02489,1.0,0.0,0.0,0.0,0.0278,0.0278,-0.83417,-0.83417,1.22366,1.22366,0.40913,0.40913,0.00164,0.00164,-0.84227,-0.84227,220.0,220.0
1,229,4.58,0.02779,-0.82488,1.22794,0.40575,0.00114,-0.84468,0.82579,0.82438,0.82733,0.82574,0.82436,0.82726,0.52171,0.00831,0.02489,1.0,0.0,-0.0,0.0,0.0278,0.0278,-0.84199,-0.84199,1.21845,1.21845,0.41553,0.41553,0.00288,0.00288,-0.83665,-0.83665,220.0,220.0
1,230,4.6,0.0278,-0.83278,1.22286,0.41211,0.00242,-0.83914,0.82578,0.82438,0.82733,0.82574,0.82436,0.82726,0.52171,0.00831,0.02489,1.0,0.0,0.0,0.0,0.02779,0.02779,-0.84963,-0.84963,1.21295,1.21295,0.42195,0.42195,0.00408,0.00408,-0.83091,-0.83091,220.0,220.0
1,231,4.62,0.0278,-0.84052,1.21749,0.41851,0.00365,-0.83347,0.82578,0.82437,0.82733,0.82574,0.82435,0.82725,0.52171,0.00831,0.02489,1.0,0.0,-0.0,0.0,0.02779,0.02779,-0.8571,-0.8571,1.20715,1.20715,0.42839,0.42839,0.00524,0.00524,-0.82504,-0.82504,220.0,220.0
1,232,4.64,0.0278,-0.84808,1.21184,0.42493,0.00484,-0.82767,0.82578,0.82437,0.82733,0.82574,0.82436,0.82725,0.52171,0.00831,0.02489,1.0,0.0,-0.0,0.0,0.02779,0.02779,-0.8644,-0.8644,1.20107,1.20107,0.43485,0.43485,0.00638,0.00638,-0.81905,-0.81905,220.0,220.0
1,233,4.66,0.0278,-0.85547,1.20591,0.43137,0.006,-0.82175,0.82578,0.82437,0.82733,0.82574,0.82435,0.82725,0.52171,0.00831,0.02489,1.0,0.0,0.0,0.0,0.02779,0.02779,-0.87152,-0.87152,1.19471,1.19471,0.44132,0.44132,0.00749,0.00749,-0.81295,-0.81295,220.0,220.0
1,234,4.68,0.02779,-0.86269,1.1997,0.43783,0.00713,-0.8157,0.82579,0.82438,0.82734,0.82575,0.82437,0.82726,0.52171,0.00831,0.02489,1.0,0.0,-0.0,0.0,0.02779,0.02779,-0.87846,-0.87846,1.18805,1.18805,0.4478,0.4478,0.00858,0.00858,-0.80672,-0.80672,220.0,220.0
1,235,4.7,0.02779,-0.86973,1.19319,0.44431,0.00824,-0.80954,0.82578,0.82437,0.82733,0.82574,0.82435,0.82725,0.52171,0.00831,0.02489,1.0,0.0,-0.0,0.0,0.02778,0.02778,-0.88523,-0.88523,1.18111,1.18111,0.45429,0.45429,0.00965,0.00965,-0.80038,-0.80038,220.0,220.0
1,236,4.72,0.02779,-0.8766,1.1864,0.45079,0.00933,-0.80326,0.82577,0.82436,0.82732,0.82573,0.82435,0.82724,0.52171,0.00831,0.02489,1.0,0.0,-0.0,0.0,0.02778,0.02778,-0.89182,-0.89182,1.17387,1.17387,0.46079,0.46079,0.01071,0.01071,-0.79392,-0.79392,220.0,220.0
1,237,4.74,0.02779,-0.88329,1.17932,0.45728,0.0104,-0.79686,0.82578,0.82437,0.82734,0.82575,0.82436,0.82725,0.52171,0.00831,0.02489,1.0,0.0,0.0,0.0,0.02778,0.02778,-0.89824,-0.89824,1.16634,1.16634,0.46728,0.46728,0.01176,0.01176,-0.78735,-0.78735,220.0,220.0
1,238,4.76,0.02779,-0.8898,1.17194,0.46377,0.01146,-0.79034,0.82579,0.82438,0.82735,0.82576,0.82437,0.82726,0.52171,0.00831,0.02489,1.0,0.0,-0.0,0.0,0.02778,0.02778,-0.90447,-0.90447,1.15852,1.15852,0.47378,0.47378,0.0128,0.0128,-0.78066,-0.78066,220.0,220.0
1,239,4.78,0.02778,-0.89613,1.16427,0.47027,0.0125,-0.78372,0.82578,0.82437,0.82734,0.82574,0.82436,0.82725,0.52171,0.00831,0.02489,1.0,0.0,0.0,0.0,0.02778,0.02778,-0.91051,-0.91051,1.1504,1.1504,0.48027,0.48027,0.01384,0.01384,-0.77386,-0.77386,220.0,220.0
1,240,4.8,0.02778,-0.90228,1.15631,0.47676,0.01355,-0.77697,0.82577,0.82436,0.82733,0.82574,0.82435,0.82724,0.52171,0.00831,0.02489,1.0,0.0,-0.0,0.0,0.02777,0.02777,-0.91638,-0.91638,1.14199,1.14199,0.48676,0.48676,0.01487,0.01487,-0.76695,-0.76695,220.0,220.0
1,241,4.82,0.02778,-0.90824,1.14805,0.48325,0.01458,-0.77011,0.82578,0.82437,0.82734,0.82575,0.82436,0.82725,0.52171,0.00831,0.02489,1.0,0.0,-0.0,0.0,0.02777,0.02777,-0.92205,-0.92205,1.13328,1.13328,0.49324,0.49324,0.0159,0.0159,-0.75992,-0.75992,220.0,220.0
1,242,4.84,0.02778,-0.91401,1.13949,0.48973,0.01562,-0.76314,0.82578,0.82437,0.82734,0.82574,0.82436,0.82724,0.52171,0.00831,0.02489,1.0,0.0,0.0,0.0,0.02777,0.02777,-0.92754,-0.92754,1.12427,1.12427,0.49971,0.49971,0.01694,0.01694,-0.75277,-0.75277,220.0,220.0
1,243,4.86,0.02781,-0.9212,1.13899,0.49737,0.01474,-0.75711,0.82578,0.82439,0.82729,0.82574,0.82434,0.82729,0.52171,0.00831,0.02489,1.0,0.0,0.0,0.0,0.02836,0.02836,-0.93564,-0.93564,1.13737,1.13737,0.50917,0.50917,0.01314,0.01314,-0.74814,-0.74814,220.0,220.0
1,244,4.88,0.02806,-0.92948,1.14702,0.50546,0.01219,-0.75269,0.82576,0.82434,0.82725,0.82575,0.82437,0.82731,0.52171,0.00831,0.02489,1.0,0.0,-0.0,0.0,0.0288,0.0288,-0.94563,-0.94563,1.15786,1.15786,0.51786,0.51786,0.00811,0.00811,-0.74616,-0.74616,220.0,220.0
1,245,4.9,0.02843,-0.93856,1.16077,0.513,0.00879,-0.75011,0.82575,0.82429,0.82727,0.82577,0.82443,0.8273,0.52171,0.00831,0.02489,1.0,0.0,0.0,0.0,0.02916,0.02916,-0.95643,-0.95643,1.1794,1.1794,0.5245,0.5245,0.00351,0.00351,-0.74635,-0.74635,220.0,220.0
1,246,4.92,0.02883,-0.94838,1.178,0.51945,0.00514,-0.74932,0.82575,0.82427,0.82729,0.82578,0.82446,0.82729,0.52171,0.00831,0.02489,1.0,0.0,-0.0,0.0,0.0295,0.0295,-0.96773,-0.96773,1.20131,1.20131,0.52933,0.52933,-0.00051,-0.00051,-0.74824,-0.74824,220.0,220.0
1,247,4.94,0.02923,-0.95889,1.1973,0.52464,0.00157,-0.75015,0.82574,0.82424,0.8273,0.82578,0.82447,0.82727,0.52171,0.00831,0.02489,1.0,0.0,-0.0,0.0,0.02985,0.02985,-0.97941,-0.97941,1.22342,1.22342,0.53265,0.53265,-0.00395,-0.00395,-0.75145,-0.75145,220.0,220.0
1,248,4.96,0.02963,-0.96999,1.21782,0.52859,-0.00173,-0.75234,0.82575,0.82426,0.82732,0.82579,0.82448,0.82727,0.52171,0.00831,0.02489,1.0,0.0,0.0,0.0,0.03021,0.03021,-0.9914,-0.9914,1.24562,1.24562,0.53475,0.53475,-0.00686,-0.00686,-0.75569,-0.75569,220.0,220.0
1,249,4.98,0.03002,-0.98156,1.23904,0.5314,-0.00468,-0.75567,0.82575,0.82425,0.82732,0.82577,0.82447,0.82726,0.52171,0.00831,0.02489,1.0,0.0,-0.0,0.0,0.03058,0.03058,-1.00363,-1.00363,1.26783,1.26783,0.53588,0.53588,-0.00928,-0.00928,-0.76069,-0.76069,220.0,220.0
1,250,5.0,0.03041,-0.99351,1.26064,0.53321,-0.00724,-0.75991,0.82575,0.82425,0.82732,0.82577,0.82446,0.82725,0.52171,0.00831,0.02489,1.0,0.0,0.0,0.0,0.03095,0.03095,-1.01606,-1.01606,1.28998,1.28998,0.53623,0.53623,-0.01125,-0.01125,-0.76626,-0.76626,220.0,220.0
1,251,5.02,0.0308,-1.00574,1.28243,0.53419,-0.00941,-0.76485,0.82574,0.82425,0.82731,0.82575,0.82444,0.82724,0.52171,0.00831,0.02489,1.0,0.0,-0.0,0.0,0.03133,0.03133,-1.02862,-1.02862,1.31203,1.31203,0.53596,0.53596,-0.01283,-0.01283,-0.77223,-0.77223,220.0,220.0
1,252,5.04,0.03119,-1.01819,1.30426,0.53446,-0.01119,-0.77032,0.82576,0.82428,0.82732,0.82577,0.82445,0.82727,0.52171,0.00831,0.02489,1.0,0.0,0.0,0.0,0.03172,0.03172,-1.0413,-1.0413,1.33393,1.33393,0.53521,0.53521,-0.01407,-0.01407,-0.77849,-0.77849,220.0,220.0
1,253,5.06,0.03158,-1.0308,1.32605,0.53417,-0.01263,-0.77618,0.82576,0.82429,0.82732,0.82576,0.82443,0.82726,0.52171,0.00831,0.02489,1.0,0.0,-0.0,0.0,0.03211,0.03211,-1.05406,-1.05406,1.35567,1.35567,0.53409,0.53409,-0.01499,-0.01499,-0.78492,-0.78492,220.0,220.0
1,254,5.08,0.03199,-1.04352,1.34774,0.53343,-0.01375,-0.78232,0.82578,0.82431,0.82732,0.82577,0.82443,0.82727,0.52171,0.00831,0.02489,1.0,0.0,0.0,0.0,0.03252,0.03252,-1.06688,-1.06688,1.37721,1.37721,0.5327,0.5327,-0.01564,-0.01564,-0.79146,-0.79146,220.0,220.0
1,255,5.1,0.03239,-1.05633,1.36929,0.53234,-0.01459,-0.78863,0.82577,0.82431,0.82731,0.82575,0.82442,0.82726,0.52171,0.00831,0.02489,1.0,0.0,-0.0,0.0,0.03293,0.03293,-1.07974,-1.07974,1.39856,1.39856,0.5311,0.5311,-0.01606,-0.01606,-0.79803,-0.79803,220.0,220.0
1,256,5.12,0.03281,-1.06921,1.39066,0.53098,-0.01518,-0.79505,0.82578,0.82432,0.82731,0.82575,0.82441,0.82727,0.52171,0.00831,0.02489,1.0,0.0,-0.0,0.0,0.03336,0.03336,-1.09262,-1.09262,1.41969,1.41969,0.52935,0.52935,-0.01629,-0.01629,-0.80459,-0.80459,220.0,220.0
1,257,5.14,0.03324,-1.08212,1.41185,0.52943,-0.01555,-0.80151,0.82578,0.82432,0.82731,0.82575,0.8244,0.82727,0.52171,0.00831,0.02489,1.0,0.0,0.0,0.0,0.03379,0.03379,-1.10552,-1.10552,1.4406,1.4406,0.5275,0.5275,-0.01634,-0.01634,-0.81111,-0.81111,220.0,220.0
1,258,5.16,0.03367,-1.09506,1.43283,0.52772,-0.01573,-0.80797,0.82577,0.82432,0.8273,0.82574,0.82439,0.82726,0.52171,0.00831,0.02489,1.0,0.0,0.0,0.0,0.03424,0.03424,-1.11843,-1.11843,1.4613,1.4613,0.52559,0.52559,-0.01624,-0.01624,-0.81756,-0.81756,220.0,220.0
1,259,5.18,0.03412,-1.10802,1.45361,0.52592,-0.01575,-0.81438,0.82578,0.82433,0.8273,0.82574,0.82439,0.82727,0.52171,0.00831,0.02489,1.0,0.0,-0.0,0.0,0.0347,0.0347,-1.13134,-1.13134,1.48177,1.48177,0.52364,0.52364,-0.01602,-0.01602,-0.82392,-0.82392,220.0,220.0
1,260,5.2,0.03457,-1.12099,1.47416,0.52406,-0.01563,-0.82073,0.82578,0.82434,0.8273,0.82574,0.82438,0.82727,0.52171,0.00831,0.02489,1.0,0.0,-0.0,0.0,0.03517,0.03517,-1.14424,-1.14424,1.50201,1.50201,0.52169,0.52169,-0.0157,-0.0157,-0.83016,-0.83016,220.0,220.0
1,261,5.22,0.03504,-1.13396,1.4945,0.52216,-0.01539,-0.82699,0.82578,0.82433,0.8273,0.82573,0.82437,0.82726,0.52171,0.00831,0.02489,1.0,0.0,-0.0,0.0,0.03566,0.03566,-1.15714,-1.15714,1.52204,1.52204,0.51975,0.51975,-0.01529,-0.01529,-0.83629,-0.83629,220.0,220.0
1,262,5.24,0.03552,-1.14693,1.51463,0.52026,-0.01506,-0.83314,0.82579,0.82435,0.82731,0.82574,0.82438,0.82728,0.52171,0.00831,0.02489,1.0,0.0,-0.0,0.0,0.03615,0.03615,-1.17004,-1.17004,1.54185,1.54185,0.51783,0.51783,-0.01481,-0.01481,-0.84229,-0.84229,220.0,220.0
1,263,5.26,0.03602,-1.15989,1.53453,0.51836,-0.01464,-0.83918,0.82578,0.82434,0.82729,0.82573,0.82436,0.82726,0.52171,0.00831,0.02489,1.0,0.0,0.0,0.0,0.03667,0.03667,-1.18292,-1.18292,1.56144,1.56144,0.51596,0.51596,-0.01427,-0.01427,-0.84816,-0.84816,220.0,220.0
1,264,5.28,0.03652,-1.17285,1.55422,0.51649,-0.01415,-0.8451,0.82578,0.82434,0.82729,0.82573,0.82436,0.82726,0.52171,0.00831,0.02489,1.0,0.0,-0.0,0.0,0.03719,0.03719,-1.1958,-1.1958,1.58082,1.58082,0.51413,0.51413,-0.01368,-0.01368,-0.85389,-0.85389,220.0,220.0
1,265,5.3,0.03705,-1.1858,1.5737,0.51466,-0.01361,-0.85089,0.82578,0.82435,0.8273,0.82573,0.82436,0.82727,0.52171,0.00831,0.02489,1.0,0.0,-0.0,0.0,0.03773,0.03773,-1.20868,-1.20868,1.59999,1.59999,0.51236,0.51236,-0.01306,-0.01306,-0.85949,-0.85949,220.0,220.0
1,266,5.32,0.03569,-1.19825,1.59195,0.51274,-0.01297,-0.85647,0.82578,0.82434,0.8273,0.82574,0.82438,0.82728,0.52171,0.00831,0.02489,1.0,0.0,0.0,0.0,0.03262,0.03262,-1.21986,-1.21986,1.61622,1.61622,0.51024,0.51024,-0.01222,-0.01222,-0.86476,-0.86476,220.0,220.0
1,267,5.34,0.02939,-1.20922,1.60752,0.51057,-0.01232,-0.8617,0.82578,0.82433,0.82729,0.82575,0.8244,0.82729,0.52171,0.00831,0.02489,1.0,0.0,0.0,0.0,0.01782,0.01782,-1.22796,-1.22796,1.62757,1.62757,0.50761,0.50761,-0.01148,-0.01148,-0.86947,-0.86947,220.0,220.0
1,268,5.36,0.01915,-1.21872,1.62107,0.50831,-0.01202,-0.86656,0.82578,0.82434,0.82728,0.82573,0.82436,0.82727,0.52171,0.00831,0.02489,1.0,0.0,-0.0,0.0,0.00271,0.00271,-1.23555,-1.23555,1.63841,1.63841,0.50527,0.50527,-0.01177,-0.01177,-0.87375,-0.87375,220.0,220.0
1,269,5.38,0.00662,-1.22716,1.63333,0.50609,-0.01232,-0.87104,0.82579,0.82437,0.82729,0.82573,0.82436,0.82729,0.52171,0.00831,0.02489,1.0,0.0,-0.0,0.0,-0.01252,-0.01252,-1.24273,-1.24273,1.64888,1.64888,0.50318,0.50318,-0.01302,-0.01302,-0.87767,-0.87767,220.0,220.0
1,270,5.4,-0.0072,-1.23487,1.6447,0.50397,-0.01333,-0.87518,0.8258,0.82438,0.82729,0.82574,0.82436,0.8273,0.52171,0.00831,0.02489,1.0,0.0,-0.0,0.0,-0.02787,-0.02787,-1.24953,-1.24953,1.65901,1.65901,0.50125,0.50125,-0.01512,-0.01512,-0.88131,-0.88131,220.0,220.0
1,271,5.42,-0.02176,-1.24205,1.65542,0.50198,-0.01509,-0.87901,0.8258,0.82437,0.82729,0.82575,0.82436,0.8273,0.52171,0.00831,0.02489,1.0,0.0,0.0,0.0,-0.04334,-0.04334,-1.25597,-1.25597,1.66882,1.66882,0.49945,0.49945,-0.018,-0.018,-0.8847,-0.8847,220.0,220.0
1,272,5.44,-0.03678,-1.24878,1.66563,0.50009,-0.01757,-0.88259,0.82579,0.82436,0.82728,0.82574,0.82437,0.82729,0.52171,0.00831,0.02489,1.0,0.0,0.0,0.0,-0.05892,-0.05892,-1.26209,-1.26209,1.67831,1.67831,0.49772,0.49772,-0.02156,-0.02156,-0.88788,-0.88788,220.0,220.0
1,273,5.46,-0.05208,-1.25515,1.67542,0.49827,-0.02073,-0.88592,0.82578,0.82434,0.82729,0.82575,0.82437,0.82728,0.52171,0.00831,0.02489,1.0,0.0,0.0,0.0,-0.07461,-0.07461,-1.2679,-1.2679,1.68749,1.68749,0.49602,0.49602,-0.02574,-0.02574,-0.89087,-0.89087,220.0,220.0
1,274,5.48,-0.0676,-1.26117,1.68484,0.4965,-0.02454,-0.88904,0.82578,0.82434,0.8273,0.82576,0.82439,0.82729,0.52171,0.00831,0.02489,1.0,0.0,0.0,0.0,-0.09039,-0.09039,-1.27342,-1.27342,1.69638,1.69638,0.49433,0.49433,-0.03049,-0.03049,-0.89367,-0.89367,220.0,220.0
1,275,5.5,-0.08326,-1.26689,1.69392,0.49476,-0.02893,-0.89197,0.82576,0.82431,0.82728,0.82575,0.82439,0.82727,0.52171,0.00831,0.02489,1.0,0.0,-0.0,0.0,-0.10626,-0.10626,-1.27866,-1.27866,1.70497,1.70497,0.49262,0.49262,-0.03575,-0.03575,-0.8963,-0.8963,220.0,220.0
1,276,5.52,-0.09904,-1.27231,1.70269,0.49301,-0.03385,-0.89471,0.82577,0.82431,0.8273,0.82577,0.82442,0.82727,0.52171,0.00831,0.02489,1.0,0.0,-0.0,0.0,-0.12222,-0.12222,-1.28364,-1.28364,1.71327,1.71327,0.49087,0.49087,-0.04147,-0.04147,-0.89876,-0.89876,220.0,220.0
1,277,5.54,-0.11493,-1.27746,1.71114,0.49123,-0.03926,-0.89726,0.82577,0.82431,0.82731,0.82577,0.82443,0.82727,0.52171,0.00831,0.02489,1.0,0.0,-0.0,0.0,-0.13825,-0.13825,-1.28836,-1.28836,1.72128,1.72128,0.48905,0.48905,-0.0476,-0.0476,-0.90105,-0.90105,220.0,220.0
1,278,5.56,-0.1309,-1.28235,1.7193,0.48941,-0.04512,-0.89964,0.82575,0.82429,0.8273,0.82576,0.82442,0.82726,0.52171,0.00831,0.02489,1.0,0.0,-0.0,0.0,-0.15434,-0.15434,-1.29283,-1.29283,1.729,1.729,0.48715,0.48715,-0.05411,-0.05411,-0.90315,-0.90315,220.0,220.0
1,279,5.58,-0.14695,-1.28698,1.72716,0.48751,-0.05138,-0.90182,0.82575,0.82428,0.8273,0.82577,0.82443,0.82726,0.52171,0.00831,0.02489,1.0,0.0,-0.0,0.0,-0.1705,-0.1705,-1.29706,-1.29706,1.73643,1.73643,0.48514,0.48514,-0.06097,-0.06097,-0.90507,-0.90507,220.0,220.0
1,280,5.6,-0.16306,-1.29136,1.73473,0.48552,-0.058,-0.90382,0.82575,0.82427,0.82732,0.82578,0.82445,0.82725,0.52171,0.00831,0.02489,1.0,0.0,-0.0,0.0,-0.18671,-0.18671,-1.30107,-1.30107,1.74357,1.74357,0.48302,0.48302,-0.06815,-0.06815,-0.90678,-0.90678,220.0,220.0
1,281,5.62,-0.17922,-1.29551,1.74201,0.48342,-0.06497,-0.90562,0.82574,0.82426,0.82732,0.82578,0.82445,0.82725,0.52171,0.00831,0.02489,1.0,0.0,0.0,0.0,-0.20295,-0.20295,-1.30484,-1.30484,1.75042,1.75042,0.48077,0.48077,-0.07561,-0.07561,-0.90829,-0.90829,220.0,220.0
1,282,5.64,-0.19543,-1.29942,1.74899,0.4812,-0.07224,-0.90721,0.82573,0.82425,0.82731,0.82577,0.82445,0.82724,0.52171,0.00831,0.02489,1.0,0.0,-0.0,0.0,-0.21923,-0.21923,-1.3084,-1.3084,1.75697,1.75697,0.47836,0.47836,-0.08334,-0.08334,-0.90956,-0.90956,220.0,220.0
1,283,5.66,-0.21168,-1.30311,1.75567,0.47884,-0.0798,-0.90857,0.82574,0.82426,0.82733,0.82579,0.82447,0.82725,0.52171,0.00831,0.02489,1.0,0.0,0.0,0.0,-0.23553,-0.23553,-1.31173,-1.31173,1.76322,1.76322,0.4758,0.4758,-0.09132,-0.09132,-0.91059,-0.91059,220.0,220.0
1,284,5.68,-0.22796,-1.30657,1.76206,0.47632,-0.08763,-0.9097,0.82574,0.82425,0.82733,0.82579,0.82447,0.82724,0.52171,0.00831,0.02489,1.0,0.0,0.0,0.0,-0.25184,-0.25184,-1.31485,-1.31485,1.76917,1.76917,0.47305,0.47305,-0.09954,-0.09954,-0.91136,-0.91136,220.0,220.0
1,285,5.7,-0.24425,-1.30982,1.76815,0.47363,-0.09569,-0.91057,0.82574,0.82424,0.82734,0.82579,0.82448,0.82724,0.52171,0.00831,0.02489,1.0,0.0,0.0,0.0,-0.26816,-0.26816,-1.31776,-1.31776,1.77482,1.77482,0.47011,0.47011,-0.10797,-0.10797,-0.91185,-0.91185,220.0,220.0
1,286,5.72,-0.26055,-1.31286,1.77393,0.47076,-0.10399,-0.91117,0.82574,0.82425,0.82734,0.8258,0.82449,0.82725,0.52171,0.00831,0.02489,1.0,0.0,-0.0,0.0,-0.28447,-0.28447,-1.32046,-1.32046,1.78015,1.78015,0.46695,0.46695,-0.1166,-0.1166,-0.91205,-0.91205,220.0,220.0
1,287,5.74,-0.27684,-1.31568,1.7794,0.46768,-0.1125,-0.91148,0.82573,0.82423,0.82734,0.82579,0.82448,0.82723,0.52171,0.00831,0.02489,1.0,0.0,-0.0,0.0,-0.30076,-0.30076,-1.32296,-1.32296,1.78516,1.78516,0.46358,0.46358,-0.12543,-0.12543,-0.91193,-0.91193,220.0,220.0
1,288,5.76,-0.29313,-1.31829,1.78455,0.46439,-0.12122,-0.91149,0.82572,0.82422,0.82733,0.8258,0.82449,0.82723,0.52171,0.00831,0.02489,1.0,0.0,0.0,0.0,-0.31703,-0.31703,-1.32525,-1.32525,1.78986,1.78986,0.45997,0.45997,-0.13445,-0.13445,-0.91148,-0.91148,220.0,220.0
1,289,5.78,-0.30939,-1.32069,1.78939,0.46087,-0.13013,-0.91117,0.82572,0.82421,0.82733,0.8258,0.82449,0.82723,0.52171,0.00831,0.02489,1.0,0.0,0.0,0.0,-0.33326,-0.33326,-1.32733,-1.32733,1.79423,1.79423,0.4561,0.4561,-0.14365,-0.14365,-0.91069,-0.91069,220.0,220.0
1,290,5.8,-0.31847,-1.31786,1.7858,0.45628,-0.13668,-0.91018,0.82573,0.82425,0.82731,0.82579,0.82446,0.82725,0.52171,0.00831,0.02489,1.0,0.0,0.0,0.0,-0.33034,-0.33034,-1.31587,-1.31587,1.7774,1.7774,0.4498,0.4498,-0.14653,-0.14653,-0.90869,-0.90869,220.0,220.0
1,291,5.82,-0.32154,-1.31064,1.7754,0.45129,-0.14125,-0.90835,0.82572,0.82424,0.82735,0.82581,0.8245,0.82724,0.52171,0.00831,0.02489,1.0,0.0,-0.0,0.0,-0.32499,-0.32499,-1.3024,-1.3024,1.75711,1.75711,0.44427,0.44427,-0.1482,-0.1482,-0.90559,-0.90559,220.0,220.0
1,292,5.84,-0.32105,-1.30068,1.76076,0.44646,-0.14449,-0.90565,0.82571,0.82422,0.82738,0.82582,0.82452,0.82721,0.52171,0.00831,0.02489,1.0,0.0,-0.0,0.0,-0.31968,-0.31968,-1.28875,-1.28875,1.73645,1.73645,0.43975,0.43975,-0.1495,-0.1495,-0.90161,-0.90161,220.0,220.0
1,293,5.86,-0.31858,-1.28912,1.74358,0.44207,-0.14681,-0.90216,0.8257,0.82422,0.8274,0.82583,0.82453,0.82719,0.52171,0.00831,0.02489,1.0,0.0,0.0,0.0,-0.31454,-0.31454,-1.27505,-1.27505,1.71567,1.71567,0.43606,0.43606,-0.1505,-0.1505,-0.89692,-0.89692,220.0,220.0
1,294,5.88,-0.31505,-1.27663,1.72488,0.43824,-0.14849,-0.89795,0.82569,0.82421,0.82741,0.82582,0.82452,0.82717,0.52171,0.00831,0.02489,1.0,0.0,0.0,0.0,-0.30958,-0.30958,-1.26137,-1.26137,1.6948,1.6948,0.43305,0.43305,-0.15122,-0.15122,-0.89167,-0.89167,220.0,220.0
1,295,5.9,-0.31098,-1.26361,1.70525,0.43495,-0.14968,-0.89314,0.8257,0.82422,0.82742,0.82583,0.82452,0.82717,0.52171,0.00831,0.02489,1.0,0.0,-0.0,0.0,-0.30479,-0.30479,-1.2477,-1.2477,1.67383,1.67383,0.43058,0.43058,-0.15169,-0.15169,-0.88596,-0.88596,220.0,220.0
1,296,5.92,-0.30666,-1.2503,1.68503,0.43216,-0.15048,-0.88782,0.8257,0.82423,0.82742,0.82582,0.8245,0.82717,0.52171,0.00831,0.02489,1.0,0.0,-0.0,0.0,-0.30017,-0.30017,-1.23407,-1.23407,1.65275,1.65275,0.42855,0.42855,-0.15192,-0.15192,-0.87987,-0.87987,220.0,220.0
1,297,5.94,-0.30227,-1.23683,1.66441,0.42983,-0.15096,-0.88206,0.82571,0.82424,0.82742,0.82582,0.8245,0.82717,0.52171,0.00831,0.02489,1.0,0.0,0.0,0.0,-0.29569,-0.29569,-1.22047,-1.22047,1.63156,1.63156,0.42689,0.42689,-0.15193,-0.15193,-0.87348,-0.87348,220.0,220.0
1,298,5.96,-0.29789,-1.22329,1.64351,0.42789,-0.15116,-0.87594,0.8257,0.82424,0.82741,0.8258,0.82448,0.82716,0.52171,0.00831,0.02489,1.0,0.0,0.0,0.0,-0.29136,-0.29136,-1.20691,-1.20691,1.61024,1.61024,0.42553,0.42553,-0.15174,-0.15174,-0.86683,-0.86683,220.0,220.0
1,299,5.98,-0.29359,-1.20972,1.6224,0.42629,-0.15114,-0.86952,0.82571,0.82425,0.82741,0.8258,0.82447,0.82717,0.52171,0.00831,0.02489,1.0,0.0,-0.0,0.0,-0.28717,-0.28717,-1.19339,-1.19339,1.5888,1.5888,0.42442,0.42442,-0.15136,-0.15136,-0.85997,-0.85997,220.0,220.0
1,300,6.0,-0.28937,-1.19615,1.6011,0.42497,-0.1509,-0.86285,0.82571,0.82426,0.82741,0.8258,0.82446,0.82718,0.52171,0.00831,0.02489,1.0,0.0,0.0,0.0,-0.28311,-0.28311,-1.1799,-1.1799,1.56722,1.56722,0.42352,0.42352,-0.15081,-0.15081,-0.85291,-0.85291,220.0,220.0
1,301,6.02,-0.28527,-1.18259,1.57964,0.42389,-0.15048,-0.85595,0.82572,0.82427,0.82741,0.8258,0.82446,0.82717,0.52171,0.00831,0.02489,1.0,0.0,-0.0,0.0,-0.27917,-0.27917,-1.16644,-1.16644,1.5455,1.5455,0.42279,0.42279,-0.15011,-0.15011,-0.84568,-0.84568,220.0,220.0
1,302,6.04,-0.28128,-1.16906,1.55802,0.42302,-0.14988,-0.84886,0.82572,0.82428,0.82741,0.8258,0.82445,0.82718,0.52171,0.00831,0.02489,1.0,0.0,-0.0,0.0,-0.27535,-0.27535,-1.153,-1.153,1.52363,1.52363,0.42222,0.42222,-0.14926,-0.14926,-0.83831,-0.83831,220.0,220.0
1,303,6.06,-0.2774,-1.15554,1.53624,0.42232,-0.14913,-0.84159,0.82573,0.82429,0.82741,0.8258,0.82445,0.82718,0.52171,0.00831,0.02489,1.0,0.0,-0.0,0.0,-0.27164,-0.27164,-1.13958,-1.13958,1.5016,1.5016,0.42177,0.42177,-0.14828,-0.14828,-0.83079,-0.83079,220.0,220.0
1,304,6.08,-0.27364,-1.14203,1.5143,0.42177,-0.14824,-0.83417,0.82573,0.82429,0.8274,0.82579,0.82444,0.82718,0.52171,0.00831,0.02489,1.0,0.0,0.0,0.0,-0.26804,-0.26804,-1.12617,-1.12617,1.47941,1.47941,0.42144,0.42144,-0.14718,-0.14718,-0.82314,-0.82314,220.0,220.0
1,305,6.1,-0.26998,-1.12854,1.49219,0.42134,-0.14723,-0.82661,0.82573,0.8243,0.8274,0.82579,0.82443,0.82718,0.52171,0.00831,0.02489,1.0,0.0,0.0,0.0,-0.26454,-0.26454,-1.11277,-1.11277,1.45704,1.45704,0.42119,0.42119,-0.14597,-0.14597,-0.81537,-0.81537,220.0,220.0
1,306,6.12,-0.26642,-1.11506,1.46991,0.42102,-0.14609,-0.81892,0.82573,0.8243,0.8274,0.82579,0.82442,0.82718,0.52171,0.00831,0.02489,1.0,0.0,-0.0,0.0,-0.26113,-0.26113,-1.09937,-1.09937,1.4345,1.4345,0.42103,0.42103,-0.14465,-0.14465,-0.80747,-0.80747,220.0,220.0
1,307,6.14,-0.26296,-1.10157,1.44746,0.42079,-0.14484,-0.81109,0.82573,0.82431,0.8274,0.82579,0.82442,0.82718,0.52171,0.00831,0.02489,1.0,0.0,0.0,0.0,-0.25783,-0.25783,-1.08595,-1.08595,1.41176,1.41176,0.42093,0.42093,-0.14323,-0.14323,-0.79945,-0.79945,220.0,220.0
1,308,6.16,-0.2596,-1.08808,1.42481,0.42064,-0.14348,-0.80314,0.82574,0.82432,0.8274,0.82579,0.82442,0.82719,0.52171,0.00831,0.02489,1.0,0.0,-0.0,0.0,-0.25461,-0.25461,-1.07253,-1.07253,1.38883,1.38883,0.42088,0.42088,-0.14172,-0.14172,-0.79131,-0.79131,220.0,220.0
1,309,6.18,-0.25633,-1.07458,1.40198,0.42054,-0.14202,-0.79505,0.82573,0.82431,0.82739,0.82577,0.8244,0.82718,0.52171,0.00831,0.02489,1.0,0.0,0.0,0.0,-0.25147,-0.25147,-1.05908,-1.05908,1.36569,1.36569,0.42087,0.42087,-0.14011,-0.14011,-0.78304,-0.78304,220.0,220.0
1,310,6.2,-0.25315,-1.06107,1.37894,0.4205,-0.14047,-0.78684,0.82573,0.82431,0.82739,0.82577,0.8244,0.82718,0.52171,0.00831,0.02489,1.0,0.0,-0.0,0.0,-0.24842,-0.24842,-1.04561,-1.04561,1.34234,1.34234,0.42089,0.42089,-0.13841,-0.13841,-0.77464,-0.77464,220.0,220.0
1,311,6.22,-0.25005,-1.04753,1.35569,0.42049,-0.13882,-0.7785,0.82574,0.82432,0.8274,0.82578,0.8244,0.82718,0.52171,0.00831,0.02489,1.0,0.0,0.0,0.0,-0.24545,-0.24545,-1.0321,-1.0321,1.31876,1.31876,0.42094,0.42094,-0.13662,-0.13662,-0.7661,-0.7661,220.0,220.0
1,312,6.24,-0.24704,-1.03396,1.33221,0.42051,-0.13708,-0.77003,0.82574,0.82433,0.8274,0.82578,0.82439,0.82718,0.52171,0.00831,0.02489,1.0,0.0,0.0,0.0,-0.24255,-0.24255,-1.01856,-1.01856,1.29494,1.29494,0.421,0.421,-0.13475,-0.13475,-0.75743,-0.75743,220.0,220.0
1,313,6.26,-0.24275,-1.0219,1.3118,0.42116,-0.136,-0.76166,0.82574,0.82434,0.8274,0.82577,0.82437,0.82718,0.52171,0.00831,0.02489,1.0,0.0,0.0,0.0,-0.23517,-0.23517,-1.00948,-1.00948,1.2794,1.2794,0.42272,0.42272,-0.13475,-0.13475,-0.74921,-0.74921,220.0,220.0
1,314,6.28,-0.23574,-1.01277,1.29698,0.42277,-0.13599,-0.75378,0.82575,0.82435,0.82739,0.82577,0.82437,0.82719,0.52171,0.00831,0.02489,1.0,0.0,0.0,0.0,-0.22332,-0.22332,-1.00527,-1.00527,1.27303,1.27303,0.42586,0.42586,-0.13642,-0.13642,-0.74207,-0.74207,220.0,220.0
1,315,6.3,-0.22648,-1.006,1.28602,0.42481,-0.13635,-0.74655,0.82574,0.82432,0.82739,0.82578,0.82441,0.82719,0.52171,0.00831,0.02489,1.0,0.0,-0.0,0.0,-0.21157,-0.21157,-1.00169,-1.00169,1.2675,1.2675,0.42841,0.42841,-0.13722,-0.13722,-0.73583,-0.73583,220.0,220.0
1,316,6.32,-0.21597,-1.00075,1.27735,0.42686,-0.13651,-0.74,0.82573,0.8243,0.82739,0.82577,0.82442,0.82718,0.52171,0.00831,0.02489,1.0,0.0,0.0,0.0,-0.19985,-0.19985,-0.99836,-0.99836,1.26207,1.26207,0.43039,0.43039,-0.13701,-0.13701,-0.7303,-0.7303,220.0,220.0
1,317,6.34,-0.20484,-0.99644,1.27002,0.42872,-0.13616,-0.7341,0.82575,0.82431,0.82741,0.82578,0.82443,0.82719,0.52171,0.00831,0.02489,1.0,0.0,-0.0,0.0,-0.18816,-0.18816,-0.99521,-0.99521,1.25664,1.25664,0.43192,0.43192,-0.13588,-0.13588,-0.72537,-0.72537,220.0,220.0
1,318,6.36,-0.19341,-0.99269,1.26346,0.43032,-0.13517,-0.72878,0.82574,0.82431,0.8274,0.82577,0.82441,0.82718,0.52171,0.00831,0.02489,1.0,0.0,0.0,0.0,-0.1765,-0.1765,-0.99218,-0.99218,1.25118,1.25118,0.43312,0.43312,-0.1339,-0.1339,-0.7209,-0.7209,220.0,220.0
1,319,6.38,-0.18186,-0.98929,1.25733,0.43167,-0.13348,-0.72396,0.82575,0.82432,0.82739,0.82575,0.82439,0.82718,0.52171,0.00831,0.02489,1.0,0.0,-0.0,0.0,-0.16487,-0.16487,-0.98924,-0.98924,1.24565,1.24565,0.43408,0.43408,-0.13117,-0.13117,-0.71682,-0.71682,220.0,220.0
1,320,6.4,-0.17027,-0.98611,1.25141,0.43279,-0.1311,-0.71956,0.82577,0.82435,0.8274,0.82576,0.82439,0.8272,0.52171,0.00831,0.02489,1.0,0.0,0.0,0.0,-0.15327,-0.15327,-0.98636,-0.98636,1.24002,1.24002,0.43487,0.43487,-0.12776,-0.12776,-0.71304,-0.71304,220.0,220.0
1,321,6.42,-0.15867,-0.98306,1.24557,0.43374,-0.12805,-0.71551,0.82578,0.82438,0.82739,0.82576,0.82437,0.82721,0.52171,0.00831,0.02489,1.0,0.0,-0.0,0.0,-0.14169,-0.14169,-0.98349,-0.98349,1.23429,1.23429,0.43554,0.43554,-0.12372,-0.12372,-0.70951,-0.70951,220.0,220.0
1,322,6.44,-0.14709,-0.98009,1.23972,0.43454,-0.12438,-0.71175,0.82578,0.82438,0.82738,0.82574,0.82434,0.82721,0.52171,0.00831,0.02489,1.0,0.0,-0.0,0.0,-0.13014,-0.13014,-0.98063,-0.98063,1.22842,1.22842,0.43613,0.43613,-0.11913,-0.11913,-0.70617,-0.70617,220.0,220.0
1,323,6.46,-0.13553,-0.97715,1.2338,0.43524,-0.12014,-0.70821,0.82579,0.8244,0.82737,0.82573,0.82433,0.82721,0.52171,0.00831,0.02489,1.0,0.0,0.0,0.0,-0.11862,-0.11862,-0.97774,-0.97774,1.22241,1.22241,0.43668,0.43668,-0.11404,-0.11404,-0.70298,-0.70298,220.0,220.0
1,324,6.48,-0.12399,-0.97421,1.22779,0.43587,-0.11538,-0.70487,0.82578,0.82441,0.82736,0.82572,0.8243,0.8272,0.52171,0.00831,0.02489,1.0,0.0,-0.0,0.0,-0.10713,-0.10713,-0.97482,-0.97482,1.21623,1.21623,0.43721,0.43721,-0.1085,-0.1085,-0.69991,-0.69991,220.0,220.0
1,325,6.5,-0.11248,-0.97126,1.22164,0.43646,-0.11014,-0.70167,0.82581,0.82444,0.82737,0.82573,0.82431,0.82723,0.52171,0.00831,0.02489,1.0,0.0,0.0,0.0,-0.09567,-0.09567,-0.97184,-0.97184,1.20988,1.20988,0.43772,0.43772,-0.10255,-0.10255,-0.69693,-0.69693,220.0,220.0
1,326,6.52,-0.10101,-0.96827,1.21534,0.43702,-0.10446,-0.69858,0.8258,0.82444,0.82736,0.82571,0.82428,0.82722,0.52171,0.00831,0.02489,1.0,0.0,-0.0,0.0,-0.08423,-0.08423,-0.9688,-0.9688,1.20335,1.20335,0.43825,0.43825,-0.09624,-0.09624,-0.694,-0.694,220.0,220.0
1,327,6.54,-0.08956,-0.96522,1.20887,0.43757,-0.0984,-0.69558,0.82581,0.82445,0.82735,0.82571,0.82427,0.82723,0.52171,0.00831,0.02489,1.0,0.0,-0.0,0.0,-0.07283,-0.07283,-0.96568,-0.96568,1.19663,1.19663,0.43878,0.43878,-0.0896,-0.0896,-0.69112,-0.69112,220.0,220.0
1,328,6.56,-0.07814,-0.96211,1.20222,0.43812,-0.09198,-0.69263,0.82581,0.82446,0.82735,0.8257,0.82425,0.82723,0.52171,0.00831,0.02489,1.0,0.0,0.0,0.0,-0.06146,-0.06146,-0.96248,-0.96248,1.18972,1.18972,0.43933,0.43933,-0.08267,-0.08267,-0.68825,-0.68825,220.0,220.0
1,329,6.58,-0.06676,-0.95892,1.19538,0.43867,-0.08526,-0.68971,0.82582,0.82448,0.82734,0.8257,0.82424,0.82724,0.52171,0.00831,0.02489,1.0,0.0,0.0,0.0,-0.05012,-0.05012,-0.95919,-0.95919,1.18259,1.18259,0.43988,0.43988,-0.07547,-0.07547,-0.68538,-0.68538,220.0,220.0
1,330,6.6,-0.0554,-0.95564,1.18834,0.43923,-0.07824,-0.68681,0.82582,0.82449,0.82734,0.82569,0.82424,0.82724,0.52171,0.00831,0.02489,1.0,0.0,-0.0,0.0,-0.03881,-0.03881,-0.95581,-0.95581,1.17526,1.17526,0.44045,0.44045,-0.06803,-0.06803,-0.68249,-0.68249,220.0,220.0
1,331,6.62,-0.04408,-0.95228,1.18111,0.4398,-0.07097,-0.6839,0.82582,0.82449,0.82734,0.82569,0.82422,0.82724,0.52171,0.00831,0.02489,1.0,0.0,-0.0,0.0,-0.02754,-0.02754,-0.95232,-0.95232,1.16772,1.16772,0.44103,0.44103,-0.06039,-0.06039,-0.67957,-0.67957,220.0,220.0
1,332,6.64,-0.0328,-0.94881,1.17366,0.44037,-0.06348,-0.68096,0.82582,0.8245,0.82733,0.82568,0.82422,0.82723,0.52171,0.00831,0.02489,1.0,0.0,-0.0,0.0,-0.01631,-0.01631,-0.94873,-0.94873,1.15996,1.15996,0.4416,0.4416,-0.05255,-0.05255,-0.6766,-0.6766,220.0,220.0
1,333,6.66,-0.02155,-0.94525,1.166,0.44094,-0.05577,-0.67799,0.82584,0.82452,0.82734,0.82569,0.82422,0.82725,0.52171,0.00831,0.02489,1.0,0.0,-0.0,0.0,-0.00511,-0.00511,-0.94503,-0.94503,1.15198,1.15198,0.44217,0.44217,-0.04454,-0.04454,-0.67358,-0.67358,220.0,220.0
1,334,6.68,-0.01034,-0.94158,1.15813,0.44151,-0.04788,-0.67497,0.82583,0.82451,0.82733,0.82568,0.8242,0.82724,0.52171,0.00831,0.02489,1.0,0.0,-0.0,0.0,0.00604,0.00604,-0.94122,-0.94122,1.14379,1.14379,0.44273,0.44273,-0.03638,-0.03638,-0.67047,-0.67047,220.0,220.0
1,335,6.7,0.00083,-0.9378,1.15004,0.44207,-0.03983,-0.67188,0.82583,0.82452,0.82734,0.82568,0.8242,0.82724,0.52171,0.00831,0.02489,1.0,0.0,0.0,0.0,0.01716,0.01716,-0.9373,-0.9373,1.13537,1.13537,0.44327,0.44327,-0.02808,-0.02808,-0.66728,-0.66728,220.0,220.0
1,336,6.72,0.01176,-0.9339,1.14208,0.44263,-0.03173,-0.66876,0.82584,0.82453,0.82732,0.82568,0.82419,0.82726,0.52171,0.00831,0.02489,1.0,0.0,0.0,0.0,0.02756,0.02756,-0.9331,-0.9331,1.12771,1.12771,0.44382,0.44382,-0.0199,-0.0199,-0.66413,-0.66413,220.0,220.0
1,337,6.74,0.01934,-0.92981,1.13956,0.44353,-0.02507,-0.66642,0.82583,0.82453,0.82725,0.82568,0.8242,0.82732,0.52171,0.00831,0.02489,1.0,0.0,-0.0,0.0,0.02789,0.02789,-0.92646,-0.92646,1.1347,1.1347,0.44512,0.44512,-0.01531,-0.01531,-0.66293,-0.66293,220.0,220.0
1,338,6.76,0.02357,-0.92466,1.14154,0.44408,-0.01958,-0.6652,0.82582,0.8245,0.82724,0.82569,0.82423,0.82733,0.52171,0.00831,0.02489,1.0,0.0,0.0,0.0,0.02792,0.02792,-0.92036,-0.92036,1.14291,1.14291,0.4451,0.4451,-0.01159,-0.01159,-0.66341,-0.66341,220.0,220.0
1,339,6.78,0.02575,-0.9188,1.14627,0.44383,-0.01496,-0.66521,0.82581,0.82447,0.82724,0.82569,0.82425,0.82732,0.52171,0.00831,0.02489,1.0,0.0,0.0,0.0,0.02793,0.02793,-0.91437,-0.91437,1.15119,1.15119,0.44373,0.44373,-0.0083,-0.0083,-0.66526,-0.66526,220.0,220.0
1,340,6.8,0.02684,-0.91263,1.15253,0.44267,-0.011,-0.66638,0.82582,0.82446,0.82728,0.82572,0.82429,0.82731,0.52171,0.00831,0.02489,1.0,0.0,-0.0,0.0,0.02794,0.02794,-0.90838,-0.90838,1.15936,1.15936,0.44123,0.44123,-0.00535,-0.00535,-0.66819,-0.66819,220.0,220.0
1,341,6.82,0.02739,-0.90639,1.15957,0.44059,-0.00755,-0.66861,0.82581,0.82444,0.82729,0.82573,0.82431,0.82731,0.52171,0.00831,0.02489,1.0,0.0,-0.0,0.0,0.02794,0.02794,-0.90236,-0.90236,1.16739,1.16739,0.43782,0.43782,-0.00267,-0.00267,-0.67196,-0.67196,220.0,220.0
1,342,6.84,0.02766,-0.90015,1.16698,0.43767,-0.0045,-0.67173,0.8258,0.82442,0.8273,0.82573,0.82432,0.82729,0.52171,0.00831,0.02489,1.0,0.0,0.0,0.0,0.02795,0.02795,-0.89627,-0.89627,1.17525,1.17525,0.43367,0.43367,-0.00024,-0.00024,-0.6764,-0.6764,220.0,220.0
1,343,6.86,0.0278,-0.89392,1.17449,0.43401,-0.00179,-0.67558,0.82579,0.8244,0.8273,0.82573,0.82432,0.82728,0.52171,0.00831,0.02489,1.0,0.0,0.0,0.0,0.02795,0.02795,-0.89009,-0.89009,1.18291,1.18291,0.42893,0.42893,0.00199,0.00199,-0.68135,-0.68135,220.0,220.0
1,344,6.88,0.02787,-0.88765,1.18198,0.42972,0.00066,-0.68004,0.82578,0.82438,0.8273,0.82573,0.82433,0.82727,0.52171,0.00831,0.02489,1.0,0.0,-0.0,0.0,0.02795,0.02795,-0.88381,-0.88381,1.19035,1.19035,0.42372,0.42372,0.00403,0.00403,-0.6867,-0.6867,220.0,220.0
1,345,6.9,0.02791,-0.88133,1.18935,0.42491,0.00288,-0.68498,0.82579,0.82439,0.82732,0.82574,0.82435,0.82728,0.52171,0.00831,0.02489,1.0,0.0,0.0,0.0,0.02795,0.02795,-0.87742,-0.87742,1.19755,1.19755,0.41812,0.41812,0.00592,0.00592,-0.69234,-0.69234,220.0,220.0
1,346,6.92,0.02793,-0.87492,1.19655,0.41965,0.0049,-0.69029,0.82578,0.82437,0.82732,0.82574,0.82435,0.82726,0.52171,0.00831,0.02489,1.0,0.0,-0.0,0.0,0.02796,0.02796,-0.87089,-0.87089,1.20452,1.20452,0.41221,0.41221,0.00766,0.00766,-0.69819,-0.69819,220.0,220.0
1,347,6.94,0.02794,-0.8684,1.20355,0.41403,0.00677,-0.69588,0.82577,0.82436,0.82731,0.82574,0.82435,0.82725,0.52171,0.00831,0.02489,1.0,0.0,-0.0,0.0,0.02796,0.02796,-0.86422,-0.86422,1.21124,1.21124,0.40607,0.40607,0.00928,0.00928,-0.7042,-0.7042,220.0,220.0
1,348,6.96,0.02795,-0.86176,1.21033,0.40811,0.00849,-0.70168,0.82578,0.82436,0.82733,0.82575,0.82437,0.82726,0.52171,0.00831,0.02489,1.0,0.0,-0.0,0.0,0.02796,0.02796,-0.85741,-0.85741,1.2177,1.2177,0.39972,0.39972,0.01079,0.01079,-0.71031,-0.71031,220.0,220.0
1,349,6.98,0.02796,-0.85499,1.21686,0.40196,0.01009,-0.70763,0.82578,0.82436,0.82734,0.82576,0.82437,0.82726,0.52171,0.00831,0.02489,1.0,0.0,-0.0,0.0,0.02796,0.02796,-0.85045,-0.85045,1.2239,1.2239,0.39323,0.39323,0.01221,0.01221,-0.71648,-0.71648,220.0,220.0
1,350,7.0,0.02796,-0.84808,1.22315,0.39562,0.01158,-0.71369,0.82577,0.82435,0.82733,0.82575,0.82437,0.82725,0.52171,0.00831,0.02489,1.0,0.0,0.0,0.0,0.02796,0.02796,-0.84335,-0.84335,1.22984,1.22984,0.38661,0.38661,0.01353,0.01353,-0.72268,-0.72268,220.0,220.0
1,351,7.02,0.02796,-0.84102,1.22919,0.38913,0.01297,-0.7198,0.82578,0.82435,0.82734,0.82576,0.82438,0.82725,0.52171,0.00831,0.02489,1.0,0.0,-0.0,0.0,0.02796,0.02796,-0.83609,-0.83609,1.23551,1.23551,0.37989,0.37989,0.01478,0.01478,-0.72889,-0.72889,220.0,220.0
1,352,7.04,0.02796,-0.83381,1.23497,0.38251,0.01428,-0.72595,0.82577,0.82435,0.82733,0.82575,0.82438,0.82725,0.52171,0.00831,0.02489,1.0,0.0,0.0,0.0,0.02796,0.02796,-0.82868,-0.82868,1.24092,1.24092,0.3731,0.3731,0.01595,0.01595,-0.73508,-0.73508,220.0,220.0
1,353,7.06,0.02796,-0.82646,1.24048,0.37581,0.01551,-0.7321,0.82576,0.82434,0.82733,0.82575,0.82438,0.82724,0.52171,0.00831,0.02489,1.0,0.0,-0.0,0.0,0.02796,0.02796,-0.82112,-0.82112,1.24607,1.24607,0.36626,0.36626,0.01706,0.01706,-0.74123,-0.74123,220.0,220.0
1,354,7.08,0.02796,-0.81895,1.24573,0.36902,0.01667,-0.73823,0.82576,0.82434,0.82733,0.82575,0.82438,0.82724,0.52171,0.00831,0.02489,1.0,0.0,0.0,0.0,0.02796,0.02796,-0.8134,-0.8134,1.25094,1.25094,0.35937,0.35937,0.01812,0.01812,-0.74734,-0.74734,220.0,220.0
1,355,7.1,0.02796,-0.8113,1.25072,0.36219,0.01776,-0.74433,0.82576,0.82434,0.82733,0.82575,0.82438,0.82724,0.52171,0.00831,0.02489,1.0,0.0,-0.0,0.0,0.02796,0.02796,-0.80554,-0.80554,1.25556,1.25556,0.35246,0.35246,0.01912,0.01912,-0.75339,-0.75339,220.0,220.0
1,356,7.12,0.02796,-0.80349,1.25544,0.35531,0.0188,-0.75038,0.82577,0.82434,0.82734,0.82576,0.82439,0.82724,0.52171,0.00831,0.02489,1.0,0.0,-0.0,0.0,0.02796,0.02796,-0.79754,-0.79754,1.25991,1.25991,0.34552,0.34552,0.02007,0.02007,-0.75937,-0.75937,220.0,220.0
1,357,7.14,0.02796,-0.79554,1.2599,0.3484,0.01979,-0.75637,0.82576,0.82434,0.82734,0.82576,0.82439,0.82724,0.52171,0.00831,0.02489,1.0,0.0,0.0,0.0,0.02796,0.02796,-0.78938,-0.78938,1.26399,1.26399,0.33857,0.33857,0.02098,0.02098,-0.76527,-0.76527,220.0,220.0
1,358,7.16,0.02796,-0.78744,1.26409,0.34147,0.02073,-0.7623,0.82576,0.82433,0.82733,0.82575,0.82438,0.82723,0.52171,0.00831,0.02489,1.0,0.0,-0.0,0.0,0.02796,0.02796,-0.78109,-0.78109,1.26781,1.26781,0.33161,0.33161,0.02185,0.02185,-0.7711,-0.7711,220.0,220.0
1,359,7.18,0.02796,-0.7792,1.26802,0.33453,0.02163,-0.76815,0.82577,0.82434,0.82735,0.82577,0.8244,0.82725,0.52171,0.00831,0.02489,1.0,0.0,-0.0,0.0,0.02796,0.02796,-0.77265,-0.77265,1.27137,1.27137,0.32465,0.32465,0.02269,0.02269,-0.77684,-0.77684,220.0,220.0
1,360,7.2,0.02584,-0.77327,1.27334,0.32864,0.02144,-0.77385,0.82575,0.82432,0.82729,0.82576,0.82439,0.82727,0.52171,0.00831,0.02489,1.0,0.0,0.0,0.0,0.02121,0.02121,-0.77181,-0.77181,1.27806,1.27806,0.32049,0.32049,0.02077,0.02077,-0.78232,-0.78232,220.0,220.0
1,361,7.22,0.0203,-0.77111,1.28022,0.3242,0.01975,-0.77936,0.82574,0.8243,0.82726,0.82576,0.8244,0.82729,0.52171,0.00831,0.02489,1.0,0.0,0.0,0.0,0.0102,0.0102,-0.77575,-0.77575,1.28705,1.28705,0.31826,0.31826,0.01682,0.01682,-0.78755,-0.78755,220.0,220.0
1,362,7.24,0.01215,-0.77176,1.28781,0.32077,0.01696,-0.78467,0.82574,0.82429,0.82728,0.82578,0.82444,0.8273,0.52171,0.00831,0.02489,1.0,0.0,0.0,0.0,-0.001,-0.001,-0.77968,-0.77968,1.29605,1.29605,0.31623,0.31623,0.01246,0.01246,-0.79255,-0.79255,220.0,220.0
1,363,7.26,0.00249,-0.77395,1.2957,0.31796,0.01341,-0.78977,0.82573,0.82426,0.82728,0.82578,0.82445,0.82728,0.52171,0.00831,0.02489,1.0,0.0,-0.0,0.0,-0.01226,-0.01226,-0.78341,-0.78341,1.30475,1.30475,0.31428,0.31428,0.00782,0.00782,-0.79733,-0.79733,220.0,220.0
1,364,7.28,-0.00796,-0.77685,1.30371,0.31553,0.00932,-0.79465,0.82573,0.82424,0.8273,0.82579,0.82447,0.82727,0.52171,0.00831,0.02489,1.0,0.0,0.0,0.0,-0.02356,-0.02356,-0.78695,-0.78695,1.31314,1.31314,0.31238,0.31238,0.00295,0.00295,-0.80191,-0.80191,220.0,220.0
1,365,7.3,-0.01885,-0.78003,1.31171,0.31334,0.00483,-0.79934,0.82573,0.82424,0.82731,0.82579,0.82448,0.82726,0.52171,0.00831,0.02489,1.0,0.0,0.0,0.0,-0.0349,-0.0349,-0.79031,-0.79031,1.32121,1.32121,0.31052,0.31052,-0.00213,-0.00213,-0.80629,-0.80629,220.0,220.0
1,366,7.32,-0.02997,-0.78325,1.3196,0.3113,1e-05,-0.80383,0.82574,0.82424,0.82733,0.82581,0.8245,0.82727,0.52171,0.00831,0.02489,1.0,0.0,-0.0,0.0,-0.04629,-0.04629,-0.79349,-0.79349,1.32898,1.32898,0.30869,0.30869,-0.00742,-0.00742,-0.81048,-0.81048,220.0,220.0
1,367,7.34,-0.04123,-0.78641,1.32731,0.30935,-0.00506,-0.80812,0.82572,0.82422,0.82731,0.82579,0.8245,0.82725,0.52171,0.00831,0.02489,1.0,0.0,0.0,0.0,-0.05771,-0.05771,-0.79649,-0.79649,1.33646,1.33646,0.30688,0.30688,-0.01288,-0.01288,-0.81449,-0.81449,220.0,220.0
1,368,7.36,-0.05258,-0.78946,1.33481,0.30746,-0.01036,-0.81222,0.82573,0.82422,0.82733,0.82581,0.82451,0.82726,0.52171,0.00831,0.02489,1.0,0.0,-0.0,0.0,-0.06917,-0.06917,-0.79934,-0.79934,1.34364,1.34364,0.30508,0.30508,-0.0185,-0.0185,-0.81831,-0.81831,220.0,220.0
1,369,7.38,-0.06399,-0.79237,1.34206,0.30561,-0.01585,-0.81614,0.82572,0.82421,0.82733,0.8258,0.82451,0.82725,0.52171,0.00831,0.02489,1.0,0.0,-0.0,0.0,-0.08065,-0.08065,-0.80202,-0.80202,1.35054,1.35054,0.30328,0.30328,-0.02426,-0.02426,-0.82195,-0.82195,220.0,220.0
1,370,7.4,-0.07544,-0.79513,1.34906,0.30378,-0.0215,-0.81987,0.82571,0.8242,0.82731,0.82579,0.8245,0.82724,0.52171,0.00831,0.02489,1.0,0.0,0.0,0.0,-0.09216,-0.09216,-0.80455,-0.80455,1.35716,1.35716,0.30148,0.30148,-0.03015,-0.03015,-0.8254,-0.8254,220.0,220.0
1,371,7.42,-0.08693,-0.79774,1.35579,0.30195,-0.02729,-0.82341,0.82572,0.82421,0.82734,0.82582,0.82453,0.82725,0.52171,0.00831,0.02489,1.0,0.0,-0.0,0.0,-0.1037,-0.1037,-0.80693,-0.80693,1.36351,1.36351,0.29966,0.29966,-0.03617,-0.03617,-0.82867,-0.82867,220.0,220.0
1,372,7.44,-0.09845,-0.80021,1.36225,0.30011,-0.03322,-0.82677,0.82572,0.82421,0.82734,0.82581,0.82453,0.82725,0.52171,0.00831,0.02489,1.0,0.0,0.0,0.0,-0.11526,-0.11526,-0.80917,-0.80917,1.36958,1.36958,0.29782,0.29782,-0.04229,-0.04229,-0.83175,-0.83175,220.0,220.0
1,373,7.46,-0.10999,-0.80253,1.36844,0.29826,-0.03926,-0.82994,0.82573,0.82421,0.82735,0.82582,0.82454,0.82725,0.52171,0.00831,0.02489,1.0,0.0,-0.0,0.0,-0.12684,-0.12684,-0.81127,-0.81127,1.37538,1.37538,0.29595,0.29595,-0.04851,-0.04851,-0.83464,-0.83464,220.0,220.0
1,374,7.48,-0.12156,-0.80472,1.37436,0.29639,-0.04542,-0.83292,0.82572,0.82421,0.82734,0.82582,0.82454,0.82725,0.52171,0.00831,0.02489,1.0,0.0,0.0,0.0,-0.13843,-0.13843,-0.81323,-0.81323,1.38091,1.38091,0.29404,0.29404,-0.05482,-0.05482,-0.83733,-0.83733,220.0,220.0
1,375,7.5,-0.13314,-0.80676,1.38002,0.29448,-0.05166,-0.8357,0.8257,0.82419,0.82733,0.8258,0.82452,0.82723,0.52171,0.00831,0.02489,1.0,0.0,0.0,0.0,-0.15004,-0.15004,-0.81505,-0.81505,1.38618,1.38618,0.29208,0.29208,-0.06121,-0.06121,-0.83982,-0.83982,220.0,220.0
1,376,7.52,-0.14473,-0.80867,1.38541,0.29253,-0.058,-0.83828,0.82571,0.8242,0.82734,0.82582,0.82453,0.82724,0.52171,0.00831,0.02489,1.0,0.0,-0.0,0.0,-0.16165,-0.16165,-0.81675,-0.81675,1.39118,1.39118,0.29008,0.29008,-0.06768,-0.06768,-0.84211,-0.84211,220.0,220.0
