ikatsov/phy-harness/artifacts/path_tracing/joints.csv
episode,sim_step,time_sec,shoulder_pan_joint,shoulder_lift_joint,elbow_joint,wrist_1_joint,wrist_2_joint,wrist_3_joint,left_driver_joint,left_spring_link_joint,left_follower,right_driver_joint,right_spring_link_joint,right_follower_joint,grasp_box_free.px,grasp_box_free.py,grasp_box_free.pz,grasp_box_free.qw,grasp_box_free.qx,grasp_box_free.qy,grasp_box_free.qz,target_a_shoulder_pan,ctrl_a_shoulder_pan,target_a_shoulder_lift,ctrl_a_shoulder_lift,target_a_elbow,ctrl_a_elbow,target_a_wrist_1,ctrl_a_wrist_1,target_a_wrist_2,ctrl_a_wrist_2,target_a_wrist_3,ctrl_a_wrist_3,target_a_gripper,ctrl_a_gripper
1,0,0.0,0.0,0.0,0.0,0.0,0.0,0.0,0.0,0.0,0.0,0.0,0.0,0.0,0.52171,0.00831,0.035,1.0,0.0,0.0,0.0,-1.5708,-1.5708,-1.5708,-1.5708,1.5708,1.5708,-1.5708,-1.5708,-1.5708,-1.5708,0.0,0.0,0.0,0.0
1,1,0.02,-0.00023,-0.00018,0.00616,0.0143,-0.0142,-0.00078,-0.017,-0.01459,-0.0161,-0.017,-0.01452,-0.01491,0.52171,0.00831,0.03284,1.0,0.0,0.0,0.0,0.00029,0.00029,-0.00254,-0.00254,0.00266,0.00266,0.00746,0.00746,-0.00735,-0.00735,-0.00084,-0.00084,0.0,0.0
1,2,0.04,0.00018,0.00306,0.01073,0.01853,-0.01817,-0.00487,-0.00525,-0.00601,-0.00573,-0.00525,-0.00603,-0.00578,0.52171,0.00831,0.02676,1.0,0.0,0.0,0.0,0.00051,0.00051,-0.00541,-0.00541,0.00597,0.00597,0.01636,0.01636,-0.01605,-0.01605,-0.00267,-0.00267,0.0,0.0
1,3,0.06,0.00073,0.00301,0.01897,0.03247,-0.03087,-0.00493,-0.00518,-0.00529,-0.00581,-0.00519,-0.00527,-0.00469,0.52171,0.00831,0.02179,1.0,0.0,-0.0,0.0,0.00071,0.00071,-0.00837,-0.00837,0.0095,0.0095,0.02559,0.02559,-0.02487,-0.02487,-0.00538,-0.00538,0.0,0.0
1,4,0.08,0.00162,0.00144,0.01952,0.03747,-0.03689,-0.01224,-0.0052,-0.0052,-0.00518,-0.0052,-0.00522,-0.00522,0.52171,0.00831,0.02253,1.0,0.0,-0.0,0.0,0.00091,0.00091,-0.01137,-0.01137,0.01318,0.01318,0.03496,0.03496,-0.03355,-0.03355,-0.00892,-0.00892,0.0,0.0
1,5,0.1,0.00197,-0.00718,0.02518,0.05157,-0.0464,-0.01394,-0.0052,-0.00522,-0.00572,-0.00521,-0.00519,-0.0047,0.52171,0.00831,0.0236,1.0,0.0,-0.0,-0.0,0.00111,0.00111,-0.01441,-0.01441,0.01701,0.01701,0.04441,0.04441,-0.04201,-0.04201,-0.0132,-0.0132,0.0,0.0
1,6,0.12,0.00198,-0.0139,0.02203,0.0558,-0.05451,-0.02127,-0.0052,-0.00519,-0.0053,-0.00521,-0.00521,-0.00509,0.52171,0.00831,0.02426,1.0,0.0,-0.0,-0.0,0.00133,0.00133,-0.01749,-0.01749,0.021,0.021,0.05397,0.05397,-0.05024,-0.05024,-0.01817,-0.01817,0.0,0.0
1,7,0.14,0.00142,-0.02228,0.02897,0.07126,-0.06156,-0.02607,-0.0052,-0.00521,-0.00548,-0.00521,-0.0052,-0.00493,0.52171,0.00831,0.0246,1.0,0.0,-0.0,-0.0,0.00155,0.00155,-0.02062,-0.02062,0.02518,0.02518,0.06363,0.06363,-0.05822,-0.05822,-0.02379,-0.02379,0.0,0.0
1,8,0.16,0.00115,-0.02283,0.02952,0.07499,-0.07003,-0.03341,-0.0052,-0.00521,-0.00551,-0.00521,-0.0052,-0.0049,0.52171,0.00831,0.02476,1.0,0.0,-0.0,-0.0,0.00178,0.00178,-0.02381,-0.02381,0.02954,0.02954,0.07339,0.07339,-0.06594,-0.06594,-0.02999,-0.02999,0.0,0.0
1,9,0.18,0.00123,-0.02321,0.04063,0.09087,-0.07707,-0.03899,-0.0052,-0.00519,-0.0052,-0.0052,-0.00521,-0.0052,0.52171,0.00831,0.02483,1.0,0.0,-0.0,-0.0,0.00201,0.00201,-0.02705,-0.02705,0.03411,0.03411,0.08326,0.08326,-0.07339,-0.07339,-0.03675,-0.03675,0.0,0.0
1,10,0.2,0.00214,-0.01986,0.04485,0.09546,-0.08329,-0.04882,-0.0052,-0.00522,-0.00565,-0.00521,-0.00519,-0.00477,0.52171,0.00831,0.02486,1.0,0.0,-0.0,-0.0,0.00225,0.00225,-0.03037,-0.03037,0.0389,0.0389,0.09322,0.09322,-0.08058,-0.08058,-0.04403,-0.04403,0.0,0.0
1,11,0.22,0.00311,-0.02192,0.05419,0.11057,-0.09239,-0.05357,-0.00521,-0.00518,-0.00511,-0.0052,-0.00522,-0.00527,0.52171,0.00831,0.02488,1.0,0.0,0.0,-0.0,0.0025,0.0025,-0.03375,-0.03375,0.04391,0.04391,0.10327,0.10327,-0.0875,-0.0875,-0.0518,-0.0518,0.0,0.0
1,12,0.24,0.00399,-0.02635,0.05632,0.11598,-0.0952,-0.06542,-0.0052,-0.00522,-0.00562,-0.00521,-0.00518,-0.0048,0.52171,0.00831,0.02489,1.0,0.0,0.0,-0.0,0.00275,0.00275,-0.03722,-0.03722,0.04916,0.04916,0.1134,0.1134,-0.09415,-0.09415,-0.06004,-0.06004,0.0,0.0
1,13,0.26,0.00392,-0.03572,0.06098,0.13096,-0.10632,-0.07166,-0.0052,-0.00518,-0.00521,-0.0052,-0.00522,-0.00518,0.52171,0.00831,0.02489,1.0,0.0,0.0,-0.0,0.003,0.003,-0.04076,-0.04076,0.05467,0.05467,0.1236,0.1236,-0.10054,-0.10054,-0.06871,-0.06871,0.0,0.0
1,14,0.28,0.00349,-0.04375,0.06283,0.13612,-0.1067,-0.0823,-0.0052,-0.00521,-0.00544,-0.00521,-0.00519,-0.00497,0.52171,0.00831,0.02489,1.0,0.0,0.0,-0.0,0.00325,0.00325,-0.04439,-0.04439,0.06043,0.06043,0.13387,0.13387,-0.10666,-0.10666,-0.07779,-0.07779,0.0,0.0
1,15,0.3,0.00272,-0.04961,0.06953,0.1518,-0.11837,-0.09203,-0.0052,-0.00519,-0.00532,-0.00521,-0.00521,-0.00507,0.52171,0.00831,0.02489,1.0,0.0,0.0,-0.0,0.00351,0.00351,-0.04811,-0.04811,0.06647,0.06647,0.14418,0.14418,-0.11253,-0.11253,-0.08727,-0.08727,0.0,0.0
1,16,0.32,0.00282,-0.05001,0.07595,0.15676,-0.11794,-0.1012,-0.0052,-0.00521,-0.00524,-0.0052,-0.0052,-0.00516,0.52171,0.00831,0.02489,1.0,0.0,0.0,-0.0,0.00376,0.00376,-0.05193,-0.05193,0.07279,0.07279,0.15453,0.15453,-0.11813,-0.11813,-0.09712,-0.09712,0.0,0.0
1,17,0.34,0.00347,-0.04935,0.08749,0.17219,-0.12871,-0.11212,-0.0052,-0.0052,-0.00542,-0.00521,-0.00521,-0.00498,0.52171,0.00831,0.02489,1.0,0.0,-0.0,-0.0,0.00402,0.00402,-0.05586,-0.05586,0.07941,0.07941,0.16489,0.16489,-0.12349,-0.12349,-0.10733,-0.10733,0.0,0.0
1,18,0.36,0.00487,-0.04813,0.09444,0.17807,-0.12879,-0.12326,-0.00521,-0.0052,-0.00511,-0.0052,-0.00521,-0.00528,0.52171,0.00831,0.02489,1.0,0.0,-0.0,-0.0,0.00428,0.00428,-0.05989,-0.05989,0.08632,0.08632,0.17527,0.17527,-0.1286,-0.1286,-0.11787,-0.11787,0.0,0.0
1,19,0.38,0.0058,-0.05307,0.10496,0.19238,-0.13748,-0.13237,-0.0052,-0.00521,-0.00551,-0.00521,-0.0052,-0.0049,0.52171,0.00831,0.02489,1.0,0.0,-0.0,-0.0,0.00454,0.00454,-0.06403,-0.06403,0.09356,0.09356,0.18563,0.18563,-0.13345,-0.13345,-0.12874,-0.12874,0.0,0.0
1,20,0.4,0.00615,-0.05992,0.10735,0.19893,-0.13925,-0.14673,-0.00521,-0.00519,-0.00507,-0.0052,-0.00521,-0.00532,0.52171,0.00831,0.02489,1.0,0.0,-0.0,-0.0,0.0048,0.0048,-0.06829,-0.06829,0.10112,0.10112,0.19597,0.19597,-0.13807,-0.13807,-0.13991,-0.13991,0.0,0.0
1,21,0.42,0.00545,-0.07128,0.11603,0.21329,-0.14491,-0.15504,-0.0052,-0.00521,-0.00546,-0.00521,-0.00519,-0.00495,0.52171,0.00831,0.02489,1.0,0.0,-0.0,-0.0,0.00506,0.00506,-0.07268,-0.07268,0.10901,0.10901,0.20626,0.20626,-0.14244,-0.14244,-0.15138,-0.15138,0.0,0.0
1,22,0.44,0.00471,-0.07797,0.11898,0.21873,-0.14883,-0.16979,-0.00521,-0.00519,-0.00513,-0.0052,-0.00521,-0.00526,0.52171,0.00831,0.02489,1.0,0.0,-0.0,-0.0,0.00532,0.00532,-0.0772,-0.0772,0.11726,0.11726,0.21649,0.21649,-0.14656,-0.14656,-0.16312,-0.16312,0.0,0.0
1,23,0.46,0.00433,-0.08322,0.13171,0.23438,-0.15173,-0.17995,-0.0052,-0.0052,-0.00523,-0.0052,-0.0052,-0.00518,0.52171,0.00831,0.02489,1.0,0.0,-0.0,-0.0,0.00557,0.00557,-0.08185,-0.08185,0.12586,0.12586,0.22664,0.22664,-0.15045,-0.15045,-0.17512,-0.17512,0.0,0.0
1,24,0.48,0.00511,-0.08215,0.13996,0.23826,-0.15643,-0.19347,-0.0052,-0.0052,-0.00533,-0.00521,-0.0052,-0.00507,0.52171,0.00831,0.02489,1.0,0.0,-0.0,-0.0,0.00583,0.00583,-0.08665,-0.08665,0.13482,0.13482,0.23669,0.23669,-0.15408,-0.15408,-0.18737,-0.18737,0.0,0.0
1,25,0.5,0.00637,-0.08303,0.15541,0.25407,-0.15877,-0.20498,-0.00521,-0.00519,-0.00496,-0.0052,-0.00522,-0.00543,0.52171,0.00831,0.02489,1.0,0.0,-0.0,-0.0,0.00608,0.00608,-0.0916,-0.0916,0.14416,0.14416,0.24663,0.24663,-0.15748,-0.15748,-0.19985,-0.19985,0.0,0.0
1,26,0.52,0.00772,-0.0847,0.1637,0.2584,-0.16169,-0.2192,-0.0052,-0.00521,-0.00553,-0.00521,-0.00519,-0.00489,0.52171,0.00831,0.02489,1.0,0.0,-0.0,-0.0,0.00633,0.00633,-0.0967,-0.0967,0.15388,0.15388,0.25642,0.25642,-0.16062,-0.16062,-0.21254,-0.21254,0.0,0.0
1,27,0.54,0.00802,-0.09321,0.17553,0.27237,-0.16596,-0.23005,-0.00521,-0.00517,-0.00485,-0.0052,-0.00522,-0.00552,0.52171,0.00831,0.02489,1.0,0.0,-0.0,-0.0,0.00658,0.00658,-0.10196,-0.10196,0.16399,0.16399,0.26606,0.26606,-0.16351,-0.16351,-0.22543,-0.22543,0.0,0.0
1,28,0.56,0.00754,-0.1031,0.181,0.27837,-0.16557,-0.24584,-0.0052,-0.00522,-0.00551,-0.00521,-0.00519,-0.00491,0.52171,0.00831,0.02489,1.0,0.0,-0.0,-0.0,0.00682,0.00682,-0.10739,-0.10739,0.1745,0.1745,0.27552,0.27552,-0.16615,-0.16615,-0.23851,-0.23851,0.0,0.0
1,29,0.58,0.00644,-0.11442,0.19175,0.29047,-0.17205,-0.25687,-0.00521,-0.00518,-0.00492,-0.0052,-0.00522,-0.00546,0.52171,0.00831,0.02489,1.0,0.0,-0.0,-0.0,0.00706,0.00706,-0.11299,-0.11299,0.1854,0.1854,0.28478,0.28478,-0.16852,-0.16852,-0.25175,-0.25175,0.0,0.0
1,30,0.6,0.00605,-0.12067,0.20077,0.29665,-0.16908,-0.27168,-0.0052,-0.00521,-0.00529,-0.00521,-0.00519,-0.00512,0.52171,0.00831,0.02489,1.0,0.0,-0.0,-0.0,0.0073,0.0073,-0.11876,-0.11876,0.1967,0.1967,0.29383,0.29383,-0.17063,-0.17063,-0.26514,-0.26514,0.0,0.0
1,31,0.62,0.0065,-0.12383,0.21609,0.3083,-0.17593,-0.28522,-0.00521,-0.00519,-0.00506,-0.0052,-0.00522,-0.00533,0.52171,0.00831,0.02489,1.0,0.0,-0.0,-0.0,0.00753,0.00753,-0.1247,-0.1247,0.2084,0.2084,0.30263,0.30263,-0.17247,-0.17247,-0.27865,-0.27865,0.0,0.0
1,32,0.64,0.00798,-0.12398,0.22991,0.31316,-0.1723,-0.29779,-0.00521,-0.0052,-0.0051,-0.0052,-0.0052,-0.0053,0.52171,0.00831,0.02489,1.0,0.0,-0.0,-0.0,0.00775,0.00775,-0.13083,-0.13083,0.2205,0.2205,0.31118,0.31118,-0.17402,-0.17402,-0.29228,-0.29228,0.0,0.0
1,33,0.66,0.00924,-0.12685,0.24587,0.3248,-0.17773,-0.3128,-0.0052,-0.0052,-0.00518,-0.0052,-0.00521,-0.00521,0.52171,0.00831,0.02489,1.0,0.0,-0.0,-0.0,0.00797,0.00797,-0.13713,-0.13713,0.23298,0.23298,0.31944,0.31944,-0.17529,-0.17529,-0.306,-0.306,0.0,0.0
1,34,0.68,0.00981,-0.13355,0.25752,0.3292,-0.17506,-0.32609,-0.00521,-0.00519,-0.00501,-0.0052,-0.00521,-0.00538,0.52171,0.00831,0.02489,1.0,0.0,-0.0,-0.0,0.00818,0.00818,-0.14362,-0.14362,0.24585,0.24585,0.32742,0.32742,-0.17627,-0.17627,-0.3198,-0.3198,0.0,0.0
1,35,0.7,0.00914,-0.14528,0.26972,0.33979,-0.17814,-0.33914,-0.0052,-0.0052,-0.00522,-0.0052,-0.0052,-0.00518,0.52171,0.00831,0.02489,1.0,0.0,-0.0,-0.0,0.00839,0.00839,-0.15028,-0.15028,0.25909,0.25909,0.33508,0.33508,-0.17695,-0.17695,-0.33364,-0.33364,0.0,0.0
1,36,0.72,0.00809,-0.15728,0.27933,0.34468,-0.17715,-0.35532,-0.00521,-0.00519,-0.00496,-0.0052,-0.00522,-0.00543,0.52171,0.00831,0.02489,1.0,0.0,-0.0,-0.0,0.00859,0.00859,-0.15713,-0.15713,0.27269,0.27269,0.34242,0.34242,-0.17733,-0.17733,-0.34751,-0.34751,0.0,0.0
1,37,0.74,0.0074,-0.16753,0.29345,0.35362,-0.17718,-0.36625,-0.00521,-0.0052,-0.00515,-0.0052,-0.0052,-0.00525,0.52171,0.00831,0.02489,1.0,0.0,-0.0,-0.0,0.00879,0.00879,-0.16414,-0.16414,0.28662,0.28662,0.34941,0.34941,-0.17739,-0.17739,-0.36139,-0.36139,0.0,0.0
1,38,0.76,0.00792,-0.17212,0.30745,0.35813,-0.17785,-0.38279,-0.00521,-0.00519,-0.005,-0.0052,-0.00522,-0.00539,0.52171,0.00831,0.02489,1.0,0.0,-0.0,-0.0,0.00897,0.00897,-0.17132,-0.17132,0.30087,0.30087,0.35606,0.35606,-0.17715,-0.17715,-0.37525,-0.37525,0.0,0.0
1,39,0.78,0.00925,-0.17475,0.32648,0.36599,-0.17496,-0.39494,-0.00521,-0.0052,-0.00499,-0.0052,-0.00521,-0.0054,0.52171,0.00831,0.02489,1.0,0.0,-0.0,-0.0,0.00915,0.00915,-0.17867,-0.17867,0.31541,0.31541,0.36235,0.36235,-0.17659,-0.17659,-0.38907,-0.38907,0.0,0.0
1,40,0.8,0.01066,-0.17685,0.34249,0.36974,-0.17644,-0.40881,-0.0052,-0.00519,-0.00517,-0.0052,-0.00521,-0.00523,0.52171,0.00831,0.02489,1.0,0.0,-0.0,-0.0,0.00933,0.00933,-0.18616,-0.18616,0.33022,0.33022,0.36828,0.36828,-0.17572,-0.17572,-0.40282,-0.40282,0.0,0.0
1,41,0.82,0.01108,-0.18414,0.35946,0.3765,-0.17248,-0.4233,-0.00521,-0.00519,-0.0048,-0.0052,-0.00521,-0.00558,0.52171,0.00831,0.02489,1.0,0.0,-0.0,-0.0,0.00949,0.00949,-0.1938,-0.1938,0.34526,0.34526,0.37384,0.37384,-0.17453,-0.17453,-0.4165,-0.4165,0.0,0.0
1,42,0.84,0.0104,-0.19528,0.3718,0.38111,-0.17297,-0.43568,-0.0052,-0.0052,-0.00531,-0.00521,-0.0052,-0.00509,0.52171,0.00831,0.02489,1.0,0.0,-0.0,-0.0,0.00965,0.00965,-0.20157,-0.20157,0.36051,0.36051,0.37903,0.37903,-0.17305,-0.17305,-0.43006,-0.43006,0.0,0.0
1,43,0.86,0.00919,-0.20927,0.38492,0.38527,-0.17007,-0.44986,-0.00521,-0.00518,-0.00468,-0.0052,-0.00522,-0.00569,0.52171,0.00831,0.02489,1.0,0.0,-0.0,-0.0,0.0098,0.0098,-0.20945,-0.20945,0.37593,0.37593,0.38387,0.38387,-0.17127,-0.17127,-0.44349,-0.44349,0.0,0.0
1,44,0.88,0.0085,-0.22098,0.39853,0.39162,-0.16797,-0.46305,-0.0052,-0.00521,-0.00528,-0.00521,-0.0052,-0.00514,0.52171,0.00831,0.02489,1.0,0.0,-0.0,-0.0,0.00995,0.00995,-0.21744,-0.21744,0.39148,0.39148,0.38834,0.38834,-0.1692,-0.1692,-0.45677,-0.45677,0.0,0.0
1,45,0.9,0.00906,-0.22792,0.41409,0.39282,-0.16637,-0.47569,-0.00521,-0.00518,-0.00474,-0.0052,-0.00522,-0.00563,0.52171,0.00831,0.02489,1.0,0.0,-0.0,-0.0,0.01009,0.01009,-0.22552,-0.22552,0.40713,0.40713,0.39247,0.39247,-0.16685,-0.16685,-0.46987,-0.46987,0.0,0.0
1,46,0.92,0.01042,-0.23164,0.43397,0.39918,-0.16209,-0.48862,-0.00521,-0.0052,-0.00512,-0.0052,-0.0052,-0.00528,0.52171,0.00831,0.02489,1.0,0.0,0.0,-0.0,0.01023,0.01023,-0.23367,-0.23367,0.42285,0.42285,0.39626,0.39626,-0.16425,-0.16425,-0.48279,-0.48279,0.0,0.0
1,47,0.94,0.01182,-0.23352,0.45013,0.39975,-0.1605,-0.50184,-0.00521,-0.00519,-0.00492,-0.0052,-0.00521,-0.00547,0.52171,0.00831,0.02489,1.0,0.0,-0.0,-0.0,0.01036,0.01036,-0.24188,-0.24188,0.43859,0.43859,0.39973,0.39973,-0.16141,-0.16141,-0.49549,-0.49549,0.0,0.0
1,48,0.96,0.01198,-0.24114,0.47024,0.40452,-0.15609,-0.51252,-0.00521,-0.00519,-0.00498,-0.0052,-0.00521,-0.00541,0.52171,0.00831,0.02489,1.0,0.0,0.0,-0.0,0.01049,0.01049,-0.25013,-0.25013,0.45434,0.45434,0.40289,0.40289,-0.15834,-0.15834,-0.50797,-0.50797,0.0,0.0
1,49,0.98,0.01123,-0.25086,0.48017,0.40612,-0.15339,-0.52695,-0.00521,-0.0052,-0.00501,-0.0052,-0.00521,-0.00538,0.52171,0.00831,0.02489,1.0,0.0,-0.0,-0.0,0.01062,0.01062,-0.25841,-0.25841,0.47005,0.47005,0.40576,0.40576,-0.15508,-0.15508,-0.5202,-0.5202,0.0,0.0
1,50,1.0,0.00982,-0.2668,0.49749,0.40988,-0.1501,-0.53681,-0.00521,-0.00519,-0.00489,-0.0052,-0.00522,-0.00549,0.52171,0.00831,0.02489,1.0,0.0,0.0,-0.0,0.01075,0.01075,-0.26671,-0.26671,0.48569,0.48569,0.40836,0.40836,-0.15164,-0.15164,-0.53219,-0.53219,0.0,0.0
1,51,1.02,0.00947,-0.27758,0.50562,0.4109,-0.14581,-0.54952,-0.00521,-0.0052,-0.00503,-0.0052,-0.00521,-0.00537,0.52171,0.00831,0.02489,1.0,0.0,0.0,-0.0,0.01087,0.01087,-0.27501,-0.27501,0.50124,0.50124,0.4107,0.4107,-0.14804,-0.14804,-0.54391,-0.54391,0.0,0.0
1,52,1.04,0.01003,-0.28754,0.52633,0.41495,-0.14338,-0.56108,-0.00521,-0.00519,-0.00487,-0.0052,-0.00522,-0.00552,0.52171,0.00831,0.02489,1.0,0.0,0.0,-0.0,0.011,0.011,-0.28329,-0.28329,0.51667,0.51667,0.41281,0.41281,-0.14431,-0.14431,-0.55535,-0.55535,0.0,0.0
1,53,1.06,0.01178,-0.28923,0.53903,0.41381,-0.13745,-0.57088,-0.00521,-0.0052,-0.00506,-0.0052,-0.0052,-0.00533,0.52171,0.00831,0.02489,1.0,0.0,0.0,-0.0,0.01112,0.01112,-0.29155,-0.29155,0.53196,0.53196,0.4147,0.4147,-0.14047,-0.14047,-0.56652,-0.56652,0.0,0.0
1,54,1.08,0.01274,-0.29337,0.5617,0.41829,-0.13574,-0.58286,-0.00521,-0.00519,-0.00488,-0.0052,-0.00522,-0.0055,0.52171,0.00831,0.02489,1.0,0.0,-0.0,-0.0,0.01125,0.01125,-0.29977,-0.29977,0.5471,0.5471,0.41639,0.41639,-0.13656,-0.13656,-0.5774,-0.5774,0.0,0.0
1,55,1.1,0.01288,-0.29761,0.57382,0.41643,-0.12882,-0.59286,-0.00521,-0.0052,-0.00506,-0.0052,-0.0052,-0.00533,0.52171,0.00831,0.02489,1.0,0.0,0.0,-0.0,0.01138,0.01138,-0.30795,-0.30795,0.56205,0.56205,0.4179,0.4179,-0.13257,-0.13257,-0.588,-0.588,0.0,0.0
1,56,1.12,0.01156,-0.30951,0.5903,0.42073,-0.12788,-0.6021,-0.00521,-0.00519,-0.00492,-0.0052,-0.00522,-0.00547,0.52171,0.00831,0.02489,1.0,0.0,-0.0,-0.0,0.01151,0.01151,-0.31607,-0.31607,0.57682,0.57682,0.41925,0.41925,-0.12855,-0.12855,-0.5983,-0.5983,0.0,0.0
1,57,1.14,0.0105,-0.32263,0.59942,0.41948,-0.12106,-0.61428,-0.00521,-0.0052,-0.00497,-0.0052,-0.00521,-0.00542,0.52171,0.00831,0.02489,1.0,0.0,-0.0,-0.0,0.01164,0.01164,-0.32413,-0.32413,0.59139,0.59139,0.42046,0.42046,-0.12451,-0.12451,-0.60832,-0.60832,0.0,0.0
1,58,1.16,0.01027,-0.33564,0.61243,0.42324,-0.11966,-0.62116,-0.00521,-0.0052,-0.00498,-0.0052,-0.00521,-0.00541,0.52171,0.00831,0.02489,1.0,0.0,0.0,-0.0,0.01178,0.01178,-0.33211,-0.33211,0.60575,0.60575,0.42153,0.42153,-0.12047,-0.12047,-0.61806,-0.61806,0.0,0.0
1,59,1.18,0.0115,-0.34361,0.62659,0.42158,-0.11396,-0.63283,-0.00521,-0.00519,-0.00493,-0.0052,-0.00521,-0.00546,0.52171,0.00831,0.02489,1.0,0.0,-0.0,-0.0,0.01192,0.01192,-0.34003,-0.34003,0.61989,0.61989,0.42249,0.42249,-0.11645,-0.11645,-0.62751,-0.62751,0.0,0.0
1,60,1.2,0.01319,-0.34611,0.64162,0.42481,-0.11062,-0.6406,-0.00521,-0.0052,-0.00504,-0.0052,-0.0052,-0.00535,0.52171,0.00831,0.02489,1.0,0.0,0.0,-0.0,0.01207,0.01207,-0.34786,-0.34786,0.63381,0.63381,0.42334,0.42334,-0.11246,-0.11246,-0.63668,-0.63668,0.0,0.0
1,61,1.22,0.01395,-0.34896,0.66073,0.42288,-0.10659,-0.64929,-0.00521,-0.00519,-0.005,-0.0052,-0.00521,-0.00539,0.52171,0.00831,0.02489,1.0,0.0,-0.0,-0.0,0.01222,0.01222,-0.35561,-0.35561,0.64751,0.64751,0.42411,0.42411,-0.10851,-0.10851,-0.64557,-0.64557,0.0,0.0
1,62,1.24,0.01351,-0.3527,0.6719,0.42492,-0.10191,-0.65857,-0.00521,-0.0052,-0.00501,-0.0052,-0.00521,-0.00538,0.52171,0.00831,0.02489,1.0,0.0,0.0,-0.0,0.01237,0.01237,-0.36328,-0.36328,0.66098,0.66098,0.4248,0.4248,-0.10463,-0.10463,-0.6542,-0.6542,0.0,0.0
1,63,1.26,0.0119,-0.36464,0.6877,0.42552,-0.09922,-0.66601,-0.00521,-0.00519,-0.00502,-0.0052,-0.00521,-0.00538,0.52171,0.00831,0.02489,1.0,0.0,-0.0,-0.0,0.01253,0.01253,-0.37086,-0.37086,0.67423,0.67423,0.42541,0.42541,-0.10082,-0.10082,-0.66257,-0.66257,0.0,0.0
1,64,1.28,0.01121,-0.37639,0.69291,0.42467,-0.0947,-0.67442,-0.00521,-0.0052,-0.00497,-0.0052,-0.00521,-0.00543,0.52171,0.00831,0.02489,1.0,0.0,-0.0,-0.0,0.01269,0.01269,-0.37835,-0.37835,0.68726,0.68726,0.42597,0.42597,-0.09709,-0.09709,-0.67069,-0.67069,0.0,0.0
1,65,1.3,0.0115,-0.39002,0.70783,0.42869,-0.09218,-0.68242,-0.00521,-0.0052,-0.00499,-0.0052,-0.00521,-0.00541,0.52171,0.00831,0.02489,1.0,0.0,0.0,-0.0,0.01286,0.01286,-0.38575,-0.38575,0.70008,0.70008,0.42647,0.42647,-0.09344,-0.09344,-0.67856,-0.67856,0.0,0.0
1,66,1.32,0.01347,-0.3955,0.71652,0.42481,-0.0879,-0.68969,-0.00521,-0.0052,-0.00507,-0.0052,-0.00521,-0.00533,0.52171,0.00831,0.02489,1.0,0.0,-0.0,-0.0,0.01303,0.01303,-0.39307,-0.39307,0.71267,0.71267,0.42693,0.42693,-0.08989,-0.08989,-0.68619,-0.68619,0.0,0.0
1,67,1.34,0.01487,-0.39874,0.73472,0.42947,-0.08512,-0.69654,-0.00521,-0.00519,-0.00497,-0.0052,-0.00521,-0.00542,0.52171,0.00831,0.02489,1.0,0.0,-0.0,-0.0,0.0132,0.0132,-0.40029,-0.40029,0.72506,0.72506,0.42735,0.42735,-0.08644,-0.08644,-0.6936,-0.6936,0.0,0.0
1,68,1.36,0.01521,-0.39934,0.74779,0.42564,-0.08067,-0.70505,-0.0052,-0.0052,-0.00516,-0.0052,-0.0052,-0.00523,0.52171,0.00831,0.02489,1.0,0.0,0.0,-0.0,0.01338,0.01338,-0.40744,-0.40744,0.73724,0.73724,0.42774,0.42774,-0.0831,-0.0831,-0.70078,-0.70078,0.0,0.0
1,69,1.38,0.01388,-0.40445,0.76113,0.42865,-0.07846,-0.70943,-0.00521,-0.00519,-0.00495,-0.0052,-0.00521,-0.00544,0.52171,0.00831,0.02489,1.0,0.0,-0.0,-0.0,0.01356,0.01356,-0.41449,-0.41449,0.74922,0.74922,0.42809,0.42809,-0.07985,-0.07985,-0.70775,-0.70775,0.0,0.0
1,70,1.4,0.01236,-0.41531,0.77213,0.42748,-0.07429,-0.7189,-0.00521,-0.0052,-0.0051,-0.0052,-0.00521,-0.0053,0.52171,0.00831,0.02489,1.0,0.0,0.0,-0.0,0.01375,0.01375,-0.42146,-0.42146,0.76101,0.76101,0.42843,0.42843,-0.07672,-0.07672,-0.71451,-0.71451,0.0,0.0
1,71,1.42,0.01223,-0.42725,0.7776,0.42879,-0.0727,-0.72338,-0.00521,-0.00519,-0.00497,-0.0052,-0.00521,-0.00542,0.52171,0.00831,0.02489,1.0,0.0,-0.0,-0.0,0.01394,0.01394,-0.42836,-0.42836,0.77261,0.77261,0.42873,0.42873,-0.0737,-0.0737,-0.72109,-0.72109,0.0,0.0
1,72,1.44,0.01348,-0.43975,0.79113,0.42925,-0.06904,-0.73033,-0.00521,-0.0052,-0.00505,-0.0052,-0.00521,-0.00535,0.52171,0.00831,0.02489,1.0,0.0,0.0,-0.0,0.01414,0.01414,-0.43517,-0.43517,0.78403,0.78403,0.42903,0.42903,-0.07078,-0.07078,-0.72747,-0.72747,0.0,0.0
1,73,1.46,0.01586,-0.44322,0.79805,0.42916,-0.06706,-0.73745,-0.00521,-0.0052,-0.00509,-0.0052,-0.00521,-0.0053,0.52171,0.00831,0.02489,1.0,0.0,-0.0,-0.0,0.01434,0.01434,-0.4419,-0.4419,0.79527,0.79527,0.4293,0.4293,-0.06797,-0.06797,-0.73367,-0.73367,0.0,0.0
1,74,1.48,0.01665,-0.44621,0.81716,0.4298,-0.06352,-0.74126,-0.00521,-0.0052,-0.00506,-0.0052,-0.00521,-0.00533,0.52171,0.00831,0.02489,1.0,0.0,-0.0,-0.0,0.01454,0.01454,-0.44856,-0.44856,0.80634,0.80634,0.42956,0.42956,-0.06527,-0.06527,-0.7397,-0.7397,0.0,0.0
1,75,1.5,0.0161,-0.44554,0.82621,0.42861,-0.0614,-0.74915,-0.0052,-0.0052,-0.00517,-0.0052,-0.0052,-0.00522,0.52171,0.00831,0.02489,1.0,0.0,0.0,-0.0,0.01474,0.01474,-0.45515,-0.45515,0.81724,0.81724,0.42981,0.42981,-0.06268,-0.06268,-0.74557,-0.74557,0.0,0.0
1,76,1.52,0.01406,-0.45233,0.84034,0.43029,-0.05815,-0.75347,-0.00521,-0.00519,-0.00497,-0.0052,-0.00521,-0.00542,0.52171,0.00831,0.02489,1.0,0.0,-0.0,-0.0,0.01495,0.01495,-0.46167,-0.46167,0.82799,0.82799,0.43005,0.43005,-0.06019,-0.06019,-0.75128,-0.75128,0.0,0.0
1,77,1.54,0.01307,-0.46278,0.84728,0.42899,-0.05668,-0.75906,-0.0052,-0.0052,-0.00517,-0.0052,-0.00521,-0.00523,0.52171,0.00831,0.02489,1.0,0.0,-0.0,-0.0,0.01517,0.01517,-0.46813,-0.46813,0.83859,0.83859,0.43028,0.43028,-0.0578,-0.0578,-0.75684,-0.75684,0.0,0.0
1,78,1.56,0.01403,-0.47493,0.85353,0.43106,-0.05419,-0.76545,-0.00521,-0.00519,-0.00489,-0.0052,-0.00521,-0.0055,0.52171,0.00831,0.02489,1.0,0.0,0.0,-0.0,0.01538,0.01538,-0.47452,-0.47452,0.84904,0.84904,0.4305,0.4305,-0.0555,-0.0555,-0.76226,-0.76226,0.0,0.0
1,79,1.58,0.01622,-0.48538,0.86549,0.43071,-0.05225,-0.76948,-0.0052,-0.00521,-0.00524,-0.00521,-0.0052,-0.00516,0.52171,0.00831,0.02489,1.0,0.0,0.0,-0.0,0.0156,0.0156,-0.48084,-0.48084,0.85935,0.85935,0.43071,0.43071,-0.0533,-0.0533,-0.76754,-0.76754,0.0,0.0
1,80,1.6,0.01841,-0.48712,0.8726,0.43058,-0.05077,-0.7752,-0.00521,-0.00519,-0.005,-0.0052,-0.00521,-0.00539,0.52171,0.00831,0.02489,1.0,0.0,-0.0,-0.0,0.01582,0.01582,-0.48711,-0.48711,0.86953,0.86953,0.43092,0.43092,-0.0512,-0.0512,-0.77269,-0.77269,0.0,0.0
1,81,1.62,0.01799,-0.48913,0.89091,0.43145,-0.04704,-0.78041,-0.0052,-0.00521,-0.00523,-0.0052,-0.0052,-0.00517,0.52171,0.00831,0.02489,1.0,0.0,0.0,-0.0,0.01604,0.01604,-0.49332,-0.49332,0.87957,0.87957,0.43112,0.43112,-0.04918,-0.04918,-0.77772,-0.77772,0.0,0.0
1,82,1.64,0.01634,-0.48885,0.8981,0.43009,-0.04709,-0.78409,-0.00521,-0.00519,-0.0051,-0.0052,-0.00521,-0.0053,0.52171,0.00831,0.02489,1.0,0.0,-0.0,-0.0,0.01627,0.01627,-0.49948,-0.49948,0.88949,0.88949,0.43132,0.43132,-0.04724,-0.04724,-0.78262,-0.78262,0.0,0.0
1,83,1.66,0.0143,-0.4972,0.91077,0.43094,-0.04265,-0.79016,-0.00521,-0.0052,-0.00502,-0.0052,-0.00521,-0.00538,0.52171,0.00831,0.02489,1.0,0.0,0.0,-0.0,0.0165,0.0165,-0.50558,-0.50558,0.89929,0.89929,0.43151,0.43151,-0.04539,-0.04539,-0.78742,-0.78742,0.0,0.0
1,84,1.68,0.01453,-0.50814,0.91592,0.43211,-0.04384,-0.79401,-0.00521,-0.0052,-0.00516,-0.0052,-0.00521,-0.00525,0.52171,0.00831,0.02489,1.0,0.0,-0.0,-0.0,0.01673,0.01673,-0.51163,-0.51163,0.90897,0.90897,0.4317,0.4317,-0.04362,-0.04362,-0.7921,-0.7921,0.0,0.0
1,85,1.7,0.01695,-0.51967,0.92206,0.4304,-0.04003,-0.79868,-0.00521,-0.0052,-0.00495,-0.0052,-0.00521,-0.00544,0.52171,0.00831,0.02489,1.0,0.0,0.0,-0.0,0.01696,0.01696,-0.51764,-0.51764,0.91854,0.91854,0.43189,0.43189,-0.04192,-0.04192,-0.79668,-0.79668,0.0,0.0
1,86,1.72,0.01937,-0.52754,0.93381,0.43423,-0.04049,-0.80358,-0.0052,-0.0052,-0.00528,-0.00521,-0.0052,-0.00512,0.52171,0.00831,0.02489,1.0,0.0,-0.0,-0.0,0.0172,0.0172,-0.52359,-0.52359,0.928,0.928,0.43207,0.43207,-0.04029,-0.04029,-0.80115,-0.80115,0.0,0.0
1,87,1.74,0.02043,-0.52761,0.94155,0.43015,-0.03744,-0.8075,-0.00521,-0.00519,-0.00505,-0.0052,-0.00521,-0.00534,0.52171,0.00831,0.02489,1.0,0.0,-0.0,-0.0,0.01744,0.01744,-0.52951,-0.52951,0.93736,0.93736,0.43225,0.43225,-0.03874,-0.03874,-0.80554,-0.80554,0.0,0.0
1,88,1.76,0.01838,-0.52871,0.95787,0.43335,-0.0363,-0.81131,-0.0052,-0.0052,-0.00526,-0.0052,-0.0052,-0.00514,0.52171,0.00831,0.02489,1.0,0.0,0.0,-0.0,0.01768,0.01768,-0.53538,-0.53538,0.94662,0.94662,0.43243,0.43243,-0.03724,-0.03724,-0.80983,-0.80983,0.0,0.0
1,89,1.78,0.01614,-0.53063,0.96502,0.43129,-0.03481,-0.81678,-0.00521,-0.00519,-0.00502,-0.0052,-0.00522,-0.00537,0.52171,0.00831,0.02489,1.0,0.0,-0.0,-0.0,0.01792,0.01792,-0.54121,-0.54121,0.95578,0.95578,0.4326,0.4326,-0.03581,-0.03581,-0.81403,-0.81403,0.0,0.0
1,90,1.8,0.01538,-0.54002,0.97363,0.43186,-0.03272,-0.81897,-0.00521,-0.0052,-0.00512,-0.0052,-0.0052,-0.00528,0.52171,0.00831,0.02489,1.0,0.0,0.0,-0.0,0.01816,0.01816,-0.54701,-0.54701,0.96485,0.96485,0.43277,0.43277,-0.03444,-0.03444,-0.81814,-0.81814,0.0,0.0
1,91,1.82,0.01734,-0.55238,0.98044,0.43383,-0.03336,-0.8247,-0.00521,-0.00519,-0.00503,-0.0052,-0.00522,-0.00537,0.52171,0.00831,0.02489,1.0,0.0,-0.0,-0.0,0.01841,0.01841,-0.55276,-0.55276,0.97383,0.97383,0.43294,0.43294,-0.03313,-0.03313,-0.82218,-0.82218,0.0,0.0
1,92,1.84,0.02078,-0.56127,0.98454,0.43181,-0.03017,-0.82817,-0.00521,-0.0052,-0.00516,-0.0052,-0.0052,-0.00523,0.52171,0.00831,0.02489,1.0,0.0,0.0,-0.0,0.01866,0.01866,-0.55848,-0.55848,0.98272,0.98272,0.43311,0.43311,-0.03186,-0.03186,-0.82614,-0.82614,0.0,0.0
1,93,1.86,0.02204,-0.5668,0.9982,0.43487,-0.03147,-0.83089,-0.0052,-0.0052,-0.00519,-0.0052,-0.0052,-0.0052,0.52171,0.00831,0.02489,1.0,0.0,-0.0,-0.0,0.01891,0.01891,-0.56417,-0.56417,0.99153,0.99153,0.43327,0.43327,-0.03065,-0.03065,-0.83002,-0.83002,0.0,0.0
1,94,1.88,0.02104,-0.5652,1.00604,0.43171,-0.02758,-0.83704,-0.0052,-0.0052,-0.00516,-0.0052,-0.0052,-0.00523,0.52171,0.00831,0.02489,1.0,0.0,0.0,-0.0,0.01916,0.01916,-0.56983,-0.56983,1.00025,1.00025,0.43344,0.43344,-0.02949,-0.02949,-0.83382,-0.83382,0.0,0.0
1,95,1.9,0.01795,-0.56634,1.01921,0.43414,-0.02807,-0.83776,-0.0052,-0.0052,-0.00518,-0.0052,-0.0052,-0.00522,0.52171,0.00831,0.02489,1.0,0.0,0.0,-0.0,0.01942,0.01942,-0.57545,-0.57545,1.0089,1.0089,0.4336,0.4336,-0.02837,-0.02837,-0.83756,-0.83756,0.0,0.0
1,96,1.92,0.01648,-0.57211,1.02781,0.43193,-0.02592,-0.84378,-0.00521,-0.00519,-0.00502,-0.0052,-0.00522,-0.00538,0.52171,0.00831,0.02489,1.0,0.0,-0.0,-0.0,0.01968,0.01968,-0.58104,-0.58104,1.01747,1.01747,0.43376,0.43376,-0.0273,-0.0273,-0.84123,-0.84123,0.0,0.0
1,97,1.94,0.0183,-0.58177,1.03087,0.4345,-0.02534,-0.84628,-0.00521,-0.0052,-0.00512,-0.0052,-0.00521,-0.00528,0.52171,0.00831,0.02489,1.0,0.0,-0.0,-0.0,0.01994,0.01994,-0.58661,-0.58661,1.02596,1.02596,0.43392,0.43392,-0.02626,-0.02626,-0.84484,-0.84484,0.0,0.0
1,98,1.96,0.02147,-0.5951,1.04118,0.43328,-0.02518,-0.84973,-0.00521,-0.0052,-0.0051,-0.0052,-0.00521,-0.00529,0.52171,0.00831,0.02489,1.0,0.0,0.0,-0.0,0.0202,0.0202,-0.59215,-0.59215,1.03438,1.03438,0.43408,0.43408,-0.02527,-0.02527,-0.84838,-0.84838,0.0,0.0
1,99,1.98,0.02421,-0.60009,1.04394,0.43507,-0.02375,-0.85398,-0.0052,-0.0052,-0.00521,-0.0052,-0.0052,-0.00519,0.52171,0.00831,0.02489,1.0,0.0,-0.0,-0.0,0.02046,0.02046,-0.59766,-0.59766,1.04274,1.04274,0.43424,0.43424,-0.02431,-0.02431,-0.85186,-0.85186,0.0,0.0
1,100,2.0,0.02305,-0.60281,1.05818,0.43384,-0.02284,-0.85678,-0.0052,-0.0052,-0.00522,-0.0052,-0.0052,-0.00517,0.52171,0.00831,0.02489,1.0,0.0,0.0,-0.0,0.02072,0.02072,-0.60315,-0.60315,1.05102,1.05102,0.4344,0.4344,-0.02338,-0.02338,-0.85528,-0.85528,0.0,0.0
1,101,2.02,0.02008,-0.60133,1.06773,0.43419,-0.02209,-0.85972,-0.0052,-0.0052,-0.00515,-0.0052,-0.00521,-0.00525,0.52171,0.00831,0.02489,1.0,0.0,-0.0,-0.0,0.02099,0.02099,-0.60861,-0.60861,1.05924,1.05924,0.43455,0.43455,-0.02249,-0.02249,-0.85865,-0.85865,0.0,0.0
1,102,2.04,0.0181,-0.60354,1.07568,0.43383,-0.01977,-0.86418,-0.00521,-0.0052,-0.00507,-0.0052,-0.00521,-0.00533,0.52171,0.00831,0.02489,1.0,0.0,-0.0,-0.0,0.02126,0.02126,-0.61405,-0.61405,1.06739,1.06739,0.43471,0.43471,-0.02163,-0.02163,-0.86196,-0.86196,0.0,0.0
1,103,2.06,0.01897,-0.61362,1.08579,0.43428,-0.02089,-0.86596,-0.00521,-0.0052,-0.00511,-0.0052,-0.00521,-0.00529,0.52171,0.00831,0.02489,1.0,0.0,0.0,-0.0,0.02153,0.02153,-0.61947,-0.61947,1.07548,1.07548,0.43487,0.43487,-0.0208,-0.0208,-0.86521,-0.86521,0.0,0.0
1,104,2.08,0.02303,-0.62368,1.08622,0.43498,-0.01879,-0.87008,-0.00521,-0.0052,-0.00504,-0.0052,-0.00521,-0.00535,0.52171,0.00831,0.02489,1.0,0.0,-0.0,-0.0,0.0218,0.0218,-0.62486,-0.62486,1.08351,1.08351,0.43502,0.43502,-0.02,-0.02,-0.86841,-0.86841,0.0,0.0
1,105,2.1,0.02556,-0.63441,1.09641,0.4351,-0.01934,-0.87371,-0.0052,-0.00521,-0.00531,-0.00521,-0.00519,-0.00509,0.52171,0.00831,0.02489,1.0,0.0,0.0,-0.0,0.02208,0.02208,-0.63024,-0.63024,1.09148,1.09148,0.43518,0.43518,-0.01922,-0.01922,-0.87156,-0.87156,0.0,0.0
1,106,2.12,0.02525,-0.63693,1.1036,0.43598,-0.01844,-0.8749,-0.0052,-0.00519,-0.00512,-0.0052,-0.00521,-0.00527,0.52171,0.00831,0.02489,1.0,0.0,-0.0,-0.0,0.02235,0.02235,-0.63559,-0.63559,1.09939,1.09939,0.43534,0.43534,-0.01847,-0.01847,-0.87466,-0.87466,0.0,0.0
1,107,2.14,0.02226,-0.63567,1.1132,0.43396,-0.01623,-0.88052,-0.0052,-0.00521,-0.00527,-0.0052,-0.00519,-0.00513,0.52171,0.00831,0.02489,1.0,0.0,-0.0,-0.0,0.02263,0.02263,-0.64093,-0.64093,1.10724,1.10724,0.43549,0.43549,-0.01774,-0.01774,-0.87772,-0.87772,0.0,0.0
1,108,2.16,0.01944,-0.63737,1.12631,0.4364,-0.01727,-0.88098,-0.00521,-0.00519,-0.00503,-0.0052,-0.00522,-0.00537,0.52171,0.00831,0.02489,1.0,0.0,0.0,-0.0,0.02291,0.02291,-0.64625,-0.64625,1.11504,1.11504,0.43565,0.43565,-0.01703,-0.01703,-0.88072,-0.88072,0.0,0.0
1,109,2.18,0.02074,-0.64241,1.1296,0.43331,-0.0141,-0.88531,-0.00521,-0.0052,-0.00511,-0.0052,-0.00521,-0.0053,0.52171,0.00831,0.02489,1.0,0.0,-0.0,-0.0,0.02319,0.02319,-0.65155,-0.65155,1.12278,1.12278,0.43581,0.43581,-0.01635,-0.01635,-0.88368,-0.88368,0.0,0.0
1,110,2.2,0.02409,-0.65458,1.13738,0.43734,-0.01649,-0.8883,-0.00521,-0.0052,-0.00511,-0.0052,-0.00521,-0.00528,0.52171,0.00831,0.02489,1.0,0.0,-0.0,-0.0,0.02348,0.02348,-0.65684,-0.65684,1.13046,1.13046,0.43597,0.43597,-0.01568,-0.01568,-0.8866,-0.8866,0.0,0.0
1,111,2.22,0.02729,-0.66537,1.14223,0.43514,-0.01371,-0.89018,-0.0052,-0.0052,-0.00519,-0.0052,-0.0052,-0.00521,0.52171,0.00831,0.02489,1.0,0.0,0.0,-0.0,0.02376,0.02376,-0.66211,-0.66211,1.1381,1.1381,0.43613,0.43613,-0.01504,-0.01504,-0.88947,-0.88947,0.0,0.0
1,112,2.24,0.02725,-0.66951,1.14731,0.43686,-0.01524,-0.89418,-0.0052,-0.0052,-0.00528,-0.0052,-0.0052,-0.00511,0.52171,0.00831,0.02489,1.0,0.0,-0.0,-0.0,0.02405,0.02405,-0.66736,-0.66736,1.14568,1.14568,0.43629,0.43629,-0.01441,-0.01441,-0.8923,-0.8923,0.0,0.0
1,113,2.26,0.02381,-0.67093,1.16161,0.43631,-0.01244,-0.89641,-0.00521,-0.0052,-0.00512,-0.0052,-0.00521,-0.00528,0.52171,0.00831,0.02489,1.0,0.0,-0.0,-0.0,0.02434,0.02434,-0.6726,-0.6726,1.15321,1.15321,0.43646,0.43646,-0.0138,-0.0138,-0.89508,-0.89508,0.0,0.0
1,114,2.28,0.02169,-0.66838,1.16725,0.43547,-0.01302,-0.8984,-0.0052,-0.0052,-0.0052,-0.0052,-0.00521,-0.00521,0.52171,0.00831,0.02489,1.0,0.0,-0.0,-0.0,0.02463,0.02463,-0.67782,-0.67782,1.1607,1.1607,0.43662,0.43662,-0.01321,-0.01321,-0.89783,-0.89783,0.0,0.0
1,115,2.3,0.02223,-0.67384,1.17801,0.43618,-0.0112,-0.90264,-0.00521,-0.00519,-0.00496,-0.0052,-0.00521,-0.00543,0.52171,0.00831,0.02489,1.0,0.0,-0.0,-0.0,0.02493,0.02493,-0.68303,-0.68303,1.16813,1.16813,0.43679,0.43679,-0.01263,-0.01263,-0.90053,-0.90053,0.0,0.0
1,116,2.32,0.02581,-0.68421,1.18315,0.4369,-0.01174,-0.90359,-0.0052,-0.0052,-0.00525,-0.00521,-0.00521,-0.00516,0.52171,0.00831,0.02489,1.0,0.0,-0.0,-0.0,0.02522,0.02522,-0.68823,-0.68823,1.17551,1.17551,0.43696,0.43696,-0.01206,-0.01206,-0.9032,-0.9032,0.0,0.0
1,117,2.34,0.02913,-0.69475,1.18471,0.43633,-0.01145,-0.90743,-0.00521,-0.00519,-0.00509,-0.0052,-0.00521,-0.0053,0.52171,0.00831,0.02489,1.0,0.0,-0.0,-0.0,0.02552,0.02552,-0.69341,-0.69341,1.18285,1.18285,0.43713,0.43713,-0.01151,-0.01151,-0.90583,-0.90583,0.0,0.0
1,118,2.36,0.02841,-0.70322,1.19539,0.4386,-0.01039,-0.90994,-0.0052,-0.00521,-0.00534,-0.00521,-0.00519,-0.00506,0.52171,0.00831,0.02489,1.0,0.0,0.0,-0.0,0.02582,0.02582,-0.69859,-0.69859,1.19015,1.19015,0.43731,0.43731,-0.01098,-0.01098,-0.90842,-0.90842,0.0,0.0
1,119,2.38,0.02592,-0.70226,1.20083,0.43654,-0.01092,-0.91157,-0.00521,-0.00519,-0.00512,-0.0052,-0.00521,-0.00527,0.52171,0.00831,0.02489,1.0,0.0,-0.0,-0.0,0.02612,0.02612,-0.70375,-0.70375,1.19739,1.19739,0.43749,0.43749,-0.01045,-0.01045,-0.91097,-0.91097,0.0,0.0
1,120,2.4,0.02357,-0.70129,1.21253,0.4369,-0.00803,-0.91519,-0.00521,-0.00521,-0.00514,-0.0052,-0.0052,-0.00526,0.52171,0.00831,0.02489,1.0,0.0,-0.0,-0.0,0.02643,0.02643,-0.7089,-0.7089,1.20459,1.20459,0.43767,0.43767,-0.00994,-0.00994,-0.91349,-0.91349,0.0,0.0
1,121,2.42,0.02432,-0.70458,1.22249,0.43807,-0.00967,-0.91673,-0.00521,-0.00519,-0.00509,-0.0052,-0.00522,-0.00532,0.52171,0.00831,0.02489,1.0,0.0,-0.0,-0.0,0.02674,0.02674,-0.71403,-0.71403,1.21175,1.21175,0.43785,0.43785,-0.00944,-0.00944,-0.91597,-0.91597,0.0,0.0
1,122,2.44,0.02811,-0.7128,1.22414,0.43572,-0.00735,-0.91943,-0.00521,-0.0052,-0.00511,-0.0052,-0.00521,-0.00529,0.52171,0.00831,0.02489,1.0,0.0,0.0,-0.0,0.02704,0.02704,-0.71916,-0.71916,1.21886,1.21886,0.43804,0.43804,-0.00895,-0.00895,-0.91842,-0.91842,0.0,0.0
1,123,2.46,0.0302,-0.72615,1.23168,0.44033,-0.00899,-0.92221,-0.0052,-0.0052,-0.00525,-0.0052,-0.0052,-0.00515,0.52171,0.00831,0.02489,1.0,0.0,0.0,-0.0,0.02735,0.02735,-0.72428,-0.72428,1.22593,1.22593,0.43823,0.43823,-0.00847,-0.00847,-0.92083,-0.92083,0.0,0.0
1,124,2.48,0.03,-0.73367,1.23533,0.43689,-0.00757,-0.9244,-0.0052,-0.0052,-0.00519,-0.0052,-0.0052,-0.0052,0.52171,0.00831,0.02489,1.0,0.0,-0.0,-0.0,0.02767,0.02767,-0.72938,-0.72938,1.23296,1.23296,0.43842,0.43842,-0.008,-0.008,-0.92321,-0.92321,0.0,0.0
1,125,2.5,0.02761,-0.73417,1.24267,0.43961,-0.00738,-0.92616,-0.0052,-0.0052,-0.00521,-0.0052,-0.0052,-0.00519,0.52171,0.00831,0.02489,1.0,0.0,0.0,-0.0,0.02798,0.02798,-0.73448,-0.73448,1.23995,1.23995,0.43862,0.43862,-0.00754,-0.00754,-0.92555,-0.92555,0.0,0.0
1,126,2.52,0.02388,-0.74211,1.28196,0.44162,-0.01248,-0.93234,-0.00521,-0.0052,-0.00519,-0.0052,-0.00521,-0.00521,0.52171,0.00831,0.02489,1.0,0.0,-0.0,-0.0,0.02853,0.02853,-0.74335,-0.74335,1.26133,1.26133,0.44112,0.44112,-0.01048,-0.01048,-0.92927,-0.92927,0.0,0.0
1,127,2.54,0.02717,-0.74512,1.30062,0.44301,-0.01379,-0.9353,-0.00521,-0.00518,-0.00497,-0.0052,-0.00523,-0.00543,0.52171,0.00831,0.02489,1.0,0.0,0.0,-0.0,0.02889,0.02889,-0.75293,-0.75293,1.28389,1.28389,0.44258,0.44258,-0.01327,-0.01327,-0.93419,-0.93419,0.0,0.0
1,128,2.56,0.03224,-0.75642,1.31845,0.44029,-0.01531,-0.94387,-0.0052,-0.00521,-0.00532,-0.0052,-0.00519,-0.00509,0.52171,0.00831,0.02489,1.0,0.0,-0.0,-0.0,0.02923,0.02923,-0.76278,-0.76278,1.30661,1.30661,0.44294,0.44294,-0.01564,-0.01564,-0.94003,-0.94003,0.0,0.0
1,129,2.58,0.03248,-0.77841,1.34994,0.44424,-0.02008,-0.94938,-0.0052,-0.00519,-0.00517,-0.0052,-0.00522,-0.00523,0.52171,0.00831,0.02489,1.0,0.0,0.0,-0.0,0.02958,0.02958,-0.77279,-0.77279,1.32933,1.32933,0.44241,0.44241,-0.01759,-0.01759,-0.94658,-0.94658,0.0,0.0
1,130,2.6,0.0319,-0.78825,1.35684,0.43896,-0.01831,-0.95676,-0.0052,-0.0052,-0.00525,-0.00521,-0.00521,-0.00516,0.52171,0.00831,0.02489,1.0,0.0,-0.0,-0.0,0.02993,0.02993,-0.78292,-0.78292,1.352,1.352,0.44114,0.44114,-0.01918,-0.01918,-0.95366,-0.95366,0.0,0.0
1,131,2.62,0.0279,-0.79733,1.38618,0.43812,-0.02232,-0.96582,-0.0052,-0.00521,-0.00522,-0.0052,-0.0052,-0.00518,0.52171,0.00831,0.02489,1.0,0.0,0.0,-0.0,0.03029,0.03029,-0.79314,-0.79314,1.37458,1.37458,0.43929,0.43929,-0.02042,-0.02042,-0.96112,-0.96112,0.0,0.0
1,132,2.64,0.0274,-0.80183,1.41758,0.43664,-0.02027,-0.97117,-0.00521,-0.00518,-0.00494,-0.0052,-0.00523,-0.00547,0.52171,0.00831,0.02489,1.0,0.0,-0.0,-0.0,0.03065,0.03065,-0.8034,-0.8034,1.39703,1.39703,0.43698,0.43698,-0.02137,-0.02137,-0.96886,-0.96886,0.0,0.0
1,133,2.66,0.03269,-0.80343,1.42967,0.42951,-0.0222,-0.98138,-0.0052,-0.0052,-0.00524,-0.0052,-0.0052,-0.00516,0.52171,0.00831,0.02489,1.0,0.0,-0.0,-0.0,0.03102,0.03102,-0.81369,-0.81369,1.41934,1.41934,0.4343,0.4343,-0.02206,-0.02206,-0.97677,-0.97677,0.0,0.0
1,134,2.68,0.0335,-0.82278,1.46173,0.43124,-0.02189,-0.98815,-0.00521,-0.0052,-0.00509,-0.0052,-0.00521,-0.0053,0.52171,0.00831,0.02489,1.0,0.0,-0.0,-0.0,0.0314,0.0314,-0.82398,-0.82398,1.44149,1.44149,0.43134,0.43134,-0.02251,-0.02251,-0.98479,-0.98479,0.0,0.0
1,135,2.7,0.03323,-0.84034,1.47636,0.42583,-0.02318,-0.99643,-0.0052,-0.00519,-0.00528,-0.00521,-0.00521,-0.00513,0.52171,0.00831,0.02489,1.0,0.0,0.0,-0.0,0.03179,0.03179,-0.83426,-0.83426,1.46346,1.46346,0.42815,0.42815,-0.02277,-0.02277,-0.99287,-0.99287,0.0,0.0
1,136,2.72,0.03227,-0.85004,1.48777,0.42272,-0.02314,-1.00547,-0.00521,-0.0052,-0.00506,-0.0052,-0.0052,-0.00533,0.52171,0.00831,0.02489,1.0,0.0,0.0,-0.0,0.03219,0.03219,-0.84452,-0.84452,1.48525,1.48525,0.42479,0.42479,-0.02286,-0.02286,-1.00096,-1.00096,0.0,0.0
1,137,2.74,0.02982,-0.85938,1.52579,0.42013,-0.02165,-1.01245,-0.0052,-0.00521,-0.00522,-0.00521,-0.00521,-0.00519,0.52171,0.00831,0.02489,1.0,0.0,0.0,-0.0,0.03259,0.03259,-0.85474,-0.85474,1.50685,1.50685,0.42129,0.42129,-0.02279,-0.02279,-1.00903,-1.00903,0.0,0.0
1,138,2.76,0.03389,-0.85792,1.54277,0.4147,-0.02363,-1.02056,-0.00521,-0.00518,-0.00494,-0.0052,-0.00523,-0.00545,0.52171,0.00831,0.02489,1.0,0.0,0.0,-0.0,0.03301,0.03301,-0.86491,-0.86491,1.52826,1.52826,0.41771,0.41771,-0.02261,-0.02261,-1.01705,-1.01705,0.0,0.0
1,139,2.78,0.03606,-0.867,1.56232,0.41047,-0.01888,-1.02915,-0.0052,-0.00521,-0.00531,-0.0052,-0.00519,-0.00509,0.52171,0.00831,0.02489,1.0,0.0,-0.0,-0.0,0.03344,0.03344,-0.87503,-0.87503,1.54948,1.54948,0.41404,0.41404,-0.02231,-0.02231,-1.025,-1.025,0.0,0.0
1,140,2.8,0.03301,-0.88936,1.59024,0.40975,-0.02427,-1.03597,-0.0052,-0.00519,-0.00515,-0.0052,-0.00522,-0.00525,0.52171,0.00831,0.02489,1.0,0.0,0.0,-0.0,0.03387,0.03387,-0.88509,-0.88509,1.57052,1.57052,0.41033,0.41033,-0.02193,-0.02193,-1.03288,-1.03288,0.0,0.0
1,141,2.82,0.03434,-0.90193,1.59531,0.40346,-0.01927,-1.04468,-0.00521,-0.00519,-0.00498,-0.0052,-0.00522,-0.00542,0.52171,0.00831,0.02489,1.0,0.0,-0.0,-0.0,0.03432,0.03432,-0.8951,-0.8951,1.59136,1.59136,0.40659,0.40659,-0.02147,-0.02147,-1.04068,-1.04068,0.0,0.0
1,142,2.84,0.03496,-0.90989,1.6199,0.40163,-0.0218,-1.05236,-0.0052,-0.00522,-0.00534,-0.00521,-0.00519,-0.00506,0.52171,0.00831,0.02489,1.0,0.0,0.0,-0.0,0.03478,0.03478,-0.90504,-0.90504,1.61202,1.61202,0.40282,0.40282,-0.02095,-0.02095,-1.04837,-1.04837,0.0,0.0
1,143,2.86,0.03546,-0.91414,1.65447,0.39617,-0.01947,-1.05896,-0.00521,-0.00518,-0.00492,-0.0052,-0.00523,-0.00547,0.52171,0.00831,0.02489,1.0,0.0,-0.0,-0.0,0.03525,0.03525,-0.91492,-0.91492,1.63249,1.63249,0.39904,0.39904,-0.02038,-0.02038,-1.05597,-1.05597,0.0,0.0
1,144,2.88,0.03849,-0.91479,1.6638,0.39289,-0.01821,-1.06687,-0.0052,-0.0052,-0.00529,-0.00521,-0.0052,-0.00512,0.52171,0.00831,0.02489,1.0,0.0,-0.0,-0.0,0.03574,0.03574,-0.92473,-0.92473,1.65279,1.65279,0.39525,0.39525,-0.01977,-0.01977,-1.06347,-1.06347,0.0,0.0
1,145,2.9,0.03492,-0.93357,1.6861,0.38752,-0.01892,-1.07507,-0.00521,-0.0052,-0.00516,-0.0052,-0.0052,-0.00523,0.52171,0.00831,0.02489,1.0,0.0,-0.0,-0.0,0.03624,0.03624,-0.93448,-0.93448,1.67291,1.67291,0.39147,0.39147,-0.01913,-0.01913,-1.07087,-1.07087,0.0,0.0
1,146,2.92,0.03381,-0.95393,1.70638,0.38818,-0.01785,-1.08015,-0.00521,-0.00519,-0.00498,-0.0052,-0.00523,-0.00543,0.52171,0.00831,0.02489,1.0,0.0,-0.0,-0.0,0.03676,0.03676,-0.94416,-0.94416,1.69286,1.69286,0.38769,0.38769,-0.01846,-0.01846,-1.07816,-1.07816,0.0,0.0
1,147,2.94,0.04068,-0.9584,1.71517,0.37998,-0.018,-1.09066,-0.00521,-0.0052,-0.00512,-0.0052,-0.00521,-0.00527,0.52171,0.00831,0.02489,1.0,0.0,-0.0,-0.0,0.03729,0.03729,-0.95378,-0.95378,1.71265,1.71265,0.38392,0.38392,-0.01778,-0.01778,-1.08536,-1.08536,0.0,0.0
1,148,2.96,0.04062,-0.9623,1.74848,0.37883,-0.01575,-1.09437,-0.0052,-0.00521,-0.00532,-0.0052,-0.00519,-0.00508,0.52171,0.00831,0.02489,1.0,0.0,-0.0,-0.0,0.03783,0.03783,-0.96333,-0.96333,1.73227,1.73227,0.38016,0.38016,-0.01708,-0.01708,-1.09246,-1.09246,0.0,0.0
1,149,2.98,0.03038,-0.96587,1.76785,0.37324,-0.01555,-1.10233,-0.0052,-0.00519,-0.00527,-0.00521,-0.00521,-0.00513,0.52171,0.00831,0.02489,1.0,0.0,-0.0,-0.0,0.02988,0.02988,-0.97117,-0.97117,1.74753,1.74753,0.37597,0.37597,-0.01602,-0.01602,-1.09912,-1.09912,0.0,0.0
1,150,3.0,0.00844,-0.97205,1.75958,0.36827,-0.01395,-1.10829,-0.0052,-0.00521,-0.00533,-0.00521,-0.00519,-0.00507,0.52171,0.00831,0.02489,1.0,0.0,0.0,-0.0,0.01501,0.01501,-0.97739,-0.97739,1.75916,1.75916,0.3717,0.3717,-0.01513,-0.01513,-1.10514,-1.10514,0.0,0.0
1,151,3.02,-0.01959,-0.98884,1.77366,0.3662,-0.01474,-1.11248,-0.00521,-0.00521,-0.00501,-0.0052,-0.00521,-0.0054,0.52171,0.00831,0.02489,1.0,0.0,-0.0,-0.0,-0.00012,-0.00012,-0.98319,-0.98319,1.77036,1.77036,0.36784,0.36784,-0.01498,-0.01498,-1.11065,-1.11065,0.0,0.0
1,152,3.04,-0.02784,-0.99305,1.789,0.36264,-0.01674,-1.11909,-0.00521,-0.00518,-0.00459,-0.0052,-0.00525,-0.00581,0.52171,0.00831,0.02489,1.0,0.0,0.0,-0.0,-0.01538,-0.01538,-0.98863,-0.98863,1.78121,1.78121,0.36428,0.36428,-0.0155,-0.0155,-1.11575,-1.11575,0.0,0.0
1,153,3.06,-0.02703,-0.98601,1.79695,0.35857,-0.01552,-1.12187,-0.0052,-0.00521,-0.00537,-0.00521,-0.00519,-0.00504,0.52171,0.00831,0.02489,1.0,0.0,-0.0,-0.0,-0.03075,-0.03075,-0.99374,-0.99374,1.79173,1.79173,0.36096,0.36096,-0.01662,-0.01662,-1.1205,-1.1205,0.0,0.0
1,154,3.08,-0.04987,-0.99312,1.81886,0.35494,-0.0199,-1.12726,-0.0052,-0.00521,-0.00562,-0.00521,-0.00518,-0.00478,0.52171,0.00831,0.02489,1.0,0.0,-0.0,-0.0,-0.04624,-0.04624,-0.99856,-0.99856,1.80192,1.80192,0.35782,0.35782,-0.01826,-0.01826,-1.12495,-1.12495,0.0,0.0
1,155,3.1,-0.07917,-1.00253,1.81754,0.35475,-0.02031,-1.13076,-0.00521,-0.00519,-0.00482,-0.0052,-0.00524,-0.00558,0.52171,0.00831,0.02489,1.0,0.0,0.0,-0.0,-0.06184,-0.06184,-1.0031,-1.0031,1.8118,1.8118,0.35481,0.35481,-0.02037,-0.02037,-1.12915,-1.12915,0.0,0.0
1,156,3.12,-0.09238,-1.0077,1.81375,0.34739,-0.02393,-1.13563,-0.00521,-0.00522,-0.00498,-0.0052,-0.00521,-0.00543,0.52171,0.00831,0.02489,1.0,0.0,-0.0,-0.0,-0.07755,-0.07755,-1.00739,-1.00739,1.82138,1.82138,0.3519,0.3519,-0.02289,-0.02289,-1.13312,-1.13312,0.0,0.0
1,157,3.14,-0.0983,-1.01391,1.84353,0.34963,-0.02783,-1.13817,-0.00521,-0.0052,-0.005,-0.0052,-0.00521,-0.0054,0.52171,0.00831,0.02489,1.0,0.0,0.0,-0.0,-0.09336,-0.09336,-1.01145,-1.01145,1.83066,1.83066,0.34904,0.34904,-0.02579,-0.02579,-1.13689,-1.13689,0.0,0.0
1,158,3.16,-0.10753,-1.01049,1.85476,0.34376,-0.02933,-1.14227,-0.0052,-0.0052,-0.00544,-0.00521,-0.0052,-0.00497,0.52171,0.00831,0.02489,1.0,0.0,-0.0,-0.0,-0.10926,-0.10926,-1.01529,-1.01529,1.83965,1.83965,0.34621,0.34621,-0.02901,-0.02901,-1.14045,-1.14045,0.0,0.0
1,159,3.18,-0.13357,-1.0101,1.84813,0.34063,-0.03499,-1.14503,-0.0052,-0.00521,-0.00544,-0.00521,-0.00518,-0.00495,0.52171,0.00831,0.02489,1.0,0.0,0.0,-0.0,-0.12525,-0.12525,-1.01892,-1.01892,1.84834,1.84834,0.3434,0.3434,-0.03253,-0.03253,-1.14382,-1.14382,0.0,0.0
1,160,3.2,-0.16417,-1.02389,1.86171,0.3391,-0.03591,-1.14891,-0.00521,-0.00521,-0.0049,-0.0052,-0.00522,-0.00551,0.52171,0.00831,0.02489,1.0,0.0,-0.0,-0.0,-0.14132,-0.14132,-1.02235,-1.02235,1.85675,1.85675,0.34058,0.34058,-0.03632,-0.03632,-1.14701,-1.14701,0.0,0.0
1,161,3.22,-0.16774,-1.02713,1.86862,0.33661,-0.04451,-1.1513,-0.00521,-0.00518,-0.00463,-0.0052,-0.00525,-0.00577,0.52171,0.00831,0.02489,1.0,0.0,0.0,-0.0,-0.15747,-0.15747,-1.02561,-1.02561,1.86487,1.86487,0.33774,0.33774,-0.04035,-0.04035,-1.15,-1.15,0.0,0.0
1,162,3.24,-0.16788,-1.02433,1.87764,0.33169,-0.04419,-1.15399,-0.0052,-0.00522,-0.00557,-0.00521,-0.00517,-0.00484,0.52171,0.00831,0.02489,1.0,0.0,-0.0,-0.0,-0.17368,-0.17368,-1.02868,-1.02868,1.87269,1.87269,0.33486,0.33486,-0.04458,-0.04458,-1.1528,-1.1528,0.0,0.0
1,163,3.26,-0.19663,-1.029,1.89573,0.33186,-0.05277,-1.15669,-0.0052,-0.00521,-0.00566,-0.00521,-0.00518,-0.00474,0.52171,0.00831,0.02489,1.0,0.0,0.0,-0.0,-0.18995,-0.18995,-1.03159,-1.03159,1.88023,1.88023,0.33193,0.33193,-0.04902,-0.04902,-1.1554,-1.1554,0.0,0.0
1,164,3.28,-0.22591,-1.02993,1.88733,0.32533,-0.05415,-1.15863,-0.00521,-0.00518,-0.0047,-0.0052,-0.00524,-0.0057,0.52171,0.00831,0.02489,1.0,0.0,-0.0,-0.0,-0.20627,-0.20627,-1.03433,-1.03433,1.88748,1.88748,0.32894,0.32894,-0.05363,-0.05363,-1.15779,-1.15779,0.0,0.0
1,165,3.3,-0.23666,-1.03283,1.88885,0.32404,-0.0604,-1.16127,-0.00521,-0.00522,-0.00505,-0.0052,-0.0052,-0.00536,0.52171,0.00831,0.02489,1.0,0.0,0.0,-0.0,-0.22263,-0.22263,-1.03691,-1.03691,1.89443,1.89443,0.32587,0.32587,-0.05841,-0.05841,-1.15995,-1.15995,0.0,0.0
1,166,3.32,-0.24158,-1.04156,1.917,0.321,-0.06625,-1.16311,-0.00521,-0.0052,-0.00508,-0.0052,-0.00522,-0.00533,0.52171,0.00831,0.02489,1.0,0.0,-0.0,-0.0,-0.23903,-0.23903,-1.03935,-1.03935,1.90108,1.90108,0.32272,0.32272,-0.06334,-0.06334,-1.16189,-1.16189,0.0,0.0
1,167,3.34,-0.25356,-1.03871,1.91603,0.31848,-0.07011,-1.16309,-0.0052,-0.0052,-0.00553,-0.00521,-0.0052,-0.00488,0.52171,0.00831,0.02489,1.0,0.0,-0.0,-0.0,-0.25546,-0.25546,-1.04163,-1.04163,1.90744,1.90744,0.31947,0.31947,-0.06841,-0.06841,-1.16359,-1.16359,0.0,0.0
1,168,3.36,-0.28504,-1.03766,1.90958,0.31203,-0.07616,-1.16735,-0.0052,-0.00522,-0.00547,-0.00521,-0.00518,-0.00493,0.52171,0.00831,0.02489,1.0,0.0,0.0,-0.0,-0.2719,-0.2719,-1.04377,-1.04377,1.9135,1.9135,0.31612,0.31612,-0.07362,-0.07362,-1.16503,-1.16503,0.0,0.0
1,169,3.38,-0.31206,-1.0444,1.92449,0.31193,-0.08035,-1.16548,-0.00521,-0.0052,-0.00468,-0.0052,-0.00523,-0.00573,0.52171,0.00831,0.02489,1.0,0.0,-0.0,-0.0,-0.28834,-0.28834,-1.04578,-1.04578,1.91924,1.91924,0.31265,0.31265,-0.07896,-0.07896,-1.1662,-1.1662,0.0,0.0
1,170,3.4,-0.30907,-1.04351,1.92912,0.30581,-0.08757,-1.16806,-0.00521,-0.00518,-0.00481,-0.0052,-0.00524,-0.00559,0.52171,0.00831,0.02489,1.0,0.0,0.0,-0.0,-0.30479,-0.30479,-1.04764,-1.04764,1.92468,1.92468,0.30905,0.30905,-0.08443,-0.08443,-1.16709,-1.16709,0.0,0.0
1,171,3.42,-0.31544,-1.04609,1.93583,0.30333,-0.09181,-1.16809,-0.0052,-0.00522,-0.00582,-0.00521,-0.00516,-0.00458,0.52171,0.00831,0.02489,1.0,0.0,-0.0,-0.0,-0.32123,-0.32123,-1.04937,-1.04937,1.92981,1.92981,0.30532,0.30532,-0.09003,-0.09003,-1.16768,-1.16768,0.0,0.0
1,172,3.44,-0.34698,-1.05075,1.93893,0.29986,-0.09782,-1.16686,-0.0052,-0.0052,-0.00535,-0.00521,-0.0052,-0.00505,0.52171,0.00831,0.02489,1.0,0.0,-0.0,-0.0,-0.33508,-0.33508,-1.04994,-1.04994,1.93168,1.93168,0.30127,0.30127,-0.09511,-0.09511,-1.16776,-1.16776,0.0,0.0
1,173,3.46,-0.34208,-1.02958,1.88858,0.29166,-0.09363,-1.16551,-0.00522,-0.00516,-0.0042,-0.00519,-0.00527,-0.00618,0.52171,0.00831,0.02489,1.0,0.0,0.0,-0.0,-0.33068,-0.33068,-1.04308,-1.04308,1.91256,1.91256,0.29615,0.29615,-0.09565,-0.09565,-1.16588,-1.16588,0.0,0.0
1,174,3.48,-0.31675,-1.01971,1.8729,0.28912,-0.09454,-1.16042,-0.0052,-0.00526,-0.00576,-0.00521,-0.00514,-0.00466,0.52171,0.00831,0.02489,1.0,0.0,-0.0,-0.0,-0.32532,-0.32532,-1.03507,-1.03507,1.89173,1.89173,0.2925,0.2925,-0.09592,-0.09592,-1.16246,-1.16246,0.0,0.0
1,175,3.5,-0.30758,-1.02759,1.8884,0.291,-0.09886,-1.15517,-0.0052,-0.00518,-0.00534,-0.00521,-0.00521,-0.00504,0.52171,0.00831,0.02489,1.0,0.0,0.0,-0.0,-0.32007,-0.32007,-1.02655,-1.02655,1.87069,1.87069,0.29015,0.29015,-0.09621,-0.09621,-1.15781,-1.15781,0.0,0.0
1,176,3.52,-0.30483,-1.00907,1.83007,0.28863,-0.09428,-1.14915,-0.0052,-0.00519,-0.00554,-0.00521,-0.00519,-0.00485,0.52171,0.00831,0.02489,1.0,0.0,0.0,-0.0,-0.31499,-0.31499,-1.01767,-1.01767,1.84953,1.84953,0.28883,0.28883,-0.0965,-0.0965,-1.15222,-1.15222,0.0,0.0
1,177,3.54,-0.31898,-0.99671,1.80133,0.28316,-0.09727,-1.14434,-0.0052,-0.00526,-0.00573,-0.00521,-0.00514,-0.00468,0.52171,0.00831,0.02489,1.0,0.0,-0.0,-0.0,-0.31007,-0.31007,-1.00852,-1.00852,1.82827,1.82827,0.28829,0.28829,-0.09677,-0.09677,-1.14589,-1.14589,0.0,0.0
1,178,3.56,-0.31913,-0.99407,1.8156,0.29312,-0.09634,-1.13371,-0.00522,-0.00518,-0.00434,-0.0052,-0.00526,-0.00606,0.52171,0.00831,0.02489,1.0,0.0,-0.0,-0.0,-0.30531,-0.30531,-0.99916,-0.99916,1.80692,1.80692,0.28836,0.28836,-0.09701,-0.09701,-1.13898,-1.13898,0.0,0.0
1,179,3.58,-0.28379,-0.97125,1.77093,0.28471,-0.09677,-1.12965,-0.0052,-0.00518,-0.00523,-0.00521,-0.00521,-0.00516,0.52171,0.00831,0.02489,1.0,0.0,0.0,-0.0,-0.3007,-0.3007,-0.98962,-0.98962,1.78547,1.78547,0.28889,0.28889,-0.0972,-0.0972,-1.1316,-1.1316,0.0,0.0
1,180,3.6,-0.27808,-0.96904,1.75097,0.29012,-0.09698,-1.11916,-0.00519,-0.00525,-0.00621,-0.00521,-0.00511,-0.00418,0.52171,0.00831,0.02489,1.0,0.0,-0.0,-0.0,-0.29623,-0.29623,-0.97995,-0.97995,1.76392,1.76392,0.28979,0.28979,-0.09734,-0.09734,-1.12386,-1.12386,0.0,0.0
1,181,3.62,-0.30074,-0.97486,1.74714,0.29411,-0.09777,-1.11222,-0.0052,-0.0052,-0.00528,-0.00521,-0.00521,-0.00512,0.52171,0.00831,0.02489,1.0,0.0,0.0,-0.0,-0.2919,-0.2919,-0.97016,-0.97016,1.74227,1.74227,0.29096,0.29096,-0.09742,-0.09742,-1.11581,-1.11581,0.0,0.0
1,182,3.64,-0.29681,-0.94682,1.68895,0.28996,-0.09765,-1.10421,-0.00521,-0.00518,-0.00464,-0.0052,-0.00524,-0.00575,0.52171,0.00831,0.02489,1.0,0.0,0.0,-0.0,-0.2877,-0.2877,-0.96027,-0.96027,1.72052,1.72052,0.29235,0.29235,-0.09744,-0.09744,-1.10753,-1.10753,0.0,0.0
1,183,3.66,-0.28226,-0.9343,1.68859,0.29267,-0.09369,-1.09462,-0.0052,-0.00526,-0.00549,-0.0052,-0.00515,-0.00492,0.52171,0.00831,0.02489,1.0,0.0,0.0,-0.0,-0.28363,-0.28363,-0.95029,-0.95029,1.69866,1.69866,0.2939,0.2939,-0.0974,-0.0974,-1.09905,-1.09905,0.0,0.0
1,184,3.68,-0.26815,-0.93122,1.69338,0.29954,-0.10135,-1.08625,-0.0052,-0.00516,-0.0051,-0.00521,-0.00523,-0.00529,0.52171,0.00831,0.02489,1.0,0.0,0.0,-0.0,-0.27968,-0.27968,-0.94024,-0.94024,1.67669,1.67669,0.29558,0.29558,-0.0973,-0.0973,-1.0904,-1.0904,0.0,0.0
1,185,3.7,-0.26122,-0.91433,1.62861,0.29409,-0.09249,-1.07715,-0.0052,-0.00521,-0.00566,-0.00521,-0.00517,-0.00473,0.52171,0.00831,0.02489,1.0,0.0,-0.0,-0.0,-0.27584,-0.27584,-0.93011,-0.93011,1.6546,1.6546,0.29734,0.29734,-0.09713,-0.09713,-1.0816,-1.0816,0.0,0.0
1,186,3.72,-0.27977,-0.91796,1.61772,0.30029,-0.09909,-1.06939,-0.0052,-0.00525,-0.00581,-0.00521,-0.00514,-0.0046,0.52171,0.00831,0.02489,1.0,0.0,0.0,-0.0,-0.27211,-0.27211,-0.91991,-0.91991,1.63239,1.63239,0.29918,0.29918,-0.09691,-0.09691,-1.07268,-1.07268,0.0,0.0
1,187,3.74,-0.28334,-0.90993,1.61,0.30444,-0.09602,-1.0587,-0.00522,-0.00516,-0.00427,-0.0052,-0.00528,-0.00612,0.52171,0.00831,0.02489,1.0,0.0,-0.0,-0.0,-0.26849,-0.26849,-0.90964,-0.90964,1.61006,1.61006,0.30106,0.30106,-0.09662,-0.09662,-1.06365,-1.06365,0.0,0.0
1,188,3.76,-0.25739,-0.87635,1.56007,0.29906,-0.0941,-1.05052,-0.0052,-0.00523,-0.00543,-0.00521,-0.00518,-0.00498,0.52171,0.00831,0.02489,1.0,0.0,0.0,-0.0,-0.26496,-0.26496,-0.8993,-0.8993,1.58759,1.58759,0.30298,0.30298,-0.09628,-0.09628,-1.05451,-1.05451,0.0,0.0
1,189,3.78,-0.24765,-0.8739,1.57156,0.30631,-0.0965,-1.04137,-0.0052,-0.00522,-0.00556,-0.00521,-0.00516,-0.00482,0.52171,0.00831,0.02489,1.0,0.0,0.0,-0.0,-0.26153,-0.26153,-0.88889,-0.88889,1.56498,1.56498,0.30491,0.30491,-0.09587,-0.09587,-1.04527,-1.04527,0.0,0.0
1,190,3.8,-0.25186,-0.87055,1.54462,0.31006,-0.09433,-1.02984,-0.0052,-0.00518,-0.00541,-0.00521,-0.00521,-0.00499,0.52171,0.00831,0.02489,1.0,0.0,-0.0,-0.0,-0.2582,-0.2582,-0.87842,-0.87842,1.54223,1.54223,0.30685,0.30685,-0.0954,-0.0954,-1.03594,-1.03594,0.0,0.0
1,191,3.82,-0.25871,-0.85604,1.48225,0.30371,-0.09443,-1.02422,-0.0052,-0.00523,-0.00536,-0.0052,-0.00517,-0.00503,0.52171,0.00831,0.02489,1.0,0.0,0.0,-0.0,-0.25495,-0.25495,-0.86787,-0.86787,1.51932,1.51932,0.30879,0.30879,-0.09487,-0.09487,-1.02651,-1.02651,0.0,0.0
1,192,3.84,-0.26519,-0.85985,1.49593,0.31581,-0.09282,-1.01146,-0.00521,-0.00523,-0.00506,-0.0052,-0.00519,-0.00536,0.52171,0.00831,0.02489,1.0,0.0,0.0,-0.0,-0.25179,-0.25179,-0.85725,-0.85725,1.49625,1.49625,0.31072,0.31072,-0.09428,-0.09428,-1.01699,-1.01699,0.0,0.0
1,193,3.86,-0.24623,-0.83474,1.46467,0.3125,-0.09548,-1.0028,-0.00521,-0.00516,-0.00483,-0.0052,-0.00525,-0.00557,0.52171,0.00831,0.02489,1.0,0.0,-0.0,-0.0,-0.24871,-0.24871,-0.84655,-0.84655,1.47301,1.47301,0.31262,0.31262,-0.09363,-0.09363,-1.00737,-1.00737,0.0,0.0
1,194,3.88,-0.22878,-0.81034,1.42908,0.31037,-0.08818,-0.99402,-0.0052,-0.00524,-0.00568,-0.00521,-0.00513,-0.00471,0.52171,0.00831,0.02489,1.0,0.0,0.0,-0.0,-0.24571,-0.24571,-0.83578,-0.83578,1.44959,1.44959,0.31451,0.31451,-0.09291,-0.09291,-0.99765,-0.99765,0.0,0.0
1,195,3.9,-0.23684,-0.81647,1.44132,0.32249,-0.09475,-0.98172,-0.0052,-0.00521,-0.00567,-0.00521,-0.00518,-0.00473,0.52171,0.00831,0.02489,1.0,0.0,0.0,-0.0,-0.24278,-0.24278,-0.82492,-0.82492,1.42599,1.42599,0.31636,0.31636,-0.09213,-0.09213,-0.98783,-0.98783,0.0,0.0
1,196,3.92,-0.24143,-0.80933,1.39721,0.317,-0.09323,-0.97604,-0.00521,-0.00518,-0.00486,-0.0052,-0.00523,-0.00553,0.52171,0.00831,0.02489,1.0,0.0,-0.0,-0.0,-0.23371,-0.23371,-0.81853,-0.81853,1.41379,1.41379,0.32009,0.32009,-0.09373,-0.09373,-0.97894,-0.97894,0.0,0.0
1,197,3.94,-0.23204,-0.81324,1.39614,0.32696,-0.09555,-0.96792,-0.00521,-0.00524,-0.00517,-0.0052,-0.00518,-0.00525,0.52171,0.00831,0.02489,1.0,0.0,0.0,-0.0,-0.2219,-0.2219,-0.81473,-0.81473,1.40765,1.40765,0.32417,0.32417,-0.09604,-0.09604,-0.97126,-0.97126,0.0,0.0
1,198,3.96,-0.2027,-0.81413,1.41606,0.33022,-0.10091,-0.9614,-0.00521,-0.00516,-0.00478,-0.0052,-0.00525,-0.00561,0.52171,0.00831,0.02489,1.0,0.0,-0.0,-0.0,-0.21014,-0.21014,-0.81144,-0.81144,1.40199,1.40199,0.32749,0.32749,-0.09753,-0.09753,-0.96456,-0.96456,0.0,0.0
1,199,3.98,-0.16976,-0.79066,1.38294,0.32877,-0.09511,-0.95564,-0.0052,-0.00521,-0.00565,-0.00521,-0.00516,-0.00474,0.52171,0.00831,0.02489,1.0,0.0,0.0,-0.0,-0.19841,-0.19841,-0.80841,-0.80841,1.39639,1.39639,0.33014,0.33014,-0.09816,-0.09816,-0.95864,-0.95864,0.0,0.0
1,200,4.0,-0.17024,-0.79561,1.40404,0.33265,-0.09897,-0.95204,-0.00519,-0.00523,-0.00597,-0.00521,-0.00514,-0.00442,0.52171,0.00831,0.02489,1.0,0.0,-0.0,-0.0,-0.18669,-0.18669,-0.80558,-0.80558,1.39079,1.39079,0.33227,0.33227,-0.09801,-0.09801,-0.95334,-0.95334,0.0,0.0
1,201,4.02,-0.18086,-0.79695,1.39028,0.33695,-0.09664,-0.94425,-0.00521,-0.00516,-0.00482,-0.0052,-0.00525,-0.00557,0.52171,0.00831,0.02489,1.0,0.0,0.0,-0.0,-0.175,-0.175,-0.80289,-0.80289,1.38513,1.38513,0.33401,0.33401,-0.09713,-0.09713,-0.94854,-0.94854,0.0,0.0
1,202,4.04,-0.17455,-0.79118,1.35511,0.32999,-0.09154,-0.94457,-0.00521,-0.00523,-0.00507,-0.0052,-0.00519,-0.00535,0.52171,0.00831,0.02489,1.0,0.0,-0.0,-0.0,-0.16333,-0.16333,-0.80031,-0.80031,1.3794,1.3794,0.33547,0.33547,-0.0956,-0.0956,-0.94414,-0.94414,0.0,0.0
1,203,4.06,-0.15211,-0.8026,1.38591,0.34199,-0.09534,-0.93699,-0.00521,-0.00519,-0.0047,-0.0052,-0.00523,-0.00569,0.52171,0.00831,0.02489,1.0,0.0,0.0,-0.0,-0.15169,-0.15169,-0.7978,-0.7978,1.37357,1.37357,0.33673,0.33673,-0.09347,-0.09347,-0.94006,-0.94006,0.0,0.0
1,204,4.08,-0.11586,-0.78706,1.36391,0.33638,-0.08721,-0.93407,-0.0052,-0.00518,-0.00528,-0.00521,-0.00521,-0.00512,0.52171,0.00831,0.02489,1.0,0.0,-0.0,-0.0,-0.14007,-0.14007,-0.79533,-0.79533,1.36762,1.36762,0.33785,0.33785,-0.0908,-0.0908,-0.93623,-0.93623,0.0,0.0
1,205,4.1,-0.10338,-0.77839,1.35636,0.33658,-0.08665,-0.93269,-0.00519,-0.00524,-0.00594,-0.00521,-0.00512,-0.00444,0.52171,0.00831,0.02489,1.0,0.0,-0.0,-0.0,-0.12847,-0.12847,-0.79288,-0.79288,1.36153,1.36153,0.33888,0.33888,-0.08764,-0.08764,-0.9326,-0.9326,0.0,0.0
1,206,4.12,-0.1165,-0.78699,1.37427,0.34453,-0.08191,-0.92494,-0.0052,-0.00518,-0.00517,-0.00521,-0.00521,-0.00522,0.52171,0.00831,0.02489,1.0,0.0,0.0,-0.0,-0.11691,-0.11691,-0.79043,-0.79043,1.35528,1.35528,0.33985,0.33985,-0.08404,-0.08404,-0.92911,-0.92911,0.0,0.0
1,207,4.14,-0.11722,-0.77543,1.32798,0.33536,-0.07707,-0.9262,-0.00521,-0.0052,-0.00489,-0.0052,-0.00523,-0.00552,0.52171,0.00831,0.02489,1.0,0.0,-0.0,-0.0,-0.10537,-0.10537,-0.78795,-0.78795,1.34887,1.34887,0.3408,0.3408,-0.08003,-0.08003,-0.92574,-0.92574,0.0,0.0
1,208,4.16,-0.10124,-0.78356,1.34055,0.34344,-0.07219,-0.92054,-0.00522,-0.00522,-0.00464,-0.0052,-0.00521,-0.00575,0.52171,0.00831,0.02489,1.0,0.0,0.0,-0.0,-0.09386,-0.09386,-0.78545,-0.78545,1.34229,1.34229,0.34173,0.34173,-0.07566,-0.07566,-0.92246,-0.92246,0.0,0.0
1,209,4.18,-0.0675,-0.78282,1.34523,0.3448,-0.07049,-0.9167,-0.0052,-0.00518,-0.00509,-0.00521,-0.00523,-0.00532,0.52171,0.00831,0.02489,1.0,0.0,-0.0,-0.0,-0.08238,-0.08238,-0.7829,-0.7829,1.33552,1.33552,0.34268,0.34268,-0.07095,-0.07095,-0.91922,-0.91922,0.0,0.0
1,210,4.2,-0.0411,-0.7655,1.312,0.33981,-0.06179,-0.91618,-0.0052,-0.00521,-0.00549,-0.0052,-0.00515,-0.00487,0.52171,0.00831,0.02489,1.0,0.0,0.0,-0.0,-0.07094,-0.07094,-0.78029,-0.78029,1.32856,1.32856,0.34364,0.34364,-0.06595,-0.06595,-0.91602,-0.91602,0.0,0.0
1,211,4.22,-0.04817,-0.77422,1.3382,0.34827,-0.05826,-0.90991,-0.0052,-0.00522,-0.0058,-0.00521,-0.00515,-0.00459,0.52171,0.00831,0.02489,1.0,0.0,0.0,-0.0,-0.05953,-0.05953,-0.77762,-0.77762,1.3214,1.3214,0.34462,0.34462,-0.06067,-0.06067,-0.91283,-0.91283,0.0,0.0
1,212,4.24,-0.05691,-0.76512,1.30775,0.3444,-0.05363,-0.90831,-0.00521,-0.00516,-0.00467,-0.0052,-0.00525,-0.00571,0.52171,0.00831,0.02489,1.0,0.0,-0.0,-0.0,-0.04816,-0.04816,-0.77488,-0.77488,1.31404,1.31404,0.34562,0.34562,-0.05515,-0.05515,-0.90963,-0.90963,0.0,0.0
1,213,4.26,-0.04918,-0.76137,1.29009,0.34293,-0.04153,-0.90606,-0.00521,-0.00524,-0.00485,-0.0052,-0.00519,-0.00556,0.52171,0.00831,0.02489,1.0,0.0,0.0,-0.0,-0.03682,-0.03682,-0.77206,-0.77206,1.30648,1.30648,0.34665,0.34665,-0.04941,-0.04941,-0.90641,-0.90641,0.0,0.0
1,214,4.28,-0.02314,-0.77058,1.31443,0.35321,-0.04559,-0.89997,-0.00521,-0.00517,-0.0047,-0.0052,-0.00525,-0.00569,0.52171,0.00831,0.02489,1.0,0.0,-0.0,-0.0,-0.02553,-0.02553,-0.76916,-0.76916,1.2987,1.2987,0.34769,0.34769,-0.04346,-0.04346,-0.90315,-0.90315,0.0,0.0
1,215,4.3,0.01268,-0.75404,1.27559,0.34414,-0.03004,-0.89949,-0.0052,-0.0052,-0.00523,-0.0052,-0.00519,-0.00515,0.52171,0.00831,0.02489,1.0,0.0,0.0,-0.0,-0.01427,-0.01427,-0.76618,-0.76618,1.29071,1.29071,0.34875,0.34875,-0.03733,-0.03733,-0.89984,-0.89984,0.0,0.0
1,216,4.32,0.01965,-0.75709,1.28659,0.3523,-0.03034,-0.89466,-0.00519,-0.00523,-0.00593,-0.00521,-0.00512,-0.00445,0.52171,0.00831,0.02489,1.0,0.0,-0.0,-0.0,-0.00306,-0.00306,-0.76311,-0.76311,1.28251,1.28251,0.34982,0.34982,-0.03104,-0.03104,-0.89647,-0.89647,0.0,0.0
1,217,4.34,0.0086,-0.75666,1.28272,0.35225,-0.02152,-0.8905,-0.00521,-0.00516,-0.00492,-0.0052,-0.00523,-0.00546,0.52171,0.00831,0.02489,1.0,0.0,0.0,-0.0,0.00811,0.00811,-0.75994,-0.75994,1.27409,1.27409,0.3509,0.3509,-0.02459,-0.02459,-0.89301,-0.89301,0.0,0.0
1,218,4.36,0.00703,-0.74145,1.24091,0.3476,-0.01146,-0.88902,-0.00521,-0.00523,-0.00503,-0.0052,-0.00519,-0.00538,0.52171,0.00831,0.02489,1.0,0.0,0.0,-0.0,0.01923,0.01923,-0.75669,-0.75669,1.26545,1.26545,0.35197,0.35197,-0.01801,-0.01801,-0.88947,-0.88947,0.0,0.0
1,219,4.38,0.01853,-0.75486,1.2739,0.3578,-0.01227,-0.88344,-0.00522,-0.00519,-0.0045,-0.0052,-0.00524,-0.00589,0.52171,0.00831,0.02489,1.0,0.0,-0.0,-0.0,0.02761,0.02761,-0.75642,-0.75642,1.25801,1.25801,0.35415,0.35415,-0.01245,-0.01245,-0.88574,-0.88574,0.0,0.0
1,220,4.4,0.04408,-0.75607,1.25892,0.36269,-0.00838,-0.87849,-0.0052,-0.00519,-0.00532,-0.00521,-0.00521,-0.00509,0.52171,0.00831,0.02489,1.0,0.0,0.0,-0.0,0.02782,0.02782,-0.76544,-0.76544,1.25486,1.25486,0.35971,0.35971,-0.01035,-0.01035,-0.88169,-0.88169,0.0,0.0
1,221,4.42,0.04982,-0.76923,1.24763,0.36478,-0.00779,-0.87754,-0.0052,-0.00522,-0.00563,-0.0052,-0.00514,-0.00473,0.52171,0.00831,0.02489,1.0,0.0,-0.0,-0.0,0.02783,0.02783,-0.77463,-0.77463,1.25198,1.25198,0.36561,0.36561,-0.00857,-0.00857,-0.8774,-0.8774,0.0,0.0
1,222,4.44,0.02771,-0.79617,1.2619,0.38009,-0.00724,-0.86808,-0.0052,-0.0052,-0.00549,-0.00521,-0.00519,-0.0049,0.52171,0.00831,0.02489,1.0,0.0,-0.0,-0.0,0.02782,0.02782,-0.78366,-0.78366,1.24883,1.24883,0.37162,0.37162,-0.00689,-0.00689,-0.8729,-0.8729,0.0,0.0
1,223,4.46,0.01063,-0.79477,1.2236,0.37571,-0.00346,-0.86805,-0.00521,-0.0052,-0.00483,-0.0052,-0.00522,-0.00557,0.52171,0.00831,0.02489,1.0,0.0,0.0,-0.0,0.02782,0.02782,-0.79251,-0.79251,1.24537,1.24537,0.37773,0.37773,-0.00531,-0.00531,-0.8682,-0.8682,0.0,0.0
1,224,4.48,0.0097,-0.80372,1.24451,0.38774,-0.00214,-0.86071,-0.00522,-0.00521,-0.00466,-0.0052,-0.00522,-0.00575,0.52171,0.00831,0.02489,1.0,0.0,-0.0,-0.0,0.02781,0.02781,-0.80119,-0.80119,1.24162,1.24162,0.3839,0.3839,-0.00379,-0.00379,-0.86333,-0.86333,0.0,0.0
1,225,4.5,0.03148,-0.80293,1.24888,0.3948,-0.00268,-0.85423,-0.00521,-0.00517,-0.00487,-0.0052,-0.00525,-0.00554,0.52171,0.00831,0.02489,1.0,0.0,0.0,-0.0,0.02781,0.02781,-0.80969,-0.80969,1.23757,1.23757,0.39014,0.39014,-0.00235,-0.00235,-0.85828,-0.85828,0.0,0.0
1,226,4.52,0.05022,-0.80198,1.22628,0.39345,0.002,-0.85308,-0.0052,-0.00522,-0.00554,-0.0052,-0.00515,-0.00484,0.52171,0.00831,0.02489,1.0,0.0,-0.0,-0.0,0.02781,0.02781,-0.81802,-0.81802,1.23323,1.23323,0.39643,0.39643,-0.00097,-0.00097,-0.85309,-0.85309,0.0,0.0
1,227,4.54,0.03809,-0.83066,1.24655,0.41236,-0.00111,-0.84232,-0.0052,-0.0052,-0.00567,-0.00521,-0.00517,-0.00471,0.52171,0.00831,0.02489,1.0,0.0,0.0,-0.0,0.0278,0.0278,-0.82618,-0.82618,1.22859,1.22859,0.40276,0.40276,0.00036,0.00036,-0.84775,-0.84775,0.0,0.0
1,228,4.56,0.01846,-0.83915,1.20789,0.40694,0.00318,-0.84172,-0.0052,-0.00519,-0.0051,-0.0052,-0.00522,-0.0053,0.52171,0.00831,0.02489,1.0,0.0,-0.0,-0.0,0.0278,0.0278,-0.83417,-0.83417,1.22366,1.22366,0.40913,0.40913,0.00164,0.00164,-0.84227,-0.84227,0.0,0.0
1,229,4.58,0.00784,-0.84931,1.20718,0.42034,0.00449,-0.83355,-0.00521,-0.00522,-0.00473,-0.0052,-0.00521,-0.00567,0.52171,0.00831,0.02489,1.0,0.0,0.0,-0.0,0.0278,0.0278,-0.84199,-0.84199,1.21845,1.21845,0.41553,0.41553,0.00288,0.00288,-0.83665,-0.83665,0.0,0.0
1,230,4.6,0.02063,-0.85322,1.22515,0.42572,0.00329,-0.82766,-0.00521,-0.00518,-0.00473,-0.0052,-0.00526,-0.00569,0.52171,0.00831,0.02489,1.0,0.0,-0.0,-0.0,0.02779,0.02779,-0.84963,-0.84963,1.21295,1.21295,0.42195,0.42195,0.00408,0.00408,-0.83091,-0.83091,0.0,0.0
1,231,4.62,0.0455,-0.83859,1.19636,0.42801,0.00781,-0.82288,-0.0052,-0.0052,-0.00524,-0.0052,-0.00518,-0.00514,0.52171,0.00831,0.02489,1.0,0.0,0.0,-0.0,0.02779,0.02779,-0.8571,-0.8571,1.20715,1.20715,0.42839,0.42839,0.00524,0.00524,-0.82504,-0.82504,0.0,0.0
1,232,4.64,0.04373,-0.85884,1.22195,0.43991,0.00642,-0.81564,-0.0052,-0.00522,-0.0058,-0.00521,-0.00515,-0.00458,0.52171,0.00831,0.02489,1.0,0.0,-0.0,-0.0,0.02779,0.02779,-0.8644,-0.8644,1.20107,1.20107,0.43485,0.43485,0.00638,0.00638,-0.81905,-0.81905,0.0,0.0
1,233,4.66,0.02632,-0.86994,1.18917,0.44385,0.00709,-0.80946,-0.0052,-0.00518,-0.00524,-0.00521,-0.00522,-0.00515,0.52171,0.00831,0.02489,1.0,0.0,0.0,-0.0,0.02779,0.02779,-0.87152,-0.87152,1.19471,1.19471,0.44132,0.44132,0.00749,0.00749,-0.81295,-0.81295,0.0,0.0
1,234,4.68,0.00985,-0.88426,1.17013,0.44786,0.01245,-0.80534,-0.00521,-0.00523,-0.00494,-0.0052,-0.00518,-0.00546,0.52171,0.00831,0.02489,1.0,0.0,0.0,-0.0,0.02779,0.02779,-0.87846,-0.87846,1.18805,1.18805,0.4478,0.4478,0.00858,0.00858,-0.80672,-0.80672,0.0,0.0
1,235,4.7,0.01299,-0.89861,1.18991,0.46236,0.00618,-0.79593,-0.00521,-0.00518,-0.00462,-0.0052,-0.00527,-0.0058,0.52171,0.00831,0.02489,1.0,0.0,-0.0,-0.0,0.02778,0.02778,-0.88523,-0.88523,1.18111,1.18111,0.45429,0.45429,0.00965,0.00965,-0.80038,-0.80038,0.0,0.0
1,236,4.72,0.03944,-0.8815,1.15765,0.45854,0.01522,-0.79176,-0.00521,-0.0052,-0.00497,-0.0052,-0.0052,-0.00541,0.52171,0.00831,0.02489,1.0,0.0,0.0,-0.0,0.02778,0.02778,-0.89182,-0.89182,1.17387,1.17387,0.46079,0.46079,0.01071,0.01071,-0.79392,-0.79392,0.0,0.0
1,237,4.74,0.04654,-0.89013,1.18403,0.47304,0.00969,-0.78412,-0.00519,-0.00522,-0.00587,-0.00521,-0.00515,-0.00451,0.52171,0.00831,0.02489,1.0,0.0,-0.0,-0.0,0.02778,0.02778,-0.89824,-0.89824,1.16634,1.16634,0.46728,0.46728,0.01176,0.01176,-0.78735,-0.78735,0.0,0.0
1,238,4.76,0.0335,-0.89537,1.16274,0.47648,0.01438,-0.77615,-0.0052,-0.00517,-0.00525,-0.00521,-0.00521,-0.00513,0.52171,0.00831,0.02489,1.0,0.0,0.0,-0.0,0.02778,0.02778,-0.90447,-0.90447,1.15852,1.15852,0.47378,0.47378,0.0128,0.0128,-0.78066,-0.78066,0.0,0.0
1,239,4.78,0.01328,-0.9063,1.13294,0.4788,0.01643,-0.77252,-0.00521,-0.00524,-0.00535,-0.0052,-0.00516,-0.00505,0.52171,0.00831,0.02489,1.0,0.0,-0.0,-0.0,0.02778,0.02778,-0.91051,-0.91051,1.1504,1.1504,0.48027,0.48027,0.01384,0.01384,-0.77386,-0.77386,0.0,0.0
1,240,4.8,0.00701,-0.93025,1.15045,0.49583,0.01276,-0.76212,-0.00522,-0.00517,-0.0043,-0.0052,-0.00528,-0.0061,0.52171,0.00831,0.02489,1.0,0.0,0.0,-0.0,0.02777,0.02777,-0.91638,-0.91638,1.14199,1.14199,0.48676,0.48676,0.01487,0.01487,-0.76695,-0.76695,0.0,0.0
1,241,4.82,0.03209,-0.91975,1.11147,0.49033,0.01973,-0.75764,-0.00521,-0.00521,-0.00509,-0.0052,-0.00521,-0.00533,0.52171,0.00831,0.02489,1.0,0.0,-0.0,-0.0,0.02777,0.02777,-0.92205,-0.92205,1.13328,1.13328,0.49324,0.49324,0.0159,0.0159,-0.75992,-0.75992,0.0,0.0
1,242,4.84,0.0474,-0.92639,1.13575,0.50686,0.01392,-0.74923,-0.0052,-0.0052,-0.0054,-0.0052,-0.00517,-0.00496,0.52171,0.00831,0.02489,1.0,0.0,0.0,-0.0,0.02777,0.02777,-0.92754,-0.92754,1.12427,1.12427,0.49971,0.49971,0.01694,0.01694,-0.75277,-0.75277,0.0,0.0
1,243,4.86,0.03913,-0.93593,1.15941,0.51383,0.01169,-0.74559,-0.00519,-0.0052,-0.00588,-0.00521,-0.00518,-0.00453,0.52171,0.00831,0.02489,1.0,0.0,0.0,-0.0,0.02836,0.02836,-0.93564,-0.93564,1.13737,1.13737,0.50917,0.50917,0.01314,0.01314,-0.74814,-0.74814,0.0,0.0
1,244,4.88,0.01933,-0.93983,1.15827,0.51927,0.00522,-0.747,-0.00521,-0.0052,-0.00519,-0.0052,-0.0052,-0.00519,0.52171,0.00831,0.02489,1.0,0.0,0.0,-0.0,0.0288,0.0288,-0.94563,-0.94563,1.15786,1.15786,0.51786,0.51786,0.00811,0.00811,-0.74616,-0.74616,0.0,0.0
1,245,4.9,0.00775,-0.96188,1.20366,0.52876,0.00363,-0.7457,-0.00521,-0.0052,-0.00477,-0.0052,-0.00524,-0.00566,0.52171,0.00831,0.02489,1.0,0.0,-0.0,-0.0,0.02916,0.02916,-0.95643,-0.95643,1.1794,1.1794,0.5245,0.5245,0.00351,0.00351,-0.74635,-0.74635,0.0,0.0
1,246,4.92,0.02751,-0.96448,1.20607,0.52957,-0.00389,-0.74962,-0.00521,-0.00518,-0.00481,-0.0052,-0.00525,-0.00559,0.52171,0.00831,0.02489,1.0,0.0,0.0,-0.0,0.0295,0.0295,-0.96773,-0.96773,1.20131,1.20131,0.52933,0.52933,-0.00051,-0.00051,-0.74824,-0.74824,0.0,0.0
1,247,4.94,0.0475,-0.98036,1.24139,0.53329,-0.00333,-0.75387,-0.0052,-0.00521,-0.00541,-0.0052,-0.00517,-0.00498,0.52171,0.00831,0.02489,1.0,0.0,0.0,-0.0,0.02985,0.02985,-0.97941,-0.97941,1.22342,1.22342,0.53265,0.53265,-0.00395,-0.00395,-0.75145,-0.75145,0.0,0.0
1,248,4.96,0.04488,-0.99755,1.2705,0.53863,-0.01111,-0.75618,-0.00519,-0.00519,-0.00588,-0.00521,-0.00519,-0.00453,0.52171,0.00831,0.02489,1.0,0.0,-0.0,-0.0,0.03021,0.03021,-0.9914,-0.9914,1.24562,1.24562,0.53475,0.53475,-0.00686,-0.00686,-0.75569,-0.75569,0.0,0.0
1,249,4.98,0.02608,-1.0036,1.26597,0.5318,-0.00798,-0.7649,-0.0052,-0.0052,-0.00515,-0.0052,-0.00519,-0.00523,0.52171,0.00831,0.02489,1.0,0.0,0.0,-0.0,0.03058,0.03058,-1.00363,-1.00363,1.26783,1.26783,0.53588,0.53588,-0.00928,-0.00928,-0.76069,-0.76069,0.0,0.0
1,250,5.0,0.00953,-1.02307,1.31058,0.53955,-0.01244,-0.76785,-0.00521,-0.00521,-0.00499,-0.0052,-0.00523,-0.00545,0.52171,0.00831,0.02489,1.0,0.0,-0.0,-0.0,0.03095,0.03095,-1.01606,-1.01606,1.28998,1.28998,0.53623,0.53623,-0.01125,-0.01125,-0.76626,-0.76626,0.0,0.0
1,251,5.02,0.02658,-1.02529,1.32337,0.53239,-0.01315,-0.77543,-0.00522,-0.00516,-0.00432,-0.0052,-0.00528,-0.00607,0.52171,0.00831,0.02489,1.0,0.0,0.0,-0.0,0.03133,0.03133,-1.02862,-1.02862,1.31203,1.31203,0.53596,0.53596,-0.01283,-0.01283,-0.77223,-0.77223,0.0,0.0
1,252,5.04,0.04893,-1.03548,1.34761,0.53465,-0.013,-0.78154,-0.0052,-0.00523,-0.00569,-0.00521,-0.00516,-0.00471,0.52171,0.00831,0.02489,1.0,0.0,-0.0,-0.0,0.03172,0.03172,-1.0413,-1.0413,1.33393,1.33393,0.53521,0.53521,-0.01407,-0.01407,-0.77849,-0.77849,0.0,0.0
1,253,5.06,0.04459,-1.06167,1.38576,0.53499,-0.01776,-0.78744,-0.0052,-0.00518,-0.00554,-0.00521,-0.0052,-0.00485,0.52171,0.00831,0.02489,1.0,0.0,-0.0,-0.0,0.03211,0.03211,-1.05406,-1.05406,1.35567,1.35567,0.53409,0.53409,-0.01499,-0.01499,-0.78492,-0.78492,0.0,0.0
1,254,5.08,0.02734,-1.07144,1.37343,0.53003,-0.01386,-0.79469,-0.0052,-0.0052,-0.00528,-0.00521,-0.0052,-0.00511,0.52171,0.00831,0.02489,1.0,0.0,-0.0,-0.0,0.03252,0.03252,-1.06688,-1.06688,1.37721,1.37721,0.5327,0.5327,-0.01564,-0.01564,-0.79146,-0.79146,0.0,0.0
1,255,5.1,0.01454,-1.08898,1.40909,0.53098,-0.01695,-0.80188,-0.00521,-0.00521,-0.00478,-0.0052,-0.00522,-0.00563,0.52171,0.00831,0.02489,1.0,0.0,0.0,0.0,0.03293,0.03293,-1.07974,-1.07974,1.39856,1.39856,0.5311,0.5311,-0.01606,-0.01606,-0.79803,-0.79803,0.0,0.0
1,256,5.12,0.03202,-1.09363,1.44095,0.52791,-0.0156,-0.80666,-0.00521,-0.00516,-0.00447,-0.0052,-0.00527,-0.00593,0.52171,0.00831,0.02489,1.0,0.0,-0.0,0.0,0.03336,0.03336,-1.09262,-1.09262,1.41969,1.41969,0.52935,0.52935,-0.01629,-0.01629,-0.80459,-0.80459,0.0,0.0
1,257,5.14,0.05372,-1.09408,1.45013,0.52497,-0.01558,-0.81452,-0.0052,-0.00522,-0.00569,-0.00521,-0.00516,-0.0047,0.52171,0.00831,0.02489,1.0,0.0,0.0,-0.0,0.03379,0.03379,-1.10552,-1.10552,1.4406,1.4406,0.5275,0.5275,-0.01634,-0.01634,-0.81111,-0.81111,0.0,0.0
1,258,5.16,0.03901,-1.12367,1.49001,0.52483,-0.0167,-0.82074,-0.0052,-0.00521,-0.00568,-0.00521,-0.00517,-0.00471,0.52171,0.00831,0.02489,1.0,0.0,0.0,-0.0,0.03424,0.03424,-1.11843,-1.11843,1.4613,1.4613,0.52559,0.52559,-0.01624,-0.01624,-0.81756,-0.81756,0.0,0.0
1,259,5.18,0.02156,-1.14007,1.48329,0.52368,-0.01527,-0.82558,-0.00521,-0.00518,-0.00474,-0.0052,-0.00525,-0.00566,0.52171,0.00831,0.02489,1.0,0.0,0.0,0.0,0.0347,0.0347,-1.13134,-1.13134,1.48177,1.48177,0.52364,0.52364,-0.01602,-0.01602,-0.82392,-0.82392,0.0,0.0
1,260,5.2,0.02539,-1.15121,1.49998,0.51739,-0.01515,-0.8357,-0.00521,-0.00521,-0.0048,-0.0052,-0.00521,-0.0056,0.52171,0.00831,0.02489,1.0,0.0,0.0,-0.0,0.03517,0.03517,-1.14424,-1.14424,1.50201,1.50201,0.52169,0.52169,-0.0157,-0.0157,-0.83016,-0.83016,0.0,0.0
1,261,5.22,0.04385,-1.16247,1.55271,0.52274,-0.01552,-0.83652,-0.00521,-0.00518,-0.00483,-0.0052,-0.00524,-0.00556,0.52171,0.00831,0.02489,1.0,0.0,-0.0,0.0,0.03566,0.03566,-1.15714,-1.15714,1.52204,1.52204,0.51975,0.51975,-0.01529,-0.01529,-0.83629,-0.83629,0.0,0.0
1,262,5.24,0.05476,-1.16098,1.55474,0.51236,-0.0136,-0.84642,-0.00519,-0.00521,-0.00581,-0.00521,-0.00517,-0.00458,0.52171,0.00831,0.02489,1.0,0.0,0.0,0.0,0.03615,0.03615,-1.17004,-1.17004,1.54185,1.54185,0.51783,0.51783,-0.01481,-0.01481,-0.84229,-0.84229,0.0,0.0
1,263,5.26,0.02946,-1.1834,1.57314,0.51674,-0.01414,-0.85044,-0.0052,-0.00522,-0.00551,-0.00521,-0.00516,-0.00487,0.52171,0.00831,0.02489,1.0,0.0,-0.0,0.0,0.03667,0.03667,-1.18292,-1.18292,1.56144,1.56144,0.51596,0.51596,-0.01427,-0.01427,-0.84816,-0.84816,0.0,0.0
1,264,5.28,0.01638,-1.20801,1.59283,0.512,-0.01188,-0.85627,-0.00522,-0.00518,-0.00427,-0.0052,-0.00528,-0.00615,0.52171,0.00831,0.02489,1.0,0.0,-0.0,0.0,0.03719,0.03719,-1.1958,-1.1958,1.58082,1.58082,0.51413,0.51413,-0.01368,-0.01368,-0.85389,-0.85389,0.0,0.0
1,265,5.3,0.0452,-1.2108,1.59774,0.51131,-0.01429,-0.86297,-0.00521,-0.00518,-0.00471,-0.0052,-0.00523,-0.00566,0.52171,0.00831,0.02489,1.0,0.0,0.0,0.0,0.03773,0.03773,-1.20868,-1.20868,1.59999,1.59999,0.51236,0.51236,-0.01306,-0.01306,-0.85949,-0.85949,0.0,0.0
1,266,5.32,0.05141,-1.22549,1.64367,0.5095,-0.01034,-0.86661,-0.00519,-0.00523,-0.00606,-0.00521,-0.00514,-0.00433,0.52171,0.00831,0.02489,1.0,0.0,-0.0,0.0,0.03262,0.03262,-1.21986,-1.21986,1.61622,1.61622,0.51024,0.51024,-0.01222,-0.01222,-0.86476,-0.86476,0.0,0.0
1,267,5.34,0.014,-1.22996,1.64202,0.50719,-0.01376,-0.87082,-0.00519,-0.00518,-0.00566,-0.00521,-0.00519,-0.00473,0.52171,0.00831,0.02489,1.0,0.0,0.0,0.0,0.01782,0.01782,-1.22796,-1.22796,1.62757,1.62757,0.50761,0.50761,-0.01148,-0.01148,-0.86947,-0.86947,0.0,0.0
1,268,5.36,-0.02838,-1.22903,1.62187,0.50057,-0.0081,-0.87723,-0.00521,-0.00522,-0.00471,-0.0052,-0.00521,-0.00569,0.52171,0.00831,0.02489,1.0,0.0,0.0,0.0,0.00271,0.00271,-1.23555,-1.23555,1.63841,1.63841,0.50527,0.50527,-0.01177,-0.01177,-0.87375,-0.87375,0.0,0.0
1,269,5.38,-0.03666,-1.24408,1.666,0.50322,-0.015,-0.87851,-0.00522,-0.0052,-0.00427,-0.0052,-0.00527,-0.00615,0.52171,0.00831,0.02489,1.0,0.0,-0.0,0.0,-0.01252,-0.01252,-1.24273,-1.24273,1.64888,1.64888,0.50318,0.50318,-0.01302,-0.01302,-0.87767,-0.87767,0.0,0.0
1,270,5.4,-0.01035,-1.24554,1.67616,0.49935,-0.01549,-0.8828,-0.00521,-0.00517,-0.00497,-0.0052,-0.00523,-0.00541,0.52171,0.00831,0.02489,1.0,0.0,-0.0,0.0,-0.02787,-0.02787,-1.24953,-1.24953,1.65901,1.65901,0.50125,0.50125,-0.01512,-0.01512,-0.88131,-0.88131,0.0,0.0
1,271,5.42,-0.03369,-1.25716,1.67259,0.49895,-0.02015,-0.88676,-0.00518,-0.00526,-0.00691,-0.00522,-0.00508,-0.00348,0.52171,0.00831,0.02489,1.0,0.0,0.0,0.0,-0.04334,-0.04334,-1.25597,-1.25597,1.66882,1.66882,0.49945,0.49945,-0.018,-0.018,-0.8847,-0.8847,0.0,0.0
1,272,5.44,-0.09383,-1.27461,1.68364,0.4971,-0.02366,-0.8889,-0.00521,-0.00518,-0.00454,-0.0052,-0.00525,-0.00586,0.52171,0.00831,0.02489,1.0,0.0,-0.0,0.0,-0.05892,-0.05892,-1.26209,-1.26209,1.67831,1.67831,0.49772,0.49772,-0.02156,-0.02156,-0.88788,-0.88788,0.0,0.0
1,273,5.46,-0.09586,-1.26082,1.67783,0.49358,-0.02553,-0.89285,-0.00522,-0.00518,-0.00412,-0.00519,-0.00528,-0.00629,0.52171,0.00831,0.02489,1.0,0.0,0.0,0.0,-0.07461,-0.07461,-1.2679,-1.2679,1.68749,1.68749,0.49602,0.49602,-0.02574,-0.02574,-0.89087,-0.89087,0.0,0.0
1,274,5.48,-0.07982,-1.26183,1.71786,0.49215,-0.03383,-0.89505,-0.0052,-0.00522,-0.00562,-0.00521,-0.00517,-0.00478,0.52171,0.00831,0.02489,1.0,0.0,-0.0,0.0,-0.09039,-0.09039,-1.27342,-1.27342,1.69638,1.69638,0.49433,0.49433,-0.03049,-0.03049,-0.89367,-0.89367,0.0,0.0
1,275,5.5,-0.10265,-1.28029,1.73341,0.49299,-0.03724,-0.89572,-0.00519,-0.0052,-0.0059,-0.00521,-0.00518,-0.0045,0.52171,0.00831,0.02489,1.0,0.0,0.0,0.0,-0.10626,-0.10626,-1.27866,-1.27866,1.70497,1.70497,0.49262,0.49262,-0.03575,-0.03575,-0.8963,-0.8963,0.0,0.0
1,276,5.52,-0.1427,-1.28698,1.69145,0.48868,-0.04505,-0.90194,-0.0052,-0.00521,-0.00526,-0.0052,-0.0052,-0.00515,0.52171,0.00831,0.02489,1.0,0.0,-0.0,0.0,-0.12222,-0.12222,-1.28364,-1.28364,1.71327,1.71327,0.49087,0.49087,-0.04147,-0.04147,-0.89876,-0.89876,0.0,0.0
1,277,5.54,-0.16493,-1.29712,1.71927,0.48748,-0.04931,-0.9019,-0.00522,-0.00522,-0.00454,-0.0052,-0.00523,-0.00589,0.52171,0.00831,0.02489,1.0,0.0,0.0,0.0,-0.13825,-0.13825,-1.28836,-1.28836,1.72128,1.72128,0.48905,0.48905,-0.0476,-0.0476,-0.90105,-0.90105,0.0,0.0
1,278,5.56,-0.14799,-1.28771,1.75549,0.48761,-0.05799,-0.90297,-0.00521,-0.00516,-0.00481,-0.0052,-0.00526,-0.00559,0.52171,0.00831,0.02489,1.0,0.0,0.0,0.0,-0.15434,-0.15434,-1.29283,-1.29283,1.729,1.729,0.48715,0.48715,-0.05411,-0.05411,-0.90315,-0.90315,0.0,0.0
1,279,5.58,-0.15779,-1.28034,1.74478,0.48054,-0.0631,-0.90725,-0.00518,-0.00523,-0.00654,-0.00522,-0.00511,-0.00386,0.52171,0.00831,0.02489,1.0,0.0,0.0,0.0,-0.1705,-0.1705,-1.29706,-1.29706,1.73643,1.73643,0.48514,0.48514,-0.06097,-0.06097,-0.90507,-0.90507,0.0,0.0
1,280,5.6,-0.21881,-1.30567,1.7468,0.48381,-0.07127,-0.90573,-0.0052,-0.00522,-0.00536,-0.00521,-0.00518,-0.00505,0.52171,0.00831,0.02489,1.0,0.0,0.0,0.0,-0.18671,-0.18671,-1.30107,-1.30107,1.74357,1.74357,0.48302,0.48302,-0.06815,-0.06815,-0.90678,-0.90678,0.0,0.0
1,281,5.62,-0.22822,-1.31187,1.74043,0.47746,-0.07899,-0.91128,-0.00523,-0.00515,-0.00369,-0.00519,-0.00531,-0.00671,0.52171,0.00831,0.02489,1.0,0.0,-0.0,0.0,-0.20295,-0.20295,-1.30484,-1.30484,1.75042,1.75042,0.48077,0.48077,-0.07561,-0.07561,-0.90829,-0.90829,0.0,0.0
1,282,5.64,-0.20339,-1.30483,1.76385,0.47865,-0.08722,-0.90896,-0.0052,-0.00523,-0.00585,-0.00521,-0.00516,-0.00456,0.52171,0.00831,0.02489,1.0,0.0,-0.0,0.0,-0.21923,-0.21923,-1.3084,-1.3084,1.75697,1.75697,0.47836,0.47836,-0.08334,-0.08334,-0.90956,-0.90956,0.0,0.0
1,283,5.66,-0.23255,-1.31117,1.7957,0.47309,-0.09535,-0.91063,-0.00519,-0.00521,-0.00629,-0.00522,-0.00515,-0.00411,0.52171,0.00831,0.02489,1.0,0.0,0.0,0.0,-0.23553,-0.23553,-1.31173,-1.31173,1.76322,1.76322,0.4758,0.4758,-0.09132,-0.09132,-0.91059,-0.91059,0.0,0.0
1,284,5.68,-0.27777,-1.30595,1.75676,0.47204,-0.10245,-0.91216,-0.00521,-0.00518,-0.0048,-0.0052,-0.00524,-0.0056,0.52171,0.00831,0.02489,1.0,0.0,-0.0,0.0,-0.25184,-0.25184,-1.31485,-1.31485,1.76917,1.76917,0.47305,0.47305,-0.09954,-0.09954,-0.91136,-0.91136,0.0,0.0
1,285,5.7,-0.29374,-1.31439,1.76346,0.46479,-0.11026,-0.91276,-0.00521,-0.00524,-0.00489,-0.0052,-0.00521,-0.00555,0.52171,0.00831,0.02489,1.0,0.0,0.0,0.0,-0.26816,-0.26816,-1.31776,-1.31776,1.77482,1.77482,0.47011,0.47011,-0.10797,-0.10797,-0.91185,-0.91185,0.0,0.0
1,286,5.72,-0.27897,-1.32638,1.80924,0.46886,-0.12292,-0.91084,-0.00521,-0.00516,-0.00474,-0.0052,-0.00526,-0.00565,0.52171,0.00831,0.02489,1.0,0.0,-0.0,0.0,-0.28447,-0.28447,-1.32046,-1.32046,1.78015,1.78015,0.46695,0.46695,-0.1166,-0.1166,-0.91205,-0.91205,0.0,0.0
1,287,5.74,-0.28421,-1.31943,1.78977,0.45995,-0.1279,-0.9128,-0.00518,-0.00522,-0.00654,-0.00522,-0.00513,-0.00386,0.52171,0.00831,0.02489,1.0,0.0,0.0,0.0,-0.30076,-0.30076,-1.32296,-1.32296,1.78516,1.78516,0.46358,0.46358,-0.12543,-0.12543,-0.91193,-0.91193,0.0,0.0
1,288,5.76,-0.34622,-1.32552,1.78197,0.45813,-0.14037,-0.91062,-0.0052,-0.00524,-0.00579,-0.00521,-0.00515,-0.00462,0.52171,0.00831,0.02489,1.0,0.0,-0.0,0.0,-0.31703,-0.31703,-1.32525,-1.32525,1.78986,1.78986,0.45997,0.45997,-0.13445,-0.13445,-0.91148,-0.91148,0.0,0.0
1,289,5.78,-0.36538,-1.324,1.79622,0.45329,-0.14492,-0.9111,-0.00523,-0.00516,-0.00357,-0.00519,-0.00532,-0.00685,0.52171,0.00831,0.02489,1.0,0.0,0.0,0.0,-0.33326,-0.33326,-1.32733,-1.32733,1.79423,1.79423,0.4561,0.4561,-0.14365,-0.14365,-0.91069,-0.91069,0.0,0.0
1,290,5.8,-0.30489,-1.29255,1.76708,0.44471,-0.14689,-0.90725,-0.00521,-0.00517,-0.005,-0.0052,-0.00522,-0.00535,0.52171,0.00831,0.02489,1.0,0.0,0.0,0.0,-0.33034,-0.33034,-1.31587,-1.31587,1.7774,1.7774,0.4498,0.4498,-0.14653,-0.14653,-0.90869,-0.90869,0.0,0.0
1,291,5.82,-0.30037,-1.29303,1.76083,0.44163,-0.1487,-0.90307,-0.00518,-0.00528,-0.00727,-0.00522,-0.00505,-0.00314,0.52171,0.00831,0.02489,1.0,0.0,-0.0,0.0,-0.32499,-0.32499,-1.3024,-1.3024,1.75711,1.75711,0.44427,0.44427,-0.1482,-0.1482,-0.90559,-0.90559,0.0,0.0
1,292,5.84,-0.33817,-1.29373,1.7287,0.43963,-0.1511,-0.90082,-0.00521,-0.00517,-0.00478,-0.0052,-0.00525,-0.00561,0.52171,0.00831,0.02489,1.0,0.0,0.0,0.0,-0.31968,-0.31968,-1.28875,-1.28875,1.73645,1.73645,0.43975,0.43975,-0.1495,-0.1495,-0.90161,-0.90161,0.0,0.0
1,293,5.86,-0.32461,-1.25925,1.67361,0.43093,-0.14851,-0.89448,-0.00522,-0.00521,-0.00473,-0.0052,-0.00522,-0.00567,0.52171,0.00831,0.02489,1.0,0.0,-0.0,0.0,-0.31454,-0.31454,-1.27505,-1.27505,1.71567,1.71567,0.43606,0.43606,-0.1505,-0.1505,-0.89692,-0.89692,0.0,0.0
1,294,5.88,-0.29821,-1.2466,1.70978,0.43167,-0.15223,-0.88929,-0.0052,-0.00523,-0.00558,-0.00521,-0.00517,-0.00483,0.52171,0.00831,0.02489,1.0,0.0,0.0,0.0,-0.30958,-0.30958,-1.26137,-1.26137,1.6948,1.6948,0.43305,0.43305,-0.15122,-0.15122,-0.89167,-0.89167,0.0,0.0
1,295,5.9,-0.28371,-1.23025,1.68666,0.43069,-0.15116,-0.88219,-0.0052,-0.00516,-0.00543,-0.00521,-0.00521,-0.00495,0.52171,0.00831,0.02489,1.0,0.0,-0.0,0.0,-0.30479,-0.30479,-1.2477,-1.2477,1.67383,1.67383,0.43058,0.43058,-0.15169,-0.15169,-0.88596,-0.88596,0.0,0.0
1,296,5.92,-0.30159,-1.21916,1.61631,0.42266,-0.15078,-0.87774,-0.00519,-0.00526,-0.00627,-0.00521,-0.00511,-0.00414,0.52171,0.00831,0.02489,1.0,0.0,-0.0,0.0,-0.30017,-0.30017,-1.23407,-1.23407,1.65275,1.65275,0.42855,0.42855,-0.15192,-0.15192,-0.87987,-0.87987,0.0,0.0
1,297,5.94,-0.32205,-1.22882,1.62528,0.43014,-0.15281,-0.87084,-0.00522,-0.0052,-0.00443,-0.0052,-0.00524,-0.00599,0.52171,0.00831,0.02489,1.0,0.0,-0.0,0.0,-0.29569,-0.29569,-1.22047,-1.22047,1.63156,1.63156,0.42689,0.42689,-0.15193,-0.15193,-0.87348,-0.87348,0.0,0.0
1,298,5.96,-0.28085,-1.19622,1.59982,0.42315,-0.15068,-0.86343,-0.00521,-0.00516,-0.00458,-0.0052,-0.00526,-0.0058,0.52171,0.00831,0.02489,1.0,0.0,0.0,0.0,-0.29136,-0.29136,-1.20691,-1.20691,1.61024,1.61024,0.42553,0.42553,-0.15174,-0.15174,-0.86683,-0.86683,0.0,0.0
1,299,5.98,-0.25635,-1.1664,1.58033,0.42154,-0.15128,-0.85665,-0.00519,-0.00526,-0.00658,-0.00521,-0.00508,-0.00381,0.52171,0.00831,0.02489,1.0,0.0,0.0,0.0,-0.28717,-0.28717,-1.19339,-1.19339,1.5888,1.5888,0.42442,0.42442,-0.15136,-0.15136,-0.85997,-0.85997,0.0,0.0
1,300,6.0,-0.2887,-1.17055,1.58334,0.42524,-0.14932,-0.84933,-0.0052,-0.00521,-0.00564,-0.00521,-0.00517,-0.00475,0.52171,0.00831,0.02489,1.0,0.0,-0.0,0.0,-0.28311,-0.28311,-1.1799,-1.1799,1.56722,1.56722,0.42352,0.42352,-0.15081,-0.15081,-0.85291,-0.85291,0.0,0.0
1,301,6.02,-0.29969,-1.15307,1.50997,0.41904,-0.14978,-0.84232,-0.00522,-0.00518,-0.00446,-0.0052,-0.00526,-0.00594,0.52171,0.00831,0.02489,1.0,0.0,0.0,0.0,-0.27917,-0.27917,-1.16644,-1.16644,1.5455,1.5455,0.42279,0.42279,-0.15011,-0.15011,-0.84568,-0.84568,0.0,0.0
1,302,6.04,-0.27996,-1.14904,1.50693,0.42086,-0.14664,-0.83595,-0.00521,-0.00525,-0.00504,-0.0052,-0.00518,-0.00537,0.52171,0.00831,0.02489,1.0,0.0,0.0,0.0,-0.27535,-0.27535,-1.153,-1.153,1.52363,1.52363,0.42222,0.42222,-0.14926,-0.14926,-0.83831,-0.83831,0.0,0.0
1,303,6.06,-0.24887,-1.13651,1.517,0.42608,-0.15111,-0.82598,-0.0052,-0.00517,-0.0053,-0.00521,-0.00522,-0.00509,0.52171,0.00831,0.02489,1.0,0.0,-0.0,0.0,-0.27164,-0.27164,-1.13958,-1.13958,1.5016,1.5016,0.42177,0.42177,-0.14828,-0.14828,-0.83079,-0.83079,0.0,0.0
1,304,6.08,-0.24371,-1.10191,1.45565,0.41534,-0.14378,-0.82009,-0.00519,-0.00523,-0.00619,-0.00521,-0.00512,-0.00418,0.52171,0.00831,0.02489,1.0,0.0,0.0,0.0,-0.26804,-0.26804,-1.12617,-1.12617,1.47941,1.47941,0.42144,0.42144,-0.14718,-0.14718,-0.82314,-0.82314,0.0,0.0
1,305,6.1,-0.2826,-1.10243,1.4559,0.42353,-0.14569,-0.81178,-0.0052,-0.00525,-0.00572,-0.00521,-0.00514,-0.00468,0.52171,0.00831,0.02489,1.0,0.0,-0.0,0.0,-0.26454,-0.26454,-1.11277,-1.11277,1.45704,1.45704,0.42119,0.42119,-0.14597,-0.14597,-0.81537,-0.81537,0.0,0.0
1,306,6.12,-0.28742,-1.08992,1.4239,0.41939,-0.14346,-0.80352,-0.00522,-0.00514,-0.0038,-0.00519,-0.00532,-0.0066,0.52171,0.00831,0.02489,1.0,0.0,0.0,0.0,-0.26113,-0.26113,-1.09937,-1.09937,1.4345,1.4345,0.42103,0.42103,-0.14465,-0.14465,-0.80747,-0.80747,0.0,0.0
1,307,6.14,-0.2488,-1.06726,1.38406,0.4174,-0.14022,-0.79619,-0.00521,-0.00524,-0.00531,-0.0052,-0.00517,-0.00509,0.52171,0.00831,0.02489,1.0,0.0,-0.0,0.0,-0.25783,-0.25783,-1.08595,-1.08595,1.41176,1.41176,0.42093,0.42093,-0.14323,-0.14323,-0.79945,-0.79945,0.0,0.0
1,308,6.16,-0.22816,-1.06958,1.40704,0.4251,-0.14388,-0.78734,-0.00519,-0.00521,-0.00576,-0.00521,-0.00516,-0.00463,0.52171,0.00831,0.02489,1.0,0.0,-0.0,0.0,-0.25461,-0.25461,-1.07253,-1.07253,1.38883,1.38883,0.42088,0.42088,-0.14172,-0.14172,-0.79131,-0.79131,0.0,0.0
1,309,6.18,-0.23569,-1.04584,1.34703,0.4186,-0.1378,-0.77831,-0.00519,-0.0052,-0.00585,-0.00521,-0.00516,-0.00453,0.52171,0.00831,0.02489,1.0,0.0,-0.0,0.0,-0.25147,-0.25147,-1.05908,-1.05908,1.36569,1.36569,0.42087,0.42087,-0.14011,-0.14011,-0.78304,-0.78304,0.0,0.0
1,310,6.2,-0.26628,-1.03438,1.32024,0.41835,-0.13671,-0.77232,-0.0052,-0.00525,-0.00551,-0.0052,-0.00514,-0.00489,0.52171,0.00831,0.02489,1.0,0.0,0.0,0.0,-0.24842,-0.24842,-1.04561,-1.04561,1.34234,1.34234,0.42089,0.42089,-0.13841,-0.13841,-0.77464,-0.77464,0.0,0.0
1,311,6.22,-0.27158,-1.02627,1.32373,0.42439,-0.13622,-0.76088,-0.00522,-0.00517,-0.00413,-0.0052,-0.0053,-0.00629,0.52171,0.00831,0.02489,1.0,0.0,0.0,0.0,-0.24545,-0.24545,-1.0321,-1.0321,1.31876,1.31876,0.42094,0.42094,-0.13662,-0.13662,-0.7661,-0.7661,0.0,0.0
1,312,6.24,-0.23313,-0.99165,1.26743,0.41468,-0.13133,-0.75387,-0.00521,-0.00521,-0.00506,-0.0052,-0.0052,-0.00534,0.52171,0.00831,0.02489,1.0,0.0,0.0,0.0,-0.24255,-0.24255,-1.01856,-1.01856,1.29494,1.29494,0.421,0.421,-0.13475,-0.13475,-0.75743,-0.75743,0.0,0.0
1,313,6.26,-0.21206,-0.9992,1.29721,0.42647,-0.13638,-0.74575,-0.0052,-0.00524,-0.00586,-0.00521,-0.00514,-0.00453,0.52171,0.00831,0.02489,1.0,0.0,-0.0,0.0,-0.23517,-0.23517,-1.00948,-1.00948,1.2794,1.2794,0.42272,0.42272,-0.13475,-0.13475,-0.74921,-0.74921,0.0,0.0
1,314,6.28,-0.21037,-1.00107,1.27929,0.4288,-0.1378,-0.73751,-0.0052,-0.00517,-0.00544,-0.00521,-0.00521,-0.00495,0.52171,0.00831,0.02489,1.0,0.0,-0.0,0.0,-0.22332,-0.22332,-1.00527,-1.00527,1.27303,1.27303,0.42586,0.42586,-0.13642,-0.13642,-0.74207,-0.74207,0.0,0.0
1,315,6.3,-0.21569,-0.99612,1.24163,0.42346,-0.13509,-0.73509,-0.0052,-0.00524,-0.00544,-0.0052,-0.00516,-0.00496,0.52171,0.00831,0.02489,1.0,0.0,-0.0,0.0,-0.21157,-0.21157,-1.00169,-1.00169,1.2675,1.2675,0.42841,0.42841,-0.13722,-0.13722,-0.73583,-0.73583,0.0,0.0
1,316,6.32,-0.21222,-1.00726,1.27864,0.43831,-0.13886,-0.72642,-0.00521,-0.00519,-0.00464,-0.0052,-0.00525,-0.00578,0.52171,0.00831,0.02489,1.0,0.0,-0.0,0.0,-0.19985,-0.19985,-0.99836,-0.99836,1.26207,1.26207,0.43039,0.43039,-0.13701,-0.13701,-0.7303,-0.7303,0.0,0.0
1,317,6.34,-0.1756,-0.97951,1.24226,0.42613,-0.13316,-0.72397,-0.00521,-0.00518,-0.00494,-0.0052,-0.00523,-0.00546,0.52171,0.00831,0.02489,1.0,0.0,-0.0,0.0,-0.18816,-0.18816,-0.99521,-0.99521,1.25664,1.25664,0.43192,0.43192,-0.13588,-0.13588,-0.72537,-0.72537,0.0,0.0
1,318,6.36,-0.15349,-0.97666,1.26038,0.43466,-0.13255,-0.71867,-0.0052,-0.00524,-0.00577,-0.00521,-0.00513,-0.00462,0.52171,0.00831,0.02489,1.0,0.0,-0.0,0.0,-0.1765,-0.1765,-0.99218,-0.99218,1.25118,1.25118,0.43312,0.43312,-0.1339,-0.1339,-0.7209,-0.7209,0.0,0.0
1,319,6.38,-0.15372,-0.98308,1.26439,0.43639,-0.13068,-0.71427,-0.0052,-0.00517,-0.00533,-0.00521,-0.00522,-0.00506,0.52171,0.00831,0.02489,1.0,0.0,0.0,0.0,-0.16487,-0.16487,-0.98924,-0.98924,1.24565,1.24565,0.43408,0.43408,-0.13117,-0.13117,-0.71682,-0.71682,0.0,0.0
1,320,6.4,-0.15624,-0.97527,1.21166,0.4292,-0.12356,-0.71218,-0.00521,-0.00522,-0.00517,-0.0052,-0.00518,-0.00521,0.52171,0.00831,0.02489,1.0,0.0,-0.0,0.0,-0.15327,-0.15327,-0.98636,-0.98636,1.24002,1.24002,0.43487,0.43487,-0.12776,-0.12776,-0.71304,-0.71304,0.0,0.0
1,321,6.42,-0.1536,-0.99412,1.24782,0.44101,-0.12296,-0.7077,-0.00521,-0.0052,-0.00472,-0.0052,-0.00523,-0.0057,0.52171,0.00831,0.02489,1.0,0.0,-0.0,0.0,-0.14169,-0.14169,-0.98349,-0.98349,1.23429,1.23429,0.43554,0.43554,-0.12372,-0.12372,-0.70951,-0.70951,0.0,0.0
1,322,6.44,-0.11936,-0.97397,1.21723,0.43381,-0.11683,-0.70454,-0.00521,-0.00516,-0.00471,-0.0052,-0.00525,-0.00568,0.52171,0.00831,0.02489,1.0,0.0,-0.0,0.0,-0.13014,-0.13014,-0.98063,-0.98063,1.22842,1.22842,0.43613,0.43613,-0.11913,-0.11913,-0.70617,-0.70617,0.0,0.0
1,323,6.46,-0.09424,-0.96344,1.22075,0.43436,-0.10949,-0.70197,-0.0052,-0.00524,-0.00568,-0.0052,-0.00512,-0.0047,0.52171,0.00831,0.02489,1.0,0.0,-0.0,0.0,-0.11862,-0.11862,-0.97774,-0.97774,1.22241,1.22241,0.43668,0.43668,-0.11404,-0.11404,-0.70298,-0.70298,0.0,0.0
1,324,6.48,-0.09516,-0.96836,1.24149,0.44239,-0.10855,-0.69753,-0.0052,-0.00518,-0.00537,-0.00521,-0.00521,-0.00502,0.52171,0.00831,0.02489,1.0,0.0,0.0,0.0,-0.10713,-0.10713,-0.97482,-0.97482,1.21623,1.21623,0.43721,0.43721,-0.1085,-0.1085,-0.69991,-0.69991,0.0,0.0
1,325,6.5,-0.09788,-0.95403,1.18418,0.43011,-0.0955,-0.69624,-0.00521,-0.00521,-0.005,-0.0052,-0.00519,-0.00539,0.52171,0.00831,0.02489,1.0,0.0,-0.0,0.0,-0.09567,-0.09567,-0.97184,-0.97184,1.20988,1.20988,0.43772,0.43772,-0.10255,-0.10255,-0.69693,-0.69693,0.0,0.0
1,326,6.52,-0.09757,-0.97334,1.2144,0.4427,-0.09487,-0.69254,-0.00521,-0.00522,-0.00479,-0.0052,-0.00521,-0.00562,0.52171,0.00831,0.02489,1.0,0.0,-0.0,0.0,-0.08423,-0.08423,-0.9688,-0.9688,1.20335,1.20335,0.43825,0.43825,-0.09624,-0.09624,-0.694,-0.694,0.0,0.0
1,327,6.54,-0.06631,-0.96346,1.19007,0.43845,-0.08614,-0.68958,-0.00521,-0.00515,-0.00442,-0.0052,-0.00527,-0.00596,0.52171,0.00831,0.02489,1.0,0.0,0.0,0.0,-0.07283,-0.07283,-0.96568,-0.96568,1.19663,1.19663,0.43878,0.43878,-0.0896,-0.0896,-0.69112,-0.69112,0.0,0.0
1,328,6.56,-0.03636,-0.95181,1.17815,0.43505,-0.0775,-0.68759,-0.0052,-0.00525,-0.00567,-0.0052,-0.00512,-0.00471,0.52171,0.00831,0.02489,1.0,0.0,-0.0,0.0,-0.06146,-0.06146,-0.96248,-0.96248,1.18972,1.18972,0.43933,0.43933,-0.08267,-0.08267,-0.68825,-0.68825,0.0,0.0
1,329,6.58,-0.03416,-0.95783,1.20863,0.44745,-0.07548,-0.6829,-0.0052,-0.00517,-0.00527,-0.00521,-0.00521,-0.0051,0.52171,0.00831,0.02489,1.0,0.0,0.0,0.0,-0.05012,-0.05012,-0.95919,-0.95919,1.18259,1.18259,0.43988,0.43988,-0.07547,-0.07547,-0.68538,-0.68538,0.0,0.0
1,330,6.6,-0.03751,-0.93664,1.15164,0.43209,-0.05988,-0.68217,-0.0052,-0.00521,-0.00521,-0.0052,-0.00518,-0.00517,0.52171,0.00831,0.02489,1.0,0.0,-0.0,0.0,-0.03881,-0.03881,-0.95581,-0.95581,1.17526,1.17526,0.44045,0.44045,-0.06803,-0.06803,-0.68249,-0.68249,0.0,0.0
1,331,6.62,-0.04223,-0.94947,1.17715,0.4447,-0.05862,-0.67751,-0.00521,-0.00521,-0.00465,-0.0052,-0.00521,-0.00575,0.52171,0.00831,0.02489,1.0,0.0,0.0,0.0,-0.02754,-0.02754,-0.95232,-0.95232,1.16772,1.16772,0.44103,0.44103,-0.06039,-0.06039,-0.67957,-0.67957,0.0,0.0
1,332,6.64,-0.01702,-0.94375,1.15907,0.44166,-0.0473,-0.67545,-0.00521,-0.00516,-0.00443,-0.0052,-0.00527,-0.00598,0.52171,0.00831,0.02489,1.0,0.0,-0.0,0.0,-0.01631,-0.01631,-0.94873,-0.94873,1.15996,1.15996,0.4416,0.4416,-0.05255,-0.05255,-0.6766,-0.6766,0.0,0.0
1,333,6.66,0.01674,-0.93295,1.135,0.43719,-0.03993,-0.67259,-0.0052,-0.00523,-0.00533,-0.0052,-0.00515,-0.00504,0.52171,0.00831,0.02489,1.0,0.0,0.0,0.0,-0.00511,-0.00511,-0.94503,-0.94503,1.15198,1.15198,0.44217,0.44217,-0.04454,-0.04454,-0.67358,-0.67358,0.0,0.0
1,334,6.68,0.02635,-0.94478,1.16894,0.4506,-0.03501,-0.66792,-0.0052,-0.00518,-0.0053,-0.00521,-0.0052,-0.00507,0.52171,0.00831,0.02489,1.0,0.0,-0.0,0.0,0.00604,0.00604,-0.94122,-0.94122,1.14379,1.14379,0.44273,0.44273,-0.03638,-0.03638,-0.67047,-0.67047,0.0,0.0
1,335,6.7,0.02586,-0.92255,1.11073,0.4366,-0.02149,-0.66703,-0.0052,-0.00521,-0.0054,-0.00521,-0.00517,-0.00498,0.52171,0.00831,0.02489,1.0,0.0,-0.0,0.0,0.01716,0.01716,-0.9373,-0.9373,1.13537,1.13537,0.44327,0.44327,-0.02808,-0.02808,-0.66728,-0.66728,0.0,0.0
1,336,6.72,0.01515,-0.9307,1.13549,0.44561,-0.01659,-0.66187,-0.00521,-0.00521,-0.00469,-0.0052,-0.0052,-0.00569,0.52171,0.00831,0.02489,1.0,0.0,0.0,0.0,0.02756,0.02756,-0.9331,-0.9331,1.12771,1.12771,0.44382,0.44382,-0.0199,-0.0199,-0.66413,-0.66413,0.0,0.0
1,337,6.74,0.02166,-0.92641,1.14586,0.44859,-0.0147,-0.66292,-0.00521,-0.00518,-0.00489,-0.00521,-0.00526,-0.00554,0.52171,0.00831,0.02489,1.0,0.0,-0.0,0.0,0.02789,0.02789,-0.92646,-0.92646,1.1347,1.1347,0.44512,0.44512,-0.01531,-0.01531,-0.66293,-0.66293,0.0,0.0
1,338,6.76,0.03846,-0.90605,1.13193,0.43786,-0.00777,-0.66517,-0.00521,-0.00521,-0.00501,-0.0052,-0.00518,-0.00536,0.52171,0.00831,0.02489,1.0,0.0,-0.0,0.0,0.02792,0.02792,-0.92036,-0.92036,1.14291,1.14291,0.4451,0.4451,-0.01159,-0.01159,-0.66341,-0.66341,0.0,0.0
1,339,6.78,0.03716,-0.91028,1.18369,0.44985,-0.00874,-0.66402,-0.0052,-0.00521,-0.00556,-0.00521,-0.00518,-0.00484,0.52171,0.00831,0.02489,1.0,0.0,0.0,0.0,0.02793,0.02793,-0.91437,-0.91437,1.15119,1.15119,0.44373,0.44373,-0.0083,-0.0083,-0.66526,-0.66526,0.0,0.0
1,340,6.8,0.0308,-0.88915,1.15354,0.43391,-0.00264,-0.67215,-0.0052,-0.00519,-0.00517,-0.0052,-0.00521,-0.00521,0.52171,0.00831,0.02489,1.0,0.0,-0.0,0.0,0.02794,0.02794,-0.90838,-0.90838,1.15936,1.15936,0.44123,0.44123,-0.00535,-0.00535,-0.66819,-0.66819,0.0,0.0
1,341,6.82,0.01629,-0.89364,1.17564,0.43592,0.00026,-0.67225,-0.00521,-0.00523,-0.00512,-0.0052,-0.00517,-0.00527,0.52171,0.00831,0.02489,1.0,0.0,0.0,0.0,0.02794,0.02794,-0.90236,-0.90236,1.16739,1.16739,0.43782,0.43782,-0.00267,-0.00267,-0.67196,-0.67196,0.0,0.0
1,342,6.84,0.01621,-0.8948,1.19066,0.43459,-0.00144,-0.6789,-0.00521,-0.00517,-0.0047,-0.0052,-0.00527,-0.00573,0.52171,0.00831,0.02489,1.0,0.0,-0.0,0.0,0.02795,0.02795,-0.89627,-0.89627,1.17525,1.17525,0.43367,0.43367,-0.00024,-0.00024,-0.6764,-0.6764,0.0,0.0
1,343,6.86,0.03379,-0.87694,1.16749,0.41988,0.00687,-0.68514,-0.00521,-0.00522,-0.00505,-0.0052,-0.00518,-0.00533,0.52171,0.00831,0.02489,1.0,0.0,0.0,0.0,0.02795,0.02795,-0.89009,-0.89009,1.18291,1.18291,0.42893,0.42893,0.00199,0.00199,-0.68135,-0.68135,0.0,0.0
1,344,6.88,0.03858,-0.88371,1.2185,0.42734,0.00135,-0.68708,-0.0052,-0.0052,-0.00549,-0.00521,-0.00519,-0.00491,0.52171,0.00831,0.02489,1.0,0.0,-0.0,0.0,0.02795,0.02795,-0.88381,-0.88381,1.19035,1.19035,0.42372,0.42372,0.00403,0.00403,-0.6867,-0.6867,0.0,0.0
1,345,6.9,0.03683,-0.86295,1.19603,0.41144,0.00873,-0.69709,-0.0052,-0.00518,-0.00531,-0.00521,-0.00521,-0.00508,0.52171,0.00831,0.02489,1.0,0.0,0.0,0.0,0.02795,0.02795,-0.87742,-0.87742,1.19755,1.19755,0.41812,0.41812,0.00592,0.00592,-0.69234,-0.69234,0.0,0.0
1,346,6.92,0.02163,-0.85768,1.20589,0.40773,0.00974,-0.69994,-0.0052,-0.00523,-0.0054,-0.0052,-0.00515,-0.00499,0.52171,0.00831,0.02489,1.0,0.0,0.0,0.0,0.02796,0.02796,-0.87089,-0.87089,1.20452,1.20452,0.41221,0.41221,0.00766,0.00766,-0.69819,-0.69819,0.0,0.0
1,347,6.94,0.01216,-0.8608,1.23344,0.40609,0.00817,-0.70684,-0.00521,-0.00517,-0.00468,-0.0052,-0.00527,-0.00573,0.52171,0.00831,0.02489,1.0,0.0,-0.0,0.0,0.02796,0.02796,-0.86422,-0.86422,1.21124,1.21124,0.40607,0.40607,0.00928,0.00928,-0.7042,-0.7042,0.0,0.0
1,348,6.96,0.02635,-0.84031,1.20081,0.39124,0.01543,-0.71438,-0.00521,-0.00521,-0.00499,-0.0052,-0.0052,-0.00541,0.52171,0.00831,0.02489,1.0,0.0,0.0,0.0,0.02796,0.02796,-0.85741,-0.85741,1.2177,1.2177,0.39972,0.39972,0.01079,0.01079,-0.71031,-0.71031,0.0,0.0
1,349,6.98,0.03607,-0.84846,1.24551,0.39246,0.01011,-0.71837,-0.0052,-0.00521,-0.0053,-0.0052,-0.00519,-0.00509,0.52171,0.00831,0.02489,1.0,0.0,-0.0,0.0,0.02796,0.02796,-0.85045,-0.85045,1.2239,1.2239,0.39323,0.39323,0.01221,0.01221,-0.71648,-0.71648,0.0,0.0
1,350,7.0,0.04087,-0.83518,1.23632,0.38471,0.01467,-0.72568,-0.0052,-0.00518,-0.00538,-0.00521,-0.00521,-0.00502,0.52171,0.00831,0.02489,1.0,0.0,0.0,0.0,0.02796,0.02796,-0.84335,-0.84335,1.22984,1.22984,0.38661,0.38661,0.01353,0.01353,-0.72268,-0.72268,0.0,0.0
1,351,7.02,0.03062,-0.82196,1.22659,0.37091,0.01729,-0.73309,-0.0052,-0.00523,-0.00558,-0.0052,-0.00514,-0.0048,0.52171,0.00831,0.02489,1.0,0.0,-0.0,0.0,0.02796,0.02796,-0.83609,-0.83609,1.23551,1.23551,0.37989,0.37989,0.01478,0.01478,-0.72889,-0.72889,0.0,0.0
1,352,7.04,0.01307,-0.82655,1.26576,0.3755,0.01413,-0.73597,-0.00521,-0.00518,-0.00488,-0.0052,-0.00524,-0.00553,0.52171,0.00831,0.02489,1.0,0.0,0.0,0.0,0.02796,0.02796,-0.82868,-0.82868,1.24092,1.24092,0.3731,0.3731,0.01595,0.01595,-0.73508,-0.73508,0.0,0.0
1,353,7.06,0.01899,-0.80299,1.23347,0.3574,0.02142,-0.746,-0.00521,-0.0052,-0.00491,-0.0052,-0.00522,-0.00551,0.52171,0.00831,0.02489,1.0,0.0,0.0,0.0,0.02796,0.02796,-0.82112,-0.82112,1.24607,1.24607,0.36626,0.36626,0.01706,0.01706,-0.74123,-0.74123,0.0,0.0
1,354,7.08,0.03012,-0.80341,1.26081,0.35553,0.01734,-0.74966,-0.00521,-0.00522,-0.00511,-0.0052,-0.00518,-0.00527,0.52171,0.00831,0.02489,1.0,0.0,-0.0,0.0,0.02796,0.02796,-0.8134,-0.8134,1.25094,1.25094,0.35937,0.35937,0.01812,0.01812,-0.74734,-0.74734,0.0,0.0
1,355,7.1,0.03989,-0.80054,1.27435,0.35349,0.01917,-0.755,-0.0052,-0.00518,-0.00531,-0.00521,-0.00522,-0.0051,0.52171,0.00831,0.02489,1.0,0.0,-0.0,0.0,0.02796,0.02796,-0.80554,-0.80554,1.25556,1.25556,0.35246,0.35246,0.01912,0.01912,-0.75339,-0.75339,0.0,0.0
1,356,7.12,0.03933,-0.78212,1.24405,0.33502,0.02214,-0.76476,-0.0052,-0.00522,-0.00567,-0.00521,-0.00515,-0.00471,0.52171,0.00831,0.02489,1.0,0.0,0.0,0.0,0.02796,0.02796,-0.79754,-0.79754,1.25991,1.25991,0.34552,0.34552,0.02007,0.02007,-0.75937,-0.75937,0.0,0.0
1,357,7.14,0.01987,-0.78878,1.28376,0.34053,0.02011,-0.76541,-0.00521,-0.0052,-0.00513,-0.0052,-0.0052,-0.00526,0.52171,0.00831,0.02489,1.0,0.0,0.0,0.0,0.02796,0.02796,-0.78938,-0.78938,1.26399,1.26399,0.33857,0.33857,0.02098,0.02098,-0.76527,-0.76527,0.0,0.0
1,358,7.16,0.01483,-0.76913,1.26539,0.32548,0.02353,-0.77552,-0.00521,-0.00519,-0.00501,-0.00521,-0.00524,-0.00542,0.52171,0.00831,0.02489,1.0,0.0,0.0,0.0,0.02796,0.02796,-0.78109,-0.78109,1.26781,1.26781,0.33161,0.33161,0.02185,0.02185,-0.7711,-0.7711,0.0,0.0
1,359,7.18,0.02341,-0.75526,1.26516,0.31738,0.02488,-0.77968,-0.00521,-0.00522,-0.00484,-0.0052,-0.00519,-0.00553,0.52171,0.00831,0.02489,1.0,0.0,0.0,0.0,0.02796,0.02796,-0.77265,-0.77265,1.27137,1.27137,0.32465,0.32465,0.02269,0.02269,-0.77684,-0.77684,0.0,0.0
1,360,7.2,0.02859,-0.76603,1.31264,0.3244,0.01732,-0.78295,-0.0052,-0.0052,-0.00554,-0.00521,-0.00521,-0.00488,0.52171,0.00831,0.02489,1.0,0.0,-0.0,0.0,0.02121,0.02121,-0.77181,-0.77181,1.27806,1.27806,0.32049,0.32049,0.02077,0.02077,-0.78232,-0.78232,0.0,0.0
1,361,7.22,0.02373,-0.76104,1.2844,0.31289,0.01562,-0.79202,-0.0052,-0.00519,-0.00561,-0.00521,-0.00518,-0.00478,0.52171,0.00831,0.02489,1.0,0.0,0.0,0.0,0.0102,0.0102,-0.77575,-0.77575,1.28705,1.28705,0.31826,0.31826,0.01682,0.01682,-0.78755,-0.78755,0.0,0.0
1,362,7.24,-0.00827,-0.7819,1.30154,0.31531,0.01169,-0.79345,-0.0052,-0.00523,-0.0057,-0.00521,-0.00514,-0.00469,0.52171,0.00831,0.02489,1.0,0.0,-0.0,0.0,-0.001,-0.001,-0.77968,-0.77968,1.29605,1.29605,0.31623,0.31623,0.01246,0.01246,-0.79255,-0.79255,0.0,0.0
1,363,7.26,-0.03889,-0.79512,1.31543,0.31684,0.00243,-0.79983,-0.00521,-0.00518,-0.00486,-0.0052,-0.00527,-0.00556,0.52171,0.00831,0.02489,1.0,0.0,-0.0,0.0,-0.01226,-0.01226,-0.78341,-0.78341,1.30475,1.30475,0.31428,0.31428,0.00782,0.00782,-0.79733,-0.79733,0.0,0.0
1,364,7.28,-0.0411,-0.78063,1.2955,0.30554,0.00536,-0.80527,-0.00521,-0.00522,-0.00479,-0.0052,-0.00522,-0.00562,0.52171,0.00831,0.02489,1.0,0.0,0.0,0.0,-0.02356,-0.02356,-0.78695,-0.78695,1.31314,1.31314,0.31238,0.31238,0.00295,0.00295,-0.80191,-0.80191,0.0,0.0
1,365,7.3,-0.03552,-0.78581,1.34616,0.3128,-0.00764,-0.80668,-0.0052,-0.00521,-0.00534,-0.00521,-0.0052,-0.00507,0.52171,0.00831,0.02489,1.0,0.0,-0.0,0.0,-0.0349,-0.0349,-0.79031,-0.79031,1.32121,1.32121,0.31052,0.31052,-0.00213,-0.00213,-0.80629,-0.80629,0.0,0.0
1,366,7.32,-0.03246,-0.77911,1.34461,0.30735,-0.00874,-0.81316,-0.0052,-0.00517,-0.00542,-0.00521,-0.00522,-0.00497,0.52171,0.00831,0.02489,1.0,0.0,0.0,0.0,-0.04629,-0.04629,-0.79349,-0.79349,1.32898,1.32898,0.30869,0.30869,-0.00742,-0.00742,-0.81048,-0.81048,0.0,0.0
1,367,7.34,-0.05338,-0.78334,1.33159,0.30212,-0.0139,-0.8163,-0.00519,-0.00524,-0.00606,-0.00521,-0.00512,-0.00433,0.52171,0.00831,0.02489,1.0,0.0,-0.0,0.0,-0.05771,-0.05771,-0.79649,-0.79649,1.33646,1.33646,0.30688,0.30688,-0.01288,-0.01288,-0.81449,-0.81449,0.0,0.0
1,368,7.36,-0.09165,-0.80999,1.36185,0.30817,-0.02377,-0.81943,-0.00521,-0.00519,-0.00502,-0.0052,-0.00523,-0.00538,0.52171,0.00831,0.02489,1.0,0.0,0.0,0.0,-0.06917,-0.06917,-0.79934,-0.79934,1.34364,1.34364,0.30508,0.30508,-0.0185,-0.0185,-0.81831,-0.81831,0.0,0.0
1,369,7.38,-0.10457,-0.80387,1.33556,0.30025,-0.02414,-0.8246,-0.00521,-0.0052,-0.00487,-0.0052,-0.00524,-0.00557,0.52171,0.00831,0.02489,1.0,0.0,0.0,0.0,-0.08065,-0.08065,-0.80202,-0.80202,1.35054,1.35054,0.30328,0.30328,-0.02426,-0.02426,-0.82195,-0.82195,0.0,0.0
1,370,7.4,-0.09927,-0.80166,1.35877,0.29798,-0.03388,-0.82711,-0.00521,-0.00522,-0.00509,-0.0052,-0.00519,-0.00531,0.52171,0.00831,0.02489,1.0,0.0,0.0,0.0,-0.09216,-0.09216,-0.80455,-0.80455,1.35716,1.35716,0.30148,0.30148,-0.03015,-0.03015,-0.8254,-0.8254,0.0,0.0
1,371,7.42,-0.09357,-0.80019,1.39224,0.30359,-0.03938,-0.82884,-0.0052,-0.00518,-0.00542,-0.00521,-0.00522,-0.00499,0.52171,0.00831,0.02489,1.0,0.0,0.0,0.0,-0.1037,-0.1037,-0.80693,-0.80693,1.36351,1.36351,0.29966,0.29966,-0.03617,-0.03617,-0.82867,-0.82867,0.0,0.0
1,372,7.44,-0.10333,-0.78836,1.36511,0.29119,-0.04385,-0.83471,-0.00519,-0.00521,-0.00595,-0.00521,-0.00516,-0.00444,0.52171,0.00831,0.02489,1.0,0.0,0.0,0.0,-0.11526,-0.11526,-0.80917,-0.80917,1.36958,1.36958,0.29782,0.29782,-0.04229,-0.04229,-0.83175,-0.83175,0.0,0.0
1,373,7.46,-0.14097,-0.80976,1.38723,0.29625,-0.05147,-0.83455,-0.0052,-0.00522,-0.00549,-0.00521,-0.00517,-0.00491,0.52171,0.00831,0.02489,1.0,0.0,0.0,0.0,-0.12684,-0.12684,-0.81127,-0.81127,1.37538,1.37538,0.29595,0.29595,-0.04851,-0.04851,-0.83464,-0.83464,0.0,0.0
1,374,7.48,-0.16715,-0.82061,1.38341,0.29531,-0.05832,-0.83915,-0.00521,-0.00518,-0.0048,-0.0052,-0.00527,-0.00563,0.52171,0.00831,0.02489,1.0,0.0,-0.0,0.0,-0.13843,-0.13843,-0.81323,-0.81323,1.38091,1.38091,0.29404,0.29404,-0.05482,-0.05482,-0.83733,-0.83733,0.0,0.0
