ikatsov/phy-harness/artifacts/inspection/joints.csv
episode,sim_step,time_sec,shoulder_pan_joint,shoulder_lift_joint,elbow_joint,wrist_1_joint,wrist_2_joint,wrist_3_joint,left_driver_joint,left_spring_link_joint,left_follower,right_driver_joint,right_spring_link_joint,right_follower_joint,grasp_box_free.px,grasp_box_free.py,grasp_box_free.pz,grasp_box_free.qw,grasp_box_free.qx,grasp_box_free.qy,grasp_box_free.qz,target_a_shoulder_pan,ctrl_a_shoulder_pan,target_a_shoulder_lift,ctrl_a_shoulder_lift,target_a_elbow,ctrl_a_elbow,target_a_wrist_1,ctrl_a_wrist_1,target_a_wrist_2,ctrl_a_wrist_2,target_a_wrist_3,ctrl_a_wrist_3,target_a_gripper,ctrl_a_gripper
1,0,0.0,0.0,0.0,0.0,0.0,0.0,0.0,0.0,0.0,0.0,0.0,0.0,0.0,0.52171,0.00831,0.035,1.0,0.0,0.0,0.0,-1.5708,-1.5708,-1.5708,-1.5708,1.5708,1.5708,-1.5708,-1.5708,-1.5708,-1.5708,0.0,0.0,0.0,0.0
1,1,0.02,-0.0076,-0.00796,0.01441,-0.01229,-0.01253,2e-05,0.4007,0.40542,0.39917,0.40075,0.40576,0.39921,0.52171,0.00831,0.03284,1.0,0.0,0.0,0.0,-0.03142,-0.03142,-0.03142,-0.03142,0.03142,0.03142,-0.03142,-0.03142,-0.03142,-0.03142,0.0,0.0,255.0,255.0
1,2,0.04,-0.02539,-0.02425,0.0364,-0.03236,-0.03275,4e-05,0.82417,0.82439,0.82401,0.82461,0.82544,0.82415,0.52171,0.00831,0.02676,1.0,0.0,0.0,0.0,-0.06283,-0.06283,-0.06283,-0.06283,0.06283,0.06283,-0.06283,-0.06283,-0.06283,-0.06283,0.0,0.0,255.0,255.0
1,3,0.06,-0.05055,-0.04734,0.06189,-0.05709,-0.05747,6e-05,0.84602,0.82741,0.85218,0.84655,0.82908,0.85293,0.52171,0.00831,0.01675,1.0,0.0,0.0,0.0,-0.09425,-0.09425,-0.09425,-0.09425,0.09425,0.09425,-0.09425,-0.09425,-0.09425,-0.09425,0.0,0.0,255.0,255.0
1,4,0.08,-0.07978,-0.07476,0.08926,-0.08463,-0.08487,5e-05,0.84413,0.82828,0.86164,0.84491,0.83,0.86155,0.52171,0.00831,0.00282,1.0,0.0,0.0,0.0,-0.12566,-0.12566,-0.12566,-0.12566,0.12566,0.12566,-0.12566,-0.12566,-0.12566,-0.12566,0.0,0.0,255.0,255.0
1,5,0.1,-0.1108,-0.10453,0.11787,-0.11379,-0.11389,3e-05,0.84392,0.82824,0.86212,0.84477,0.83007,0.86177,0.52171,0.00831,-0.01503,1.0,0.0,0.0,0.0,-0.15708,-0.15708,-0.15708,-0.15708,0.15708,0.15708,-0.15708,-0.15708,-0.15708,-0.15708,0.0,0.0,255.0,255.0
1,6,0.12,-0.14241,-0.13537,0.1474,-0.14388,-0.14388,2e-05,0.84392,0.82823,0.86221,0.84481,0.83011,0.86182,0.52171,0.00831,-0.03681,1.0,0.0,0.0,0.0,-0.1885,-0.1885,-0.1885,-0.1885,0.1885,0.1885,-0.1885,-0.1885,-0.1885,-0.1885,0.0,0.0,255.0,255.0
1,7,0.14,-0.17411,-0.16661,0.17761,-0.17452,-0.17444,1e-05,0.84399,0.8283,0.86235,0.84489,0.83019,0.86189,0.52171,0.00831,-0.06251,1.0,0.0,0.0,0.0,-0.21991,-0.21991,-0.21991,-0.21991,0.21991,0.21991,-0.21991,-0.21991,-0.21991,-0.21991,0.0,0.0,255.0,255.0
1,8,0.16,-0.20574,-0.19798,0.20828,-0.20547,-0.20536,0.0,0.8439,0.82821,0.86228,0.84481,0.83013,0.86176,0.52171,0.00831,-0.09214,1.0,0.0,0.0,0.0,-0.25133,-0.25133,-0.25133,-0.25133,0.25133,0.25133,-0.25133,-0.25133,-0.25133,-0.25133,0.0,0.0,255.0,255.0
1,9,0.18,-0.23729,-0.22936,0.23926,-0.2366,-0.23649,0.0,0.84392,0.82825,0.86233,0.84484,0.83017,0.86179,0.52171,0.00831,-0.12569,1.0,0.0,0.0,0.0,-0.28274,-0.28274,-0.28274,-0.28274,0.28274,0.28274,-0.28274,-0.28274,-0.28274,-0.28274,0.0,0.0,255.0,255.0
1,10,0.2,-0.26879,-0.26075,0.27043,-0.26785,-0.26775,-0.0,0.84398,0.82829,0.86237,0.84489,0.83019,0.86188,0.52171,0.00831,-0.16316,1.0,0.0,0.0,0.0,-0.31416,-0.31416,-0.31416,-0.31416,0.31416,0.31416,-0.31416,-0.31416,-0.31416,-0.31416,0.0,0.0,255.0,255.0
1,11,0.22,-0.30025,-0.29215,0.3017,-0.29916,-0.29907,-0.0,0.8439,0.82824,0.86232,0.84481,0.83015,0.8618,0.52171,0.00831,-0.20456,1.0,0.0,0.0,0.0,-0.34558,-0.34558,-0.34558,-0.34558,0.34558,0.34558,-0.34558,-0.34558,-0.34558,-0.34558,0.0,0.0,255.0,255.0
1,12,0.24,-0.33171,-0.32356,0.33304,-0.33051,-0.33044,-1e-05,0.84388,0.82819,0.86228,0.84479,0.83011,0.86172,0.52171,0.00831,-0.24988,1.0,0.0,0.0,0.0,-0.37699,-0.37699,-0.37699,-0.37699,0.37699,0.37699,-0.37699,-0.37699,-0.37699,-0.37699,0.0,0.0,255.0,255.0
1,13,0.26,-0.36316,-0.35498,0.36442,-0.36188,-0.36183,-1e-05,0.84396,0.82825,0.86234,0.84485,0.83015,0.86179,0.52171,0.00831,-0.29913,1.0,0.0,0.0,0.0,-0.40841,-0.40841,-0.40841,-0.40841,0.40841,0.40841,-0.40841,-0.40841,-0.40841,-0.40841,0.0,0.0,255.0,255.0
1,14,0.28,-0.39461,-0.38641,0.39581,-0.39326,-0.39324,-1e-05,0.844,0.8283,0.8624,0.84489,0.8302,0.86186,0.52171,0.00831,-0.3523,1.0,0.0,0.0,0.0,-0.43982,-0.43982,-0.43982,-0.43982,0.43982,0.43982,-0.43982,-0.43982,-0.43982,-0.43982,0.0,0.0,255.0,255.0
1,15,0.3,-0.42605,-0.41785,0.42722,-0.42466,-0.42466,-1e-05,0.84395,0.82826,0.86235,0.84483,0.83014,0.8618,0.52171,0.00831,-0.40939,1.0,0.0,0.0,0.0,-0.47124,-0.47124,-0.47124,-0.47124,0.47124,0.47124,-0.47124,-0.47124,-0.47124,-0.47124,0.0,0.0,255.0,255.0
1,16,0.32,-0.4575,-0.4493,0.45863,-0.45605,-0.45608,-1e-05,0.84397,0.82829,0.86239,0.84485,0.83016,0.86182,0.52171,0.00831,-0.47041,1.0,0.0,0.0,0.0,-0.50266,-0.50266,-0.50266,-0.50266,0.50266,0.50266,-0.50266,-0.50266,-0.50266,-0.50266,0.0,0.0,255.0,255.0
1,17,0.34,-0.48894,-0.48076,0.49004,-0.48745,-0.48751,-1e-05,0.84403,0.82833,0.86244,0.8449,0.83019,0.86191,0.52171,0.00831,-0.53535,1.0,0.0,0.0,0.0,-0.53407,-0.53407,-0.53407,-0.53407,0.53407,0.53407,-0.53407,-0.53407,-0.53407,-0.53407,0.0,0.0,255.0,255.0
1,18,0.36,-0.52038,-0.51223,0.52146,-0.51886,-0.51893,-1e-05,0.84403,0.82837,0.86246,0.8449,0.83021,0.86194,0.52171,0.00831,-0.60422,1.0,0.0,0.0,0.0,-0.56549,-0.56549,-0.56549,-0.56549,0.56549,0.56549,-0.56549,-0.56549,-0.56549,-0.56549,0.0,0.0,255.0,255.0
1,19,0.38,-0.55183,-0.5437,0.55288,-0.55026,-0.55036,-1e-05,0.84401,0.82831,0.86242,0.84487,0.83017,0.86186,0.52171,0.00831,-0.67701,1.0,0.0,0.0,0.0,-0.5969,-0.5969,-0.5969,-0.5969,0.5969,0.5969,-0.5969,-0.5969,-0.5969,-0.5969,0.0,0.0,255.0,255.0
1,20,0.4,-0.58326,-0.57518,0.5843,-0.58166,-0.58179,-1e-05,0.84403,0.82837,0.86248,0.84489,0.8302,0.86191,0.52171,0.00831,-0.75372,1.0,0.0,0.0,0.0,-0.62832,-0.62832,-0.62832,-0.62832,0.62832,0.62832,-0.62832,-0.62832,-0.62832,-0.62832,0.0,0.0,255.0,255.0
1,21,0.42,-0.6147,-0.60666,0.61572,-0.61307,-0.61321,-1e-05,0.84399,0.82832,0.86244,0.84485,0.83016,0.86182,0.52171,0.00831,-0.83436,1.0,0.0,0.0,0.0,-0.65974,-0.65974,-0.65974,-0.65974,0.65974,0.65974,-0.65974,-0.65974,-0.65974,-0.65974,0.0,0.0,255.0,255.0
1,22,0.44,-0.64613,-0.63815,0.64714,-0.64447,-0.64464,-1e-05,0.84394,0.82825,0.8624,0.8448,0.8301,0.8617,0.52171,0.00831,-0.91892,1.0,0.0,0.0,0.0,-0.69115,-0.69115,-0.69115,-0.69115,0.69115,0.69115,-0.69115,-0.69115,-0.69115,-0.69115,0.0,0.0,255.0,255.0
1,23,0.46,-0.67757,-0.66964,0.67857,-0.67588,-0.67607,-1e-05,0.84396,0.82827,0.86242,0.84481,0.8301,0.86173,0.52171,0.00831,-1.00741,1.0,0.0,0.0,0.0,-0.72257,-0.72257,-0.72257,-0.72257,0.72257,0.72257,-0.72257,-0.72257,-0.72257,-0.72257,0.0,0.0,255.0,255.0
1,24,0.48,-0.709,-0.70114,0.70999,-0.70728,-0.70749,-1e-05,0.84398,0.8283,0.86245,0.84483,0.83012,0.86175,0.52171,0.00831,-1.09982,1.0,0.0,0.0,0.0,-0.75398,-0.75398,-0.75398,-0.75398,0.75398,0.75398,-0.75398,-0.75398,-0.75398,-0.75398,0.0,0.0,255.0,255.0
1,25,0.5,-0.74042,-0.73264,0.74142,-0.73868,-0.73892,-1e-05,0.844,0.82834,0.8625,0.84484,0.83016,0.86178,0.52171,0.00831,-1.19616,1.0,0.0,0.0,0.0,-0.7854,-0.7854,-0.7854,-0.7854,0.7854,0.7854,-0.7854,-0.7854,-0.7854,-0.7854,0.0,0.0,255.0,255.0
1,26,0.52,-0.77185,-0.76415,0.77284,-0.77009,-0.77034,-1e-05,0.84396,0.82831,0.86248,0.84481,0.83013,0.86172,0.52171,0.00831,-1.29641,1.0,0.0,0.0,0.0,-0.81682,-0.81682,-0.81682,-0.81682,0.81682,0.81682,-0.81682,-0.81682,-0.81682,-0.81682,0.0,0.0,255.0,255.0
1,27,0.54,-0.80327,-0.79566,0.80427,-0.80149,-0.80177,-1e-05,0.84395,0.82827,0.86245,0.84479,0.83008,0.86165,0.52171,0.00831,-1.4006,1.0,0.0,0.0,0.0,-0.84823,-0.84823,-0.84823,-0.84823,0.84823,0.84823,-0.84823,-0.84823,-0.84823,-0.84823,0.0,0.0,255.0,255.0
1,28,0.56,-0.83469,-0.82718,0.83569,-0.83289,-0.83319,-1e-05,0.84395,0.8283,0.86249,0.84479,0.8301,0.86167,0.52171,0.00831,-1.5087,1.0,0.0,0.0,0.0,-0.87965,-0.87965,-0.87965,-0.87965,0.87965,0.87965,-0.87965,-0.87965,-0.87965,-0.87965,0.0,0.0,255.0,255.0
1,29,0.58,-0.86611,-0.8587,0.86712,-0.86429,-0.86461,-1e-05,0.84404,0.82838,0.86258,0.84487,0.83016,0.86178,0.52171,0.00831,-1.62073,1.0,0.0,0.0,0.0,-0.91106,-0.91106,-0.91106,-0.91106,0.91106,0.91106,-0.91106,-0.91106,-0.91106,-0.91106,0.0,0.0,255.0,255.0
1,30,0.6,-0.89752,-0.89022,0.89855,-0.89569,-0.89603,-1e-05,0.84404,0.8284,0.86261,0.84487,0.83017,0.8618,0.52171,0.00831,-1.73669,1.0,0.0,0.0,0.0,-0.94248,-0.94248,-0.94248,-0.94248,0.94248,0.94248,-0.94248,-0.94248,-0.94248,-0.94248,0.0,0.0,255.0,255.0
1,31,0.62,-0.92893,-0.92175,0.92998,-0.9271,-0.92746,-1e-05,0.84402,0.82839,0.86261,0.84485,0.83016,0.86174,0.52171,0.00831,-1.85656,1.0,0.0,0.0,0.0,-0.9739,-0.9739,-0.9739,-0.9739,0.9739,0.9739,-0.9739,-0.9739,-0.9739,-0.9739,0.0,0.0,255.0,255.0
1,32,0.64,-0.96034,-0.95329,0.96141,-0.9585,-0.95888,-1e-05,0.84401,0.82837,0.86261,0.84484,0.83014,0.86168,0.52171,0.00831,-1.98037,1.0,0.0,0.0,0.0,-1.00531,-1.00531,-1.00531,-1.00531,1.00531,1.00531,-1.00531,-1.00531,-1.00531,-1.00531,0.0,0.0,255.0,255.0
1,33,0.66,-0.99175,-0.98482,0.99284,-0.9899,-0.9903,-1e-05,0.84403,0.8284,0.86266,0.84486,0.83016,0.86171,0.52171,0.00831,-2.10809,1.0,0.0,0.0,0.0,-1.03673,-1.03673,-1.03673,-1.03673,1.03673,1.03673,-1.03673,-1.03673,-1.03673,-1.03673,0.0,0.0,255.0,255.0
1,34,0.68,-1.02315,-1.01636,1.02426,-1.0213,-1.02171,-1e-05,0.84398,0.82833,0.8626,0.8448,0.83009,0.86163,0.52171,0.00831,-2.23974,1.0,0.0,0.0,0.0,-1.06814,-1.06814,-1.06814,-1.06814,1.06814,1.06814,-1.06814,-1.06814,-1.06814,-1.06814,0.0,0.0,255.0,255.0
1,35,0.7,-1.05455,-1.04791,1.05569,-1.0527,-1.05313,-1e-05,0.84404,0.82838,0.86266,0.84486,0.83013,0.86165,0.52171,0.00831,-2.37532,1.0,0.0,0.0,0.0,-1.09956,-1.09956,-1.09956,-1.09956,1.09956,1.09956,-1.09956,-1.09956,-1.09956,-1.09956,0.0,0.0,255.0,255.0
1,36,0.72,-1.08595,-1.07946,1.08713,-1.0841,-1.08455,-1e-05,0.84402,0.82838,0.86268,0.84484,0.83013,0.86162,0.52171,0.00831,-2.51482,1.0,0.0,0.0,0.0,-1.13098,-1.13098,-1.13098,-1.13098,1.13098,1.13098,-1.13098,-1.13098,-1.13098,-1.13098,0.0,0.0,255.0,255.0
1,37,0.74,-1.11734,-1.11101,1.11856,-1.1155,-1.11597,-1e-05,0.84405,0.82841,0.86272,0.84486,0.83014,0.86164,0.52171,0.00831,-2.65824,1.0,0.0,0.0,0.0,-1.16239,-1.16239,-1.16239,-1.16239,1.16239,1.16239,-1.16239,-1.16239,-1.16239,-1.16239,0.0,0.0,255.0,255.0
1,38,0.76,-1.14874,-1.14256,1.14999,-1.1469,-1.14738,-1e-05,0.84399,0.82837,0.86269,0.8448,0.8301,0.86157,0.52171,0.00831,-2.80558,1.0,0.0,0.0,0.0,-1.19381,-1.19381,-1.19381,-1.19381,1.19381,1.19381,-1.19381,-1.19381,-1.19381,-1.19381,0.0,0.0,255.0,255.0
1,39,0.78,-1.18013,-1.17412,1.18142,-1.1783,-1.1788,-1e-05,0.84398,0.82832,0.86267,0.84479,0.83006,0.86151,0.52171,0.00831,-2.95685,1.0,0.0,0.0,0.0,-1.22522,-1.22522,-1.22522,-1.22522,1.22522,1.22522,-1.22522,-1.22522,-1.22522,-1.22522,0.0,0.0,255.0,255.0
1,40,0.8,-1.21151,-1.20568,1.21285,-1.2097,-1.21021,-1e-05,0.84401,0.82838,0.86273,0.84482,0.83011,0.86154,0.52171,0.00831,-3.11205,1.0,0.0,0.0,0.0,-1.25664,-1.25664,-1.25664,-1.25664,1.25664,1.25664,-1.25664,-1.25664,-1.25664,-1.25664,0.0,0.0,255.0,255.0
1,41,0.82,-1.2429,-1.23725,1.24428,-1.2411,-1.24163,-1e-05,0.84401,0.82837,0.86275,0.84482,0.83009,0.86152,0.52171,0.00831,-3.27117,1.0,0.0,0.0,0.0,-1.28806,-1.28806,-1.28806,-1.28806,1.28806,1.28806,-1.28806,-1.28806,-1.28806,-1.28806,0.0,0.0,255.0,255.0
1,42,0.84,-1.27428,-1.26881,1.27572,-1.2725,-1.27304,-1e-05,0.84402,0.8284,0.86279,0.84483,0.83012,0.86153,0.52171,0.00831,-3.43421,1.0,0.0,0.0,0.0,-1.31947,-1.31947,-1.31947,-1.31947,1.31947,1.31947,-1.31947,-1.31947,-1.31947,-1.31947,0.0,0.0,255.0,255.0
1,43,0.86,-1.30566,-1.30038,1.30715,-1.3039,-1.30445,-1e-05,0.84403,0.82838,0.86278,0.84483,0.83009,0.8615,0.52171,0.00831,-3.60117,1.0,0.0,0.0,0.0,-1.35089,-1.35089,-1.35089,-1.35089,1.35089,1.35089,-1.35089,-1.35089,-1.35089,-1.35089,0.0,0.0,255.0,255.0
1,44,0.88,-1.33704,-1.33195,1.33858,-1.3353,-1.33586,-1e-05,0.84401,0.82836,0.86279,0.84482,0.83008,0.86145,0.52171,0.00831,-3.77206,1.0,0.0,0.0,0.0,-1.3823,-1.3823,-1.3823,-1.3823,1.3823,1.3823,-1.3823,-1.3823,-1.3823,-1.3823,0.0,0.0,255.0,255.0
1,45,0.9,-1.36841,-1.36353,1.37001,-1.3667,-1.36727,-1e-05,0.84398,0.82833,0.86278,0.84478,0.83005,0.86139,0.52171,0.00831,-3.94688,1.0,0.0,0.0,0.0,-1.41372,-1.41372,-1.41372,-1.41372,1.41372,1.41372,-1.41372,-1.41372,-1.41372,-1.41372,0.0,0.0,255.0,255.0
1,46,0.92,-1.39979,-1.3951,1.40145,-1.3981,-1.39868,-1e-05,0.84399,0.82837,0.86283,0.84479,0.83008,0.86144,0.52171,0.00831,-4.12562,1.0,0.0,0.0,0.0,-1.44514,-1.44514,-1.44514,-1.44514,1.44514,1.44514,-1.44514,-1.44514,-1.44514,-1.44514,0.0,0.0,255.0,255.0
1,47,0.94,-1.43116,-1.42668,1.43288,-1.4295,-1.43009,-0.0,0.844,0.82837,0.86285,0.84481,0.83008,0.8614,0.52171,0.00831,-4.30828,1.0,0.0,0.0,0.0,-1.47655,-1.47655,-1.47655,-1.47655,1.47655,1.47655,-1.47655,-1.47655,-1.47655,-1.47655,0.0,0.0,255.0,255.0
1,48,0.96,-1.46253,-1.45826,1.46431,-1.4609,-1.4615,-0.0,0.84401,0.82838,0.86289,0.84482,0.83009,0.86141,0.52171,0.00831,-4.49487,1.0,0.0,0.0,0.0,-1.50797,-1.50797,-1.50797,-1.50797,1.50797,1.50797,-1.50797,-1.50797,-1.50797,-1.50797,0.0,0.0,255.0,255.0
1,49,0.98,-1.4939,-1.48984,1.49575,-1.4923,-1.49291,-0.0,0.84398,0.82835,0.86285,0.84478,0.83005,0.86135,0.52171,0.00831,-4.68538,1.0,0.0,0.0,0.0,-1.53938,-1.53938,-1.53938,-1.53938,1.53938,1.53938,-1.53938,-1.53938,-1.53938,-1.53938,0.0,0.0,255.0,255.0
1,50,1.0,-1.52526,-1.52142,1.52718,-1.5237,-1.52432,-0.0,0.84403,0.82839,0.86292,0.84483,0.83009,0.86143,0.52171,0.00831,-4.87981,1.0,0.0,0.0,0.0,-1.5708,-1.5708,-1.5708,-1.5708,1.5708,1.5708,-1.5708,-1.5708,-1.5708,-1.5708,0.0,0.0,255.0,255.0
1,51,1.02,-1.55359,-1.54931,1.55433,-1.54267,-1.54375,-0.00843,0.84394,0.82845,0.86283,0.8448,0.82999,0.86136,0.52171,0.00831,-5.07817,1.0,0.0,0.0,0.0,-1.59393,-1.59393,-1.59129,-1.59129,1.59223,1.59223,-1.57051,-1.57051,-1.57169,-1.57169,-0.02137,-0.02137,255.0,255.0
1,52,1.04,-1.58035,-1.5744,1.57965,-1.55421,-1.5553,-0.02354,0.84412,0.82868,0.86263,0.84462,0.82971,0.86151,0.52171,0.00831,-5.28045,1.0,0.0,0.0,0.0,-1.61916,-1.61916,-1.61263,-1.61263,1.61461,1.61461,-1.57141,-1.57141,-1.57187,-1.57187,-0.04629,-0.04629,255.0,255.0
1,53,1.06,-1.60674,-1.59767,1.60365,-1.56131,-1.56215,-0.0431,0.84417,0.82879,0.86246,0.84447,0.82953,0.86159,0.52171,0.00831,-5.48666,1.0,0.0,0.0,0.0,-1.64532,-1.64532,-1.63362,-1.63362,1.63627,1.63627,-1.57214,-1.57214,-1.57194,-1.57194,-0.07235,-0.07235,255.0,255.0
1,54,1.08,-1.63331,-1.61975,1.62644,-1.56563,-1.56621,-0.06564,0.84434,0.82897,0.86248,0.84449,0.82952,0.86182,0.52171,0.00831,-5.69679,1.0,0.0,0.0,0.0,-1.6723,-1.6723,-1.65413,-1.65413,1.65703,1.65703,-1.57249,-1.57249,-1.57198,-1.57198,-0.09926,-0.09926,255.0,255.0
1,55,1.1,-1.66034,-1.64096,1.64809,-1.56817,-1.56862,-0.09028,0.84442,0.82908,0.86249,0.84448,0.82951,0.86193,0.52171,0.00831,-5.91084,1.0,0.0,0.0,0.0,-1.70008,-1.70008,-1.67412,-1.67412,1.67687,1.67687,-1.57244,-1.57244,-1.57202,-1.57202,-0.12698,-0.12698,255.0,255.0
1,56,1.12,-1.68799,-1.66147,1.66866,-1.5695,-1.57007,-0.11649,0.84441,0.82909,0.8624,0.84442,0.82944,0.86189,0.52171,0.00831,-6.12882,1.0,0.0,0.0,0.0,-1.72868,-1.72868,-1.69355,-1.69355,1.69581,1.69581,-1.57203,-1.57203,-1.57207,-1.57207,-0.15551,-0.15551,255.0,255.0
1,57,1.14,-1.71633,-1.68134,1.68822,-1.56999,-1.57094,-0.14397,0.84447,0.82912,0.8624,0.84443,0.82943,0.86193,0.52171,0.00831,-6.35072,1.0,0.0,0.0,0.0,-1.75808,-1.75808,-1.71241,-1.71241,1.71384,1.71384,-1.57129,-1.57129,-1.57211,-1.57211,-0.18485,-0.18485,255.0,255.0
1,58,1.16,-1.74541,-1.70058,1.70681,-1.56987,-1.57147,-0.17252,0.84451,0.82918,0.86246,0.84446,0.82946,0.86202,0.52171,0.00831,-6.57655,1.0,0.0,0.0,0.0,-1.78829,-1.78829,-1.73065,-1.73065,1.73098,1.73098,-1.57027,-1.57027,-1.57216,-1.57216,-0.21499,-0.21499,255.0,255.0
1,59,1.18,-1.77525,-1.7192,1.72445,-1.56929,-1.57181,-0.20203,0.84447,0.82915,0.86239,0.8444,0.82941,0.86195,0.52171,0.00831,-6.8063,1.0,0.0,0.0,0.0,-1.81928,-1.81928,-1.74824,-1.74824,1.74723,1.74723,-1.569,-1.569,-1.5722,-1.5722,-0.24591,-0.24591,255.0,255.0
1,60,1.2,-1.80587,-1.73716,1.74118,-1.56836,-1.57202,-0.23242,0.84444,0.82912,0.86234,0.84435,0.82937,0.8619,0.52171,0.00831,-7.03997,1.0,0.0,0.0,0.0,-1.85104,-1.85104,-1.76514,-1.76514,1.7626,1.7626,-1.56755,-1.56755,-1.57225,-1.57225,-0.27761,-0.27761,255.0,255.0
1,61,1.22,-1.83724,-1.75443,1.75702,-1.56715,-1.57217,-0.26364,0.84451,0.82916,0.8624,0.84442,0.8294,0.86197,0.52171,0.00831,-7.27757,1.0,0.0,0.0,0.0,-1.88355,-1.88355,-1.78131,-1.78131,1.77711,1.77711,-1.56595,-1.56595,-1.57229,-1.57229,-0.31006,-0.31006,255.0,255.0
1,62,1.24,-1.86935,-1.77098,1.77196,-1.56575,-1.57227,-0.29564,0.84443,0.82909,0.86231,0.84434,0.82933,0.86187,0.52171,0.00831,-7.51909,1.0,0.0,0.0,0.0,-1.91677,-1.91677,-1.7967,-1.7967,1.79074,1.79074,-1.56425,-1.56425,-1.57233,-1.57233,-0.34322,-0.34322,255.0,255.0
1,63,1.26,-1.90218,-1.78676,1.78603,-1.56421,-1.57235,-0.32838,0.84444,0.82913,0.86233,0.84435,0.82936,0.8619,0.52171,0.00831,-7.76454,1.0,0.0,0.0,0.0,-1.95066,-1.95066,-1.81128,-1.81128,1.80352,1.80352,-1.5625,-1.5625,-1.57238,-1.57238,-0.37706,-0.37706,255.0,255.0
1,64,1.28,-1.93569,-1.80174,1.79924,-1.5626,-1.57241,-0.36181,0.84451,0.82916,0.86239,0.84441,0.82938,0.86197,0.52171,0.00831,-8.01391,1.0,0.0,0.0,0.0,-1.98518,-1.98518,-1.82499,-1.82499,1.81544,1.81544,-1.56076,-1.56076,-1.57242,-1.57242,-0.41152,-0.41152,255.0,255.0
1,65,1.3,-1.96984,-1.81587,1.81158,-1.56095,-1.57247,-0.3959,0.84454,0.82921,0.86245,0.84444,0.82943,0.86204,0.52171,0.00831,-8.2672,1.0,0.0,0.0,0.0,-2.02028,-2.02028,-1.8378,-1.8378,1.82652,1.82652,-1.55908,-1.55908,-1.57245,-1.57245,-0.44657,-0.44657,255.0,255.0
1,66,1.32,-2.00458,-1.82911,1.82307,-1.55934,-1.57251,-0.43058,0.84448,0.82913,0.86235,0.84438,0.82936,0.86192,0.52171,0.00831,-8.52442,1.0,0.0,0.0,0.0,-2.05588,-2.05588,-1.84965,-1.84965,1.83675,1.83675,-1.55751,-1.55751,-1.57249,-1.57249,-0.48213,-0.48213,255.0,255.0
1,67,1.34,-2.03983,-1.8414,1.83372,-1.5578,-1.57255,-0.46579,0.84443,0.82909,0.86229,0.84433,0.82932,0.86186,0.52171,0.00831,-8.78556,1.0,0.0,0.0,0.0,-2.09192,-2.09192,-1.86049,-1.86049,1.84614,1.84614,-1.55609,-1.55609,-1.57252,-1.57252,-0.51813,-0.51813,255.0,255.0
1,68,1.36,-2.07555,-1.85271,1.84352,-1.5564,-1.57258,-0.50146,0.84446,0.82911,0.86232,0.84437,0.82935,0.86189,0.52171,0.00831,-9.05063,1.0,0.0,0.0,0.0,-2.12832,-2.12832,-1.87029,-1.87029,1.8547,1.8547,-1.55488,-1.55488,-1.57254,-1.57254,-0.55449,-0.55449,255.0,255.0
1,69,1.38,-2.11166,-1.86299,1.85248,-1.55518,-1.57261,-0.53753,0.84445,0.82912,0.86234,0.84436,0.82936,0.86191,0.52171,0.00831,-9.31962,1.0,0.0,0.0,0.0,-2.16499,-2.16499,-1.879,-1.879,1.86242,1.86242,-1.55392,-1.55392,-1.57256,-1.57256,-0.59114,-0.59114,255.0,255.0
1,70,1.4,-2.14807,-1.8722,1.86061,-1.55418,-1.57263,-0.57391,0.84438,0.82905,0.86225,0.8443,0.8293,0.8618,0.52171,0.00831,-9.59253,1.0,0.0,0.0,0.0,-2.20184,-2.20184,-1.88658,-1.88658,1.86932,1.86932,-1.55326,-1.55326,-1.57257,-1.57257,-0.62797,-0.62797,255.0,255.0
1,71,1.42,-2.18469,-1.88029,1.86791,-1.55346,-1.57264,-0.61051,0.84449,0.82917,0.86238,0.8444,0.82942,0.86196,0.52171,0.00831,-9.86937,1.0,0.0,0.0,0.0,-2.23878,-2.23878,-1.893,-1.893,1.87539,1.87539,-1.55294,-1.55294,-1.57258,-1.57258,-0.6649,-0.6649,255.0,255.0
1,72,1.44,-2.22144,-1.88724,1.87438,-1.55305,-1.57265,-0.64724,0.8445,0.82917,0.86241,0.84442,0.82943,0.86199,0.52171,0.00831,-10.15013,1.0,0.0,0.0,0.0,-2.2757,-2.2757,-1.89822,-1.89822,1.88064,1.88064,-1.55299,-1.55299,-1.57257,-1.57257,-0.70182,-0.70182,255.0,255.0
1,73,1.46,-2.25821,-1.893,1.88003,-1.55299,-1.57265,-0.68401,0.84446,0.82913,0.86238,0.84439,0.82941,0.86194,0.52171,0.00831,-10.43482,1.0,0.0,0.0,0.0,-2.31251,-2.31251,-1.90221,-1.90221,1.88508,1.88508,-1.55344,-1.55344,-1.57257,-1.57257,-0.73864,-0.73864,255.0,255.0
1,74,1.48,-2.29492,-1.89755,1.88486,-1.5533,-1.57264,-0.72071,0.84444,0.82912,0.86235,0.84438,0.82941,0.86191,0.52171,0.00831,-10.72343,1.0,0.0,0.0,0.0,-2.3491,-2.3491,-1.90496,-1.90496,1.88869,1.88869,-1.55432,-1.55432,-1.57255,-1.57255,-0.77525,-0.77525,255.0,255.0
1,75,1.5,-2.33146,-1.90087,1.88887,-1.55403,-1.57263,-0.75726,0.84447,0.82913,0.86239,0.84442,0.82943,0.86195,0.52171,0.00831,-11.01596,1.0,0.0,0.0,0.0,-2.38538,-2.38538,-1.90645,-1.90645,1.89149,1.89149,-1.55564,-1.55564,-1.57253,-1.57253,-0.81155,-0.81155,255.0,255.0
1,76,1.52,-2.36772,-1.90293,1.89206,-1.55517,-1.57261,-0.79354,0.8445,0.82916,0.86245,0.84446,0.82947,0.86201,0.52171,0.00831,-11.31242,1.0,0.0,0.0,0.0,-2.42123,-2.42123,-1.90666,-1.90666,1.89347,1.89347,-1.55742,-1.55742,-1.57249,-1.57249,-0.84744,-0.84744,255.0,255.0
1,77,1.54,-2.40362,-1.90373,1.89443,-1.55676,-1.57258,-0.82946,0.84439,0.82903,0.86231,0.84436,0.82938,0.86184,0.52171,0.00831,-11.61281,1.0,0.0,0.0,0.0,-2.45658,-2.45658,-1.9056,-1.9056,1.89463,1.89463,-1.55964,-1.55964,-1.57246,-1.57246,-0.88283,-0.88283,255.0,255.0
1,78,1.56,-2.43907,-1.90325,1.89598,-1.55878,-1.57254,-0.86494,0.84443,0.8291,0.86239,0.84441,0.82945,0.86194,0.52171,0.00831,-11.91711,1.0,0.0,0.0,0.0,-2.49134,-2.49134,-1.90327,-1.90327,1.89496,1.89496,-1.56233,-1.56233,-1.57241,-1.57241,-0.91763,-0.91763,255.0,255.0
1,79,1.58,-2.47396,-1.90151,1.89671,-1.56125,-1.5725,-0.89987,0.8444,0.82907,0.86237,0.8444,0.82944,0.8619,0.52171,0.00831,-12.22534,1.0,0.0,0.0,0.0,-2.52541,-2.52541,-1.89967,-1.89967,1.89448,1.89448,-1.56545,-1.56545,-1.57236,-1.57236,-0.95176,-0.95176,255.0,255.0
1,80,1.6,-2.50823,-1.8985,1.89661,-1.56415,-1.57245,-0.93419,0.8444,0.82907,0.86236,0.84441,0.82946,0.86189,0.52171,0.00831,-12.5375,1.0,0.0,0.0,0.0,-2.55874,-2.55874,-1.89483,-1.89483,1.89317,1.89317,-1.56899,-1.56899,-1.57231,-1.57231,-0.98515,-0.98515,255.0,255.0
1,81,1.62,-2.5418,-1.89425,1.89569,-1.56747,-1.57239,-0.96781,0.84441,0.82905,0.86238,0.84443,0.82946,0.86191,0.52171,0.00831,-12.85357,1.0,0.0,0.0,0.0,-2.59126,-2.59126,-1.88876,-1.88876,1.89102,1.89102,-1.57293,-1.57293,-1.57225,-1.57225,-1.01774,-1.01774,255.0,255.0
1,82,1.64,-2.57461,-1.88876,1.89393,-1.57119,-1.57233,-1.00068,0.84445,0.82909,0.86242,0.84448,0.82952,0.86195,0.52171,0.00831,-13.17358,1.0,0.0,0.0,0.0,-2.62292,-2.62292,-1.88149,-1.88149,1.88805,1.88805,-1.57723,-1.57723,-1.57218,-1.57218,-1.04948,-1.04948,255.0,255.0
1,83,1.66,-2.60659,-1.88206,1.89135,-1.57527,-1.57227,-1.03272,0.84447,0.8291,0.86247,0.84451,0.82954,0.862,0.52171,0.00831,-13.4975,1.0,0.0,0.0,0.0,-2.65368,-2.65368,-1.87306,-1.87306,1.88423,1.88423,-1.58186,-1.58186,-1.57212,-1.57212,-1.08031,-1.08031,255.0,255.0
1,84,1.68,-2.6377,-1.87418,1.88792,-1.5797,-1.57221,-1.0639,0.84433,0.82895,0.86231,0.84439,0.82942,0.8618,0.52171,0.00831,-13.82535,1.0,0.0,0.0,0.0,-2.68349,-2.68349,-1.8635,-1.8635,1.87956,1.87956,-1.58677,-1.58677,-1.57205,-1.57205,-1.1102,-1.1102,255.0,255.0
1,85,1.7,-2.6679,-1.86516,1.88365,-1.58442,-1.57214,-1.09418,0.84431,0.82893,0.86229,0.84438,0.82942,0.86176,0.52171,0.00831,-14.15713,1.0,0.0,0.0,0.0,-2.71235,-2.71235,-1.85285,-1.85285,1.87405,1.87405,-1.59193,-1.59193,-1.57198,-1.57198,-1.13914,-1.13914,255.0,255.0
1,86,1.72,-2.69717,-1.85503,1.87853,-1.58939,-1.57207,-1.12353,0.84432,0.82895,0.86232,0.8444,0.82944,0.8618,0.52171,0.00831,-14.49283,1.0,0.0,0.0,0.0,-2.74023,-2.74023,-1.84116,-1.84116,1.86767,1.86767,-1.59728,-1.59728,-1.57191,-1.57191,-1.1671,-1.1671,255.0,255.0
1,87,1.74,-2.72548,-1.84384,1.87256,-1.59457,-1.572,-1.15192,0.84439,0.829,0.86239,0.84448,0.8295,0.86189,0.52171,0.00831,-14.83245,1.0,0.0,0.0,0.0,-2.76712,-2.76712,-1.82847,-1.82847,1.86044,1.86044,-1.60277,-1.60277,-1.57184,-1.57184,-1.19408,-1.19408,255.0,255.0
1,88,1.76,-2.75283,-1.83163,1.86572,-1.59992,-1.57193,-1.17935,0.84438,0.82899,0.86239,0.84446,0.8295,0.86188,0.52171,0.00831,-15.17599,1.0,0.0,0.0,0.0,-2.79303,-2.79303,-1.81483,-1.81483,1.85234,1.85234,-1.60835,-1.60835,-1.57177,-1.57177,-1.22007,-1.22007,255.0,255.0
1,89,1.78,-2.7792,-1.81845,1.85803,-1.60537,-1.57186,-1.20581,0.84436,0.82899,0.8624,0.84446,0.82951,0.86189,0.52171,0.00831,-15.52346,1.0,0.0,0.0,0.0,-2.81797,-2.81797,-1.80029,-1.80029,1.84337,1.84337,-1.61396,-1.61396,-1.57171,-1.57171,-1.24509,-1.24509,255.0,255.0
1,90,1.8,-2.80461,-1.80434,1.84947,-1.61088,-1.57179,-1.2313,0.84432,0.82894,0.86235,0.84443,0.82947,0.86182,0.52171,0.00831,-15.87486,1.0,0.0,0.0,0.0,-2.84194,-2.84194,-1.78489,-1.78489,1.83353,1.83353,-1.61955,-1.61955,-1.57164,-1.57164,-1.26914,-1.26914,255.0,255.0
1,91,1.82,-2.82906,-1.78935,1.84003,-1.6164,-1.57172,-1.25584,0.84441,0.82903,0.86243,0.84451,0.82955,0.86192,0.52171,0.00831,-16.23018,1.0,0.0,0.0,0.0,-2.86496,-2.86496,-1.76869,-1.76869,1.82281,1.82281,-1.62508,-1.62508,-1.57158,-1.57158,-1.29225,-1.29225,255.0,255.0
1,92,1.84,-2.85256,-1.77353,1.82972,-1.62187,-1.57166,-1.27942,0.84435,0.82895,0.86236,0.84445,0.82948,0.86183,0.52171,0.00831,-16.58942,1.0,0.0,0.0,0.0,-2.88706,-2.88706,-1.75174,-1.75174,1.8112,1.8112,-1.63048,-1.63048,-1.57152,-1.57152,-1.31443,-1.31443,255.0,255.0
1,93,1.86,-2.87514,-1.75693,1.81852,-1.62725,-1.5716,-1.30208,0.84432,0.82893,0.86233,0.84443,0.82946,0.86178,0.52171,0.00831,-16.95258,1.0,0.0,0.0,0.0,-2.90827,-2.90827,-1.73408,-1.73408,1.79871,1.79871,-1.63571,-1.63571,-1.57146,-1.57146,-1.33571,-1.33571,255.0,255.0
1,94,1.88,-2.89681,-1.73959,1.80644,-1.63248,-1.57154,-1.32383,0.84438,0.82899,0.86242,0.84449,0.82951,0.86189,0.52171,0.00831,-17.31967,1.0,0.0,0.0,0.0,-2.9286,-2.9286,-1.71575,-1.71575,1.78532,1.78532,-1.64072,-1.64072,-1.57141,-1.57141,-1.35612,-1.35612,255.0,255.0
1,95,1.9,-2.9176,-1.72156,1.79348,-1.63752,-1.57148,-1.3447,0.84436,0.82897,0.86236,0.84446,0.82949,0.86183,0.52171,0.00831,-17.69069,1.0,0.0,0.0,0.0,-2.94809,-2.94809,-1.6968,-1.6968,1.77105,1.77105,-1.64546,-1.64546,-1.57135,-1.57135,-1.37568,-1.37568,255.0,255.0
1,96,1.92,-2.93753,-1.70289,1.77962,-1.64231,-1.57142,-1.36472,0.84432,0.82896,0.86235,0.84442,0.82948,0.86181,0.52171,0.00831,-18.06563,1.0,0.0,0.0,0.0,-2.96676,-2.96676,-1.67727,-1.67727,1.75587,1.75587,-1.64988,-1.64988,-1.5713,-1.5713,-1.39442,-1.39442,255.0,255.0
1,97,1.94,-2.95665,-1.68361,1.76486,-1.64681,-1.57137,-1.38391,0.84438,0.82901,0.86239,0.84447,0.82951,0.86186,0.52171,0.00831,-18.44449,1.0,0.0,0.0,0.0,-2.98466,-2.98466,-1.6572,-1.6572,1.73979,1.73979,-1.65396,-1.65396,-1.57126,-1.57126,-1.41238,-1.41238,255.0,255.0
1,98,1.96,-2.97497,-1.66376,1.74921,-1.65099,-1.57132,-1.4023,0.84437,0.82901,0.86241,0.84446,0.8295,0.86188,0.52171,0.00831,-18.82728,1.0,0.0,0.0,0.0,-3.0018,-3.0018,-1.63662,-1.63662,1.72281,1.72281,-1.65764,-1.65764,-1.57121,-1.57121,-1.42959,-1.42959,255.0,255.0
1,99,1.98,-2.99252,-1.64337,1.73265,-1.6548,-1.57127,-1.41992,0.84437,0.82899,0.86238,0.84445,0.82947,0.86185,0.52171,0.00831,-19.21399,1.0,0.0,0.0,0.0,-3.01823,-3.01823,-1.61556,-1.61556,1.70492,1.70492,-1.6609,-1.6609,-1.57117,-1.57117,-1.44608,-1.44608,255.0,255.0
1,100,2.0,-3.00934,-1.62249,1.71518,-1.65819,-1.57123,-1.43682,0.84442,0.82903,0.86242,0.84448,0.8295,0.86189,0.52171,0.00831,-19.60462,1.0,0.0,0.0,0.0,-3.03397,-3.03397,-1.59405,-1.59405,1.68611,1.68611,-1.66369,-1.66369,-1.57113,-1.57113,-1.46188,-1.46188,255.0,255.0
1,101,2.02,-3.02547,-1.60114,1.6968,-1.66115,-1.57118,-1.453,0.84438,0.82902,0.86237,0.84444,0.82948,0.86184,0.52171,0.00831,-19.99918,1.0,0.0,0.0,0.0,-3.04905,-3.04905,-1.57212,-1.57212,1.66638,1.66638,-1.66598,-1.66598,-1.57109,-1.57109,-1.47702,-1.47702,255.0,255.0
1,102,2.04,-3.04091,-1.57935,1.6775,-1.66363,-1.57114,-1.46851,0.84439,0.82904,0.86239,0.84444,0.82948,0.86187,0.52171,0.00831,-20.39766,1.0,0.0,0.0,0.0,-3.06351,-3.06351,-1.54979,-1.54979,1.64571,1.64571,-1.66775,-1.66775,-1.57106,-1.57106,-1.49153,-1.49153,255.0,255.0
1,103,2.06,-3.05572,-1.55714,1.65727,-1.6656,-1.5711,-1.48338,0.84443,0.82905,0.86241,0.84446,0.82947,0.86189,0.52171,0.00831,-20.80007,1.0,0.0,0.0,0.0,-3.07737,-3.07737,-1.52708,-1.52708,1.62411,1.62411,-1.66897,-1.66897,-1.57102,-1.57102,-1.50545,-1.50545,255.0,255.0
1,104,2.08,-3.06992,-1.53453,1.6361,-1.66704,-1.57107,-1.49764,0.84441,0.82904,0.8624,0.84443,0.82944,0.86187,0.52171,0.00831,-21.2064,1.0,0.0,0.0,0.0,-3.09066,-3.09066,-1.504,-1.504,1.60155,1.60155,-1.6696,-1.6696,-1.57099,-1.57099,-1.51879,-1.51879,255.0,255.0
1,105,2.1,-3.08353,-1.51155,1.61399,-1.66791,-1.57103,-1.51131,0.84448,0.82913,0.86247,0.84449,0.82951,0.86196,0.52171,0.00831,-21.61665,1.0,0.0,0.0,0.0,-3.10342,-3.10342,-1.48057,-1.48057,1.57803,1.57803,-1.66963,-1.66963,-1.57096,-1.57096,-1.53159,-1.53159,255.0,255.0
1,106,2.12,-3.09659,-1.48819,1.59091,-1.66819,-1.571,-1.52442,0.84449,0.82914,0.86247,0.84448,0.8295,0.86197,0.52171,0.00831,-22.03083,1.0,0.0,0.0,0.0,-3.11565,-3.11565,-1.45679,-1.45679,1.55353,1.55353,-1.66903,-1.66903,-1.57093,-1.57093,-1.54387,-1.54387,255.0,255.0
1,107,2.14,-3.10912,-1.46448,1.56685,-1.66785,-1.57096,-1.53699,0.8444,0.82906,0.86236,0.84438,0.82941,0.86184,0.52171,0.00831,-22.44893,1.0,0.0,0.0,0.0,-3.1274,-3.1274,-1.43267,-1.43267,1.52803,1.52803,-1.66778,-1.66778,-1.5709,-1.5709,-1.55566,-1.55566,255.0,255.0
1,108,2.16,-3.12114,-1.44042,1.5418,-1.66688,-1.57093,-1.54907,0.84435,0.82903,0.86232,0.84433,0.82936,0.86178,0.52171,0.00831,-22.87096,1.0,0.0,0.0,0.0,-3.13868,-3.13868,-1.40821,-1.40821,1.5015,1.5015,-1.66584,-1.66584,-1.57087,-1.57087,-1.56698,-1.56698,255.0,255.0
1,109,2.18,-3.13269,-1.41601,1.51574,-1.66523,-1.5709,-1.56066,0.84443,0.82907,0.86236,0.84438,0.82937,0.86184,0.52171,0.00831,-23.29691,1.0,0.0,0.0,0.0,-3.14952,-3.14952,-1.38342,-1.38342,1.47393,1.47393,-1.66321,-1.66321,-1.57085,-1.57085,-1.57786,-1.57786,255.0,255.0
1,110,2.2,-3.14377,-1.39126,1.48863,-1.66291,-1.57088,-1.57179,0.84446,0.82914,0.86241,0.8444,0.82941,0.86191,0.52171,0.00831,-23.72678,1.0,0.0,0.0,0.0,-3.15994,-3.15994,-1.35827,-1.35827,1.44528,1.44528,-1.65986,-1.65986,-1.57082,-1.57082,-1.58831,-1.58831,255.0,255.0
1,111,2.22,-3.14862,-1.37732,1.47344,-1.65583,-1.56704,-1.57966,0.84298,0.82742,0.86091,0.84424,0.83011,0.85389,0.52171,0.00831,-24.16058,1.0,0.0,0.0,0.0,-3.16264,-3.16264,-1.35903,-1.35903,1.44472,1.44472,-1.65682,-1.65682,-1.57087,-1.57087,-1.59158,-1.59158,255.0,255.0
1,112,2.24,-3.14767,-1.37228,1.46736,-1.64967,-1.56322,-1.58573,0.84388,0.82827,0.86198,0.84458,0.82988,0.85734,0.52171,0.00831,-24.5983,1.0,0.0,0.0,0.0,-3.1656,-3.1656,-1.36143,-1.36143,1.44734,1.44734,-1.65658,-1.65658,-1.5709,-1.5709,-1.59456,-1.59456,255.0,255.0
1,113,2.26,-3.14822,-1.36996,1.46442,-1.64735,-1.56072,-1.59063,0.84391,0.82832,0.86214,0.8446,0.82987,0.85855,0.52171,0.00831,-25.03995,1.0,0.0,0.0,0.0,-3.16859,-3.16859,-1.36402,-1.36402,1.4504,1.4504,-1.65696,-1.65696,-1.57091,-1.57091,-1.59755,-1.59755,255.0,255.0
1,114,2.28,-3.14947,-1.36936,1.46355,-1.64688,-1.55876,-1.5948,0.84398,0.82843,0.86228,0.84466,0.82994,0.85921,0.52171,0.00831,-25.48552,1.0,0.0,0.0,0.0,-3.17159,-3.17159,-1.36663,-1.36663,1.45352,1.45352,-1.65745,-1.65745,-1.57091,-1.57091,-1.60055,-1.60055,255.0,255.0
1,115,2.3,-3.151,-1.36992,1.46405,-1.64724,-1.5571,-1.59854,0.84404,0.82849,0.86234,0.84471,0.82997,0.85952,0.52171,0.00831,-25.93501,1.0,0.0,0.0,0.0,-3.1746,-3.1746,-1.36924,-1.36924,1.45663,1.45663,-1.65796,-1.65796,-1.57091,-1.57091,-1.60356,-1.60356,255.0,255.0
1,116,2.32,-3.15225,-1.37113,1.46548,-1.64796,-1.55506,-1.60194,0.84399,0.82848,0.86228,0.84464,0.82987,0.85963,0.52171,0.00831,-26.38843,1.0,0.0,0.0,0.0,-3.17763,-3.17763,-1.37184,-1.37184,1.45973,1.45973,-1.65846,-1.65846,-1.57091,-1.57091,-1.60658,-1.60658,255.0,255.0
1,117,2.34,-3.15348,-1.37279,1.46741,-1.64891,-1.55328,-1.60528,0.84394,0.82842,0.86221,0.84459,0.82982,0.85977,0.52171,0.00831,-26.84577,1.0,0.0,0.0,0.0,-3.18066,-3.18066,-1.37443,-1.37443,1.46281,1.46281,-1.65895,-1.65895,-1.57091,-1.57091,-1.60962,-1.60962,255.0,255.0
1,118,2.36,-3.1548,-1.3747,1.46964,-1.64995,-1.55149,-1.60849,0.84397,0.82844,0.8622,0.84461,0.82982,0.85994,0.52171,0.00831,-27.30704,1.0,0.0,0.0,0.0,-3.1837,-3.1837,-1.377,-1.377,1.46586,1.46586,-1.65943,-1.65943,-1.57091,-1.57091,-1.61266,-1.61266,255.0,255.0
1,119,2.38,-3.15619,-1.37679,1.47211,-1.65094,-1.54975,-1.61164,0.84401,0.82853,0.86225,0.84462,0.82984,0.86014,0.52171,0.00831,-27.77223,1.0,0.0,0.0,0.0,-3.18675,-3.18675,-1.37957,-1.37957,1.4689,1.4689,-1.65991,-1.65991,-1.57091,-1.57091,-1.61571,-1.61571,255.0,255.0
1,120,2.4,-3.15767,-1.37905,1.4747,-1.65185,-1.54819,-1.61479,0.84403,0.82854,0.86227,0.84464,0.82985,0.86023,0.52171,0.00831,-28.24134,1.0,0.0,0.0,0.0,-3.18981,-3.18981,-1.38213,-1.38213,1.47192,1.47192,-1.66037,-1.66037,-1.57091,-1.57091,-1.61877,-1.61877,255.0,255.0
1,121,2.42,-3.15918,-1.38137,1.47738,-1.65269,-1.54659,-1.61791,0.84401,0.8285,0.86223,0.84462,0.8298,0.86026,0.52171,0.00831,-28.71438,1.0,0.0,0.0,0.0,-3.19288,-3.19288,-1.38468,-1.38468,1.47492,1.47492,-1.66082,-1.66082,-1.57091,-1.57091,-1.62184,-1.62184,255.0,255.0
1,122,2.44,-3.16073,-1.38374,1.48014,-1.65346,-1.545,-1.62101,0.84407,0.82858,0.86227,0.84465,0.8298,0.8604,0.52171,0.00831,-29.19134,1.0,0.0,0.0,0.0,-3.19596,-3.19596,-1.38721,-1.38721,1.4779,1.4779,-1.66127,-1.66127,-1.57091,-1.57091,-1.62492,-1.62492,255.0,255.0
1,123,2.46,-3.16233,-1.38616,1.48292,-1.65418,-1.54347,-1.62411,0.84411,0.82868,0.86233,0.84468,0.82981,0.86054,0.52171,0.00831,-29.67223,1.0,0.0,0.0,0.0,-3.19905,-3.19905,-1.38974,-1.38974,1.48086,1.48086,-1.66171,-1.66171,-1.57091,-1.57091,-1.628,-1.628,255.0,255.0
1,124,2.48,-3.16391,-1.38859,1.48571,-1.65484,-1.54194,-1.62723,0.84401,0.82858,0.8622,0.84458,0.82975,0.86044,0.52171,0.00831,-30.15704,1.0,0.0,0.0,0.0,-3.20215,-3.20215,-1.39225,-1.39225,1.4838,1.4838,-1.66213,-1.66213,-1.57091,-1.57091,-1.6311,-1.6311,255.0,255.0
1,125,2.5,-3.16554,-1.39105,1.48854,-1.65543,-1.54042,-1.63036,0.84405,0.82856,0.86222,0.8446,0.82978,0.86048,0.52171,0.00831,-30.64577,1.0,0.0,0.0,0.0,-3.20526,-3.20526,-1.39476,-1.39476,1.48672,1.48672,-1.66255,-1.66255,-1.57091,-1.57091,-1.63421,-1.63421,255.0,255.0
1,126,2.52,-3.1672,-1.39355,1.49138,-1.65593,-1.53896,-1.63349,0.84406,0.82858,0.86223,0.84463,0.82983,0.86049,0.52171,0.00831,-31.13843,1.0,0.0,0.0,0.0,-3.20837,-3.20837,-1.39725,-1.39725,1.48962,1.48962,-1.66296,-1.66296,-1.57091,-1.57091,-1.63732,-1.63732,255.0,255.0
1,127,2.54,-3.16887,-1.39605,1.49419,-1.65644,-1.53741,-1.6366,0.84408,0.82869,0.86224,0.84461,0.82972,0.86061,0.52171,0.00831,-31.63502,1.0,0.0,0.0,0.0,-3.2115,-3.2115,-1.39973,-1.39973,1.49251,1.49251,-1.66336,-1.66336,-1.57091,-1.57091,-1.64045,-1.64045,255.0,255.0
1,128,2.56,-3.17055,-1.39858,1.49699,-1.65692,-1.53586,-1.63973,0.84411,0.82876,0.86226,0.84458,0.82966,0.86067,0.52171,0.00831,-32.13552,1.0,0.0,0.0,0.0,-3.21464,-3.21464,-1.40221,-1.40221,1.49537,1.49537,-1.66376,-1.66376,-1.57091,-1.57091,-1.64359,-1.64359,255.0,255.0
1,129,2.58,-3.17226,-1.40107,1.49985,-1.65732,-1.53439,-1.64287,0.84409,0.82868,0.86222,0.84455,0.82965,0.86065,0.52171,0.00831,-32.63995,1.0,0.0,0.0,0.0,-3.21778,-3.21778,-1.40467,-1.40467,1.49821,1.49821,-1.66414,-1.66414,-1.57091,-1.57091,-1.64673,-1.64673,255.0,255.0
1,130,2.6,-3.17396,-1.40349,1.50268,-1.65776,-1.53287,-1.64603,0.84411,0.82873,0.86226,0.84456,0.82967,0.86077,0.52171,0.00831,-33.14831,1.0,0.0,0.0,0.0,-3.22094,-3.22094,-1.40712,-1.40712,1.50104,1.50104,-1.66452,-1.66452,-1.57091,-1.57091,-1.64988,-1.64988,255.0,255.0
1,131,2.62,-3.17577,-1.40604,1.5056,-1.65796,-1.53147,-1.64918,0.84415,0.82873,0.86228,0.8446,0.82968,0.86067,0.52171,0.00831,-33.66058,1.0,0.0,0.0,0.0,-3.2241,-3.2241,-1.40956,-1.40956,1.50384,1.50384,-1.66489,-1.66489,-1.57091,-1.57091,-1.65305,-1.65305,255.0,255.0
1,132,2.64,-3.17753,-1.40851,1.50846,-1.65826,-1.53001,-1.65236,0.84413,0.82874,0.86225,0.84457,0.82967,0.86069,0.52171,0.00831,-34.17679,1.0,0.0,0.0,0.0,-3.22727,-3.22727,-1.41199,-1.41199,1.50663,1.50663,-1.66525,-1.66525,-1.57091,-1.57091,-1.65622,-1.65622,255.0,255.0
1,133,2.66,-3.17932,-1.41101,1.51133,-1.65848,-1.52856,-1.65554,0.84407,0.82866,0.86218,0.84452,0.82961,0.86058,0.52171,0.00831,-34.69691,1.0,0.0,0.0,0.0,-3.23046,-3.23046,-1.41441,-1.41441,1.5094,1.5094,-1.6656,-1.6656,-1.57092,-1.57092,-1.6594,-1.6594,255.0,255.0
1,134,2.68,-3.18115,-1.41353,1.51421,-1.65863,-1.52714,-1.65873,0.84406,0.82864,0.86214,0.8445,0.82959,0.86049,0.52171,0.00831,-35.22096,1.0,0.0,0.0,0.0,-3.23365,-3.23365,-1.41682,-1.41682,1.51215,1.51215,-1.66594,-1.66594,-1.57092,-1.57092,-1.66259,-1.66259,255.0,255.0
1,135,2.7,-3.18301,-1.41608,1.5171,-1.65872,-1.52574,-1.66193,0.8441,0.82868,0.86222,0.84455,0.82965,0.8605,0.52171,0.00831,-35.74894,1.0,0.0,0.0,0.0,-3.23685,-3.23685,-1.41921,-1.41921,1.51488,1.51488,-1.66627,-1.66627,-1.57092,-1.57092,-1.66579,-1.66579,255.0,255.0
1,136,2.72,-3.18513,-1.4189,1.52028,-1.65878,-1.524,-1.66569,0.84418,0.82875,0.86228,0.8446,0.82967,0.86064,0.52171,0.00831,-36.28084,1.0,0.0,0.0,0.0,-3.24155,-3.24155,-1.42254,-1.42254,1.51838,1.51838,-1.66642,-1.66642,-1.57096,-1.57096,-1.67038,-1.67038,255.0,255.0
1,137,2.74,-3.18747,-1.42193,1.52368,-1.65882,-1.52205,-1.66987,0.84407,0.82868,0.86217,0.84448,0.82957,0.86058,0.52171,0.00831,-36.81666,1.0,0.0,0.0,0.0,-3.24632,-3.24632,-1.42589,-1.42589,1.52191,1.52191,-1.6666,-1.6666,-1.57097,-1.57097,-1.67514,-1.67514,255.0,255.0
1,138,2.76,-3.18996,-1.4251,1.52721,-1.65881,-1.51997,-1.67432,0.84407,0.82868,0.86214,0.84447,0.82956,0.86059,0.52171,0.00831,-37.3564,1.0,0.0,0.0,0.0,-3.25112,-3.25112,-1.42923,-1.42923,1.52541,1.52541,-1.66677,-1.66677,-1.57097,-1.57097,-1.67993,-1.67993,255.0,255.0
1,139,2.78,-3.19257,-1.42836,1.53084,-1.6587,-1.51784,-1.67893,0.8441,0.8287,0.86218,0.84449,0.82957,0.86064,0.52171,0.00831,-37.90007,1.0,0.0,0.0,0.0,-3.25593,-3.25593,-1.43254,-1.43254,1.52888,1.52888,-1.66692,-1.66692,-1.57097,-1.57097,-1.68475,-1.68475,255.0,255.0
1,140,2.8,-3.19528,-1.43174,1.53451,-1.65845,-1.51571,-1.68364,0.84409,0.82872,0.86218,0.84451,0.82962,0.86058,0.52171,0.00831,-38.44767,1.0,0.0,0.0,0.0,-3.26077,-3.26077,-1.43583,-1.43583,1.5323,1.5323,-1.66706,-1.66706,-1.57097,-1.57097,-1.68958,-1.68958,255.0,255.0
1,141,2.82,-3.19927,-1.43655,1.53805,-1.65688,-1.51574,-1.68842,0.84362,0.82807,0.86177,0.84444,0.82987,0.85747,0.52171,0.00831,-38.99919,1.0,0.0,0.0,0.0,-3.26562,-3.26562,-1.43909,-1.43909,1.53569,1.53569,-1.66719,-1.66719,-1.57097,-1.57097,-1.69443,-1.69443,255.0,255.0
1,142,2.84,-3.205,-1.44354,1.54128,-1.6538,-1.51726,-1.69308,0.84352,0.82798,0.86174,0.84422,0.82964,0.85424,0.52171,0.00831,-39.55463,1.0,0.0,0.0,0.0,-3.27049,-3.27049,-1.44233,-1.44233,1.53903,1.53903,-1.6673,-1.6673,-1.57097,-1.57097,-1.6993,-1.6993,255.0,255.0
1,143,2.86,-3.21022,-1.44987,1.54444,-1.65141,-1.51811,-1.69778,0.84341,0.82778,0.86169,0.8442,0.82981,0.85284,0.52171,0.00831,-40.11399,1.0,0.0,0.0,0.0,-3.27538,-3.27538,-1.44554,-1.44554,1.54234,1.54234,-1.6674,-1.6674,-1.57097,-1.57097,-1.70419,-1.70419,255.0,255.0
1,144,2.88,-3.21626,-1.45614,1.54712,-1.64937,-1.51976,-1.70252,0.84318,0.82748,0.8615,0.84399,0.82975,0.85066,0.52171,0.00831,-40.67728,1.0,0.0,0.0,0.0,-3.28029,-3.28029,-1.44872,-1.44872,1.5456,1.5456,-1.66748,-1.66748,-1.57098,-1.57098,-1.7091,-1.7091,255.0,255.0
1,145,2.9,-3.22191,-1.46195,1.54974,-1.6478,-1.52078,-1.70729,0.84314,0.82736,0.86153,0.84398,0.82983,0.84969,0.52171,0.00831,-41.2445,1.0,0.0,0.0,0.0,-3.28522,-3.28522,-1.45189,-1.45189,1.54883,1.54883,-1.66755,-1.66755,-1.57098,-1.57098,-1.71402,-1.71402,255.0,255.0
1,146,2.92,-3.227,-1.4672,1.55235,-1.64664,-1.52114,-1.7121,0.84316,0.82736,0.86159,0.84399,0.82991,0.84913,0.52171,0.00831,-41.81564,1.0,0.0,0.0,0.0,-3.29017,-3.29017,-1.45502,-1.45502,1.55201,1.55201,-1.6676,-1.6676,-1.57098,-1.57098,-1.71897,-1.71897,255.0,255.0
1,147,2.94,-3.23182,-1.47199,1.55499,-1.64576,-1.52118,-1.71696,0.84309,0.82731,0.86153,0.84393,0.82985,0.84866,0.52171,0.00831,-42.3907,1.0,0.0,0.0,0.0,-3.29513,-3.29513,-1.45813,-1.45813,1.55516,1.55516,-1.66764,-1.66764,-1.57098,-1.57098,-1.72393,-1.72393,255.0,255.0
1,148,2.96,-3.23635,-1.47643,1.55765,-1.6451,-1.52084,-1.72185,0.84304,0.82728,0.86149,0.84389,0.82983,0.84837,0.52171,0.00831,-42.96969,1.0,0.0,0.0,0.0,-3.30011,-3.30011,-1.46122,-1.46122,1.55827,1.55827,-1.66767,-1.66767,-1.57098,-1.57098,-1.72891,-1.72891,255.0,255.0
1,149,2.98,-3.24065,-1.48062,1.56031,-1.64454,-1.52016,-1.72677,0.84301,0.82721,0.86145,0.84388,0.82987,0.84797,0.52171,0.00831,-43.5526,1.0,0.0,0.0,0.0,-3.30511,-3.30511,-1.46428,-1.46428,1.56134,1.56134,-1.66768,-1.66768,-1.57098,-1.57098,-1.73391,-1.73391,255.0,255.0
1,150,3.0,-3.24478,-1.48456,1.56302,-1.64414,-1.51933,-1.73174,0.84296,0.82718,0.86143,0.84382,0.82982,0.84794,0.52171,0.00831,-44.13943,1.0,0.0,0.0,0.0,-3.31013,-3.31013,-1.46731,-1.46731,1.56437,1.56437,-1.66768,-1.66768,-1.57098,-1.57098,-1.73892,-1.73892,255.0,255.0
1,151,3.02,-3.24884,-1.48841,1.56573,-1.64374,-1.5184,-1.73675,0.84295,0.82721,0.8614,0.84379,0.82971,0.84788,0.52171,0.00831,-44.73019,1.0,0.0,0.0,0.0,-3.31516,-3.31516,-1.47032,-1.47032,1.56736,1.56736,-1.66767,-1.66767,-1.57098,-1.57098,-1.74396,-1.74396,255.0,255.0
1,152,3.04,-3.25292,-1.49218,1.56842,-1.6433,-1.51743,-1.74176,0.84294,0.8271,0.86138,0.84381,0.8298,0.84758,0.52171,0.00831,-45.32487,1.0,0.0,0.0,0.0,-3.32022,-3.32022,-1.4733,-1.4733,1.57031,1.57031,-1.66764,-1.66764,-1.57098,-1.57098,-1.74901,-1.74901,255.0,255.0
1,153,3.06,-3.25693,-1.49588,1.57111,-1.64287,-1.51634,-1.7468,0.84296,0.82718,0.86143,0.84383,0.82985,0.84745,0.52171,0.00831,-45.92348,1.0,0.0,0.0,0.0,-3.32529,-3.32529,-1.47626,-1.47626,1.57323,1.57323,-1.6676,-1.6676,-1.57098,-1.57098,-1.75408,-1.75408,255.0,255.0
1,154,3.08,-3.26093,-1.49953,1.57381,-1.64241,-1.51526,-1.75187,0.843,0.82722,0.86146,0.84387,0.82989,0.84736,0.52171,0.00831,-46.52601,1.0,0.0,0.0,0.0,-3.33037,-3.33037,-1.47919,-1.47919,1.5761,1.5761,-1.66755,-1.66755,-1.57098,-1.57098,-1.75916,-1.75916,255.0,255.0
1,155,3.1,-3.26497,-1.50314,1.5765,-1.64191,-1.51421,-1.75695,0.84295,0.82717,0.8614,0.84383,0.82987,0.84714,0.52171,0.00831,-47.13246,1.0,0.0,0.0,0.0,-3.33548,-3.33548,-1.48209,-1.48209,1.57894,1.57894,-1.66749,-1.66749,-1.57098,-1.57098,-1.76427,-1.76427,255.0,255.0
1,156,3.12,-3.26904,-1.50672,1.57918,-1.64138,-1.51319,-1.76206,0.84295,0.82715,0.86139,0.84384,0.82991,0.84699,0.52171,0.00831,-47.74284,1.0,0.0,0.0,0.0,-3.3406,-3.3406,-1.48496,-1.48496,1.58173,1.58173,-1.66742,-1.66742,-1.57098,-1.57098,-1.76939,-1.76939,255.0,255.0
1,157,3.14,-3.27312,-1.51027,1.58187,-1.64079,-1.51217,-1.76718,0.84285,0.82703,0.86131,0.84375,0.82985,0.84673,0.52171,0.00831,-48.35714,1.0,0.0,0.0,0.0,-3.34574,-3.34574,-1.48781,-1.48781,1.58449,1.58449,-1.66733,-1.66733,-1.57098,-1.57098,-1.77453,-1.77453,255.0,255.0
1,158,3.16,-3.27718,-1.51378,1.58457,-1.6402,-1.51114,-1.77233,0.8429,0.827,0.86137,0.8438,0.82986,0.84681,0.52171,0.00831,-48.97537,1.0,0.0,0.0,0.0,-3.35089,-3.35089,-1.49063,-1.49063,1.58721,1.58721,-1.66723,-1.66723,-1.57098,-1.57098,-1.77968,-1.77968,255.0,255.0
1,159,3.18,-3.28127,-1.5173,1.58724,-1.6395,-1.51011,-1.77749,0.84294,0.82712,0.86147,0.84381,0.82989,0.84676,0.52171,0.00831,-49.59752,1.0,0.0,0.0,0.0,-3.35607,-3.35607,-1.49342,-1.49342,1.58989,1.58989,-1.66713,-1.66713,-1.57098,-1.57098,-1.78485,-1.78485,255.0,255.0
1,160,3.2,-3.28532,-1.52085,1.58987,-1.63866,-1.50892,-1.78264,0.84279,0.82695,0.86125,0.84365,0.82977,0.84598,0.52171,0.00831,-50.22359,1.0,0.0,0.0,0.0,-3.36125,-3.36125,-1.49619,-1.49619,1.59254,1.59254,-1.66701,-1.66701,-1.57098,-1.57098,-1.79004,-1.79004,255.0,255.0
1,161,3.22,-3.28935,-1.52423,1.59249,-1.63799,-1.50775,-1.78783,0.84282,0.82697,0.86128,0.84371,0.82984,0.846,0.52171,0.00831,-50.85359,1.0,0.0,0.0,0.0,-3.36646,-3.36646,-1.49892,-1.49892,1.59514,1.59514,-1.66688,-1.66688,-1.57099,-1.57099,-1.79524,-1.79524,255.0,255.0
1,162,3.24,-3.29343,-1.52761,1.59507,-1.63725,-1.50661,-1.79303,0.84278,0.82693,0.86123,0.84367,0.82983,0.84575,0.52171,0.00831,-51.48751,1.0,0.0,0.0,0.0,-3.37168,-3.37168,-1.50163,-1.50163,1.59771,1.59771,-1.66674,-1.66674,-1.57099,-1.57099,-1.80046,-1.80046,255.0,255.0
1,163,3.26,-3.29755,-1.531,1.59764,-1.63644,-1.50552,-1.79825,0.8427,0.82685,0.86115,0.84359,0.82978,0.8454,0.52171,0.00831,-52.12536,1.0,0.0,0.0,0.0,-3.37691,-3.37691,-1.50431,-1.50431,1.60024,1.60024,-1.66659,-1.66659,-1.57099,-1.57099,-1.80569,-1.80569,255.0,255.0
1,164,3.28,-3.3017,-1.53437,1.6002,-1.63559,-1.50444,-1.80349,0.84271,0.82686,0.86117,0.84361,0.82983,0.84517,0.52171,0.00831,-52.76713,1.0,0.0,0.0,0.0,-3.38217,-3.38217,-1.50697,-1.50697,1.60273,1.60273,-1.66643,-1.66643,-1.57099,-1.57099,-1.81094,-1.81094,255.0,255.0
1,165,3.3,-3.30589,-1.53772,1.60275,-1.63468,-1.50339,-1.80873,0.84272,0.82688,0.86122,0.84362,0.82988,0.84494,0.52171,0.00831,-53.41282,1.0,0.0,0.0,0.0,-3.38743,-3.38743,-1.50959,-1.50959,1.60518,1.60518,-1.66626,-1.66626,-1.57099,-1.57099,-1.81621,-1.81621,255.0,255.0
1,166,3.32,-3.3101,-1.54106,1.60528,-1.63372,-1.50234,-1.814,0.84265,0.82678,0.86112,0.84356,0.82985,0.84454,0.52171,0.00831,-54.06244,1.0,0.0,0.0,0.0,-3.39272,-3.39272,-1.51219,-1.51219,1.60759,1.60759,-1.66608,-1.66608,-1.57099,-1.57099,-1.82149,-1.82149,255.0,255.0
1,167,3.34,-3.31432,-1.54437,1.6078,-1.63271,-1.50131,-1.81927,0.84261,0.82674,0.86109,0.84352,0.82985,0.84419,0.52171,0.00831,-54.71598,1.0,0.0,0.0,0.0,-3.39801,-3.39801,-1.51475,-1.51475,1.60997,1.60997,-1.6659,-1.6659,-1.57099,-1.57099,-1.82679,-1.82679,255.0,255.0
1,168,3.36,-3.31856,-1.54765,1.61031,-1.63166,-1.50028,-1.82457,0.84259,0.82671,0.86109,0.84351,0.82987,0.84385,0.52171,0.00831,-55.37345,1.0,0.0,0.0,0.0,-3.40332,-3.40332,-1.51729,-1.51729,1.61231,1.61231,-1.6657,-1.6657,-1.57099,-1.57099,-1.8321,-1.8321,255.0,255.0
1,169,3.38,-3.32282,-1.55091,1.6128,-1.63057,-1.49925,-1.82987,0.84249,0.82661,0.86098,0.84342,0.82983,0.8434,0.52171,0.00831,-56.03484,1.0,0.0,0.0,0.0,-3.40865,-3.40865,-1.5198,-1.5198,1.61461,1.61461,-1.6655,-1.6655,-1.57099,-1.57099,-1.83742,-1.83742,255.0,255.0
1,170,3.4,-3.3271,-1.55415,1.61528,-1.62944,-1.49823,-1.83519,0.84257,0.82667,0.86109,0.8435,0.82994,0.84316,0.52171,0.00831,-56.70015,1.0,0.0,0.0,0.0,-3.41399,-3.41399,-1.52228,-1.52228,1.61687,1.61687,-1.66528,-1.66528,-1.57099,-1.57099,-1.84276,-1.84276,255.0,255.0
1,171,3.42,-3.3314,-1.55736,1.61774,-1.62827,-1.49722,-1.84052,0.84247,0.82658,0.86098,0.84341,0.82992,0.84268,0.52171,0.00831,-57.36939,1.0,0.0,0.0,0.0,-3.41935,-3.41935,-1.52473,-1.52473,1.6191,1.6191,-1.66506,-1.66506,-1.57099,-1.57099,-1.84812,-1.84812,255.0,255.0
1,172,3.44,-3.33571,-1.56056,1.62017,-1.62705,-1.49622,-1.84587,0.84242,0.82648,0.86093,0.84337,0.8299,0.84219,0.52171,0.00831,-58.04255,1.0,0.0,0.0,0.0,-3.42472,-3.42472,-1.52715,-1.52715,1.62129,1.62129,-1.66483,-1.66483,-1.57099,-1.57099,-1.85349,-1.85349,255.0,255.0
1,173,3.46,-3.34007,-1.56375,1.62257,-1.62579,-1.49525,-1.85122,0.84238,0.82646,0.86089,0.84334,0.82995,0.84173,0.52171,0.00831,-58.71964,1.0,0.0,0.0,0.0,-3.4301,-3.4301,-1.52954,-1.52954,1.62344,1.62344,-1.6646,-1.6646,-1.57099,-1.57099,-1.85887,-1.85887,255.0,255.0
1,174,3.48,-3.34449,-1.56702,1.62485,-1.62449,-1.49435,-1.85659,0.84224,0.82629,0.86072,0.84321,0.82988,0.841,0.52171,0.00831,-59.40065,1.0,0.0,0.0,0.0,-3.4355,-3.4355,-1.5319,-1.5319,1.62555,1.62555,-1.66435,-1.66435,-1.57099,-1.57099,-1.86426,-1.86426,255.0,255.0
1,175,3.5,-3.34902,-1.57035,1.62706,-1.62314,-1.49355,-1.86195,0.84218,0.8262,0.86067,0.84316,0.82989,0.84033,0.52171,0.00831,-60.08558,1.0,0.0,0.0,0.0,-3.44091,-3.44091,-1.53423,-1.53423,1.62762,1.62762,-1.6641,-1.6641,-1.57099,-1.57099,-1.86967,-1.86967,255.0,255.0
1,176,3.52,-3.3536,-1.57364,1.62927,-1.62176,-1.49279,-1.86733,0.84211,0.82613,0.86061,0.8431,0.82992,0.83969,0.52171,0.00831,-60.77444,1.0,0.0,0.0,0.0,-3.44633,-3.44633,-1.53653,-1.53653,1.62966,1.62966,-1.66384,-1.66384,-1.57099,-1.57099,-1.8751,-1.8751,255.0,255.0
1,177,3.54,-3.35816,-1.57686,1.63149,-1.62033,-1.492,-1.87272,0.84202,0.82606,0.86055,0.84303,0.82998,0.83903,0.52171,0.00831,-61.46723,1.0,0.0,0.0,0.0,-3.45177,-3.45177,-1.53879,-1.53879,1.63166,1.63166,-1.66357,-1.66357,-1.57099,-1.57099,-1.88053,-1.88053,255.0,255.0
1,178,3.56,-3.36274,-1.58006,1.63369,-1.61885,-1.49124,-1.87812,0.84198,0.82598,0.86052,0.84301,0.83002,0.83837,0.52171,0.00831,-62.16393,1.0,0.0,0.0,0.0,-3.45722,-3.45722,-1.54103,-1.54103,1.63362,1.63362,-1.6633,-1.6633,-1.57099,-1.57099,-1.88598,-1.88598,255.0,255.0
1,179,3.58,-3.36832,-1.5838,1.63467,-1.61808,-1.49171,-1.88358,0.84186,0.82577,0.86048,0.84288,0.83001,0.83762,0.52171,0.00831,-62.86456,1.0,0.0,0.0,0.0,-3.46268,-3.46268,-1.54324,-1.54324,1.63555,1.63555,-1.66302,-1.66302,-1.57099,-1.57099,-1.89144,-1.89144,255.0,255.0
1,180,3.6,-3.38331,-1.58664,1.63116,-1.62589,-1.50364,-1.88908,0.84384,0.82847,0.86332,0.84376,0.82893,0.85015,0.52171,0.00831,-63.56912,1.0,0.0,0.0,0.0,-3.46815,-3.46815,-1.54541,-1.54541,1.63743,1.63743,-1.66274,-1.66274,-1.57099,-1.57099,-1.89691,-1.89691,255.0,255.0
1,181,3.62,-3.41526,-1.58014,1.62478,-1.64183,-1.52588,-1.89438,0.84413,0.82888,0.86284,0.84474,0.82947,0.85992,0.52171,0.00831,-64.27759,1.0,0.0,0.0,0.0,-3.47364,-3.47364,-1.54756,-1.54756,1.63928,1.63928,-1.66245,-1.66245,-1.57099,-1.57099,-1.90239,-1.90239,255.0,255.0
1,182,3.64,-3.43676,-1.57655,1.62077,-1.65191,-1.53882,-1.89971,0.84428,0.829,0.86262,0.84449,0.82942,0.86134,0.52171,0.00831,-64.99,1.0,0.0,0.0,0.0,-3.47913,-3.47913,-1.54967,-1.54967,1.6411,1.6411,-1.66215,-1.66215,-1.57099,-1.57099,-1.90789,-1.90789,255.0,255.0
1,183,3.66,-3.45066,-1.57538,1.61895,-1.65798,-1.54548,-1.90507,0.84455,0.82962,0.8617,0.84412,0.82876,0.86145,0.52171,0.00831,-65.70632,1.0,0.0,0.0,0.0,-3.48464,-3.48464,-1.55175,-1.55175,1.64287,1.64287,-1.66185,-1.66185,-1.57099,-1.57099,-1.9134,-1.9134,255.0,255.0
1,184,3.68,-3.46089,-1.57533,1.61911,-1.66173,-1.54979,-1.91053,0.84456,0.82948,0.8609,0.84402,0.82879,0.86157,0.52171,0.00831,-66.42657,1.0,0.0,0.0,0.0,-3.49016,-3.49016,-1.5538,-1.5538,1.64461,1.64461,-1.66154,-1.66154,-1.571,-1.571,-1.91892,-1.91892,255.0,255.0
1,185,3.7,-3.46854,-1.57581,1.61981,-1.66428,-1.55161,-1.91602,0.84453,0.8294,0.86024,0.84405,0.82893,0.86173,0.52171,0.00831,-67.15075,1.0,0.0,0.0,0.0,-3.49569,-3.49569,-1.55581,-1.55581,1.64631,1.64631,-1.66123,-1.66123,-1.571,-1.571,-1.92444,-1.92444,255.0,255.0
1,186,3.72,-3.47446,-1.57758,1.62143,-1.66542,-1.55273,-1.92073,0.84451,0.82936,0.86017,0.84401,0.82889,0.86172,0.52171,0.00831,-67.87885,1.0,0.0,0.0,0.0,-3.49901,-3.49901,-1.55937,-1.55937,1.64927,1.64927,-1.66059,-1.66059,-1.57094,-1.57094,-1.92793,-1.92793,255.0,255.0
1,187,3.74,-3.47954,-1.57996,1.62361,-1.6662,-1.55372,-1.92489,0.84457,0.82947,0.85978,0.84403,0.82888,0.86178,0.52171,0.00831,-68.61087,1.0,0.0,0.0,0.0,-3.50229,-3.50229,-1.56298,-1.56298,1.6523,1.6523,-1.65999,-1.65999,-1.57094,-1.57094,-1.93123,-1.93123,255.0,255.0
1,188,3.76,-3.48434,-1.58251,1.62612,-1.66687,-1.55475,-1.92873,0.84449,0.82937,0.85922,0.84395,0.82879,0.86171,0.52171,0.00831,-69.34681,1.0,0.0,0.0,0.0,-3.50558,-3.50558,-1.56659,-1.56659,1.65531,1.65531,-1.6594,-1.6594,-1.57094,-1.57094,-1.93452,-1.93452,255.0,255.0
1,189,3.78,-3.48884,-1.58528,1.62858,-1.66733,-1.55551,-1.93237,0.84447,0.82943,0.85874,0.84388,0.82868,0.86164,0.52171,0.00831,-70.08668,1.0,0.0,0.0,0.0,-3.50889,-3.50889,-1.57019,-1.57019,1.6583,1.6583,-1.65879,-1.65879,-1.57094,-1.57094,-1.93783,-1.93783,255.0,255.0
1,190,3.8,-3.49316,-1.58811,1.63123,-1.66769,-1.55622,-1.9359,0.84444,0.82942,0.85832,0.84384,0.82862,0.86163,0.52171,0.00831,-70.83048,1.0,0.0,0.0,0.0,-3.51222,-3.51222,-1.57379,-1.57379,1.66127,1.66127,-1.65817,-1.65817,-1.57094,-1.57094,-1.94116,-1.94116,255.0,255.0
1,191,3.82,-3.49732,-1.59111,1.63392,-1.66789,-1.55685,-1.93937,0.84447,0.82941,0.85811,0.84389,0.82872,0.86169,0.52171,0.00831,-71.5782,1.0,0.0,0.0,0.0,-3.51557,-3.51557,-1.57737,-1.57737,1.66422,1.66422,-1.65753,-1.65753,-1.57094,-1.57094,-1.9445,-1.9445,255.0,255.0
1,192,3.84,-3.50145,-1.59411,1.63679,-1.6679,-1.55748,-1.9428,0.84447,0.82948,0.85784,0.84385,0.82858,0.86165,0.52171,0.00831,-72.32984,1.0,0.0,0.0,0.0,-3.51893,-3.51893,-1.58096,-1.58096,1.66715,1.66715,-1.65688,-1.65688,-1.57094,-1.57094,-1.94786,-1.94786,255.0,255.0
1,193,3.86,-3.50543,-1.59725,1.63958,-1.6678,-1.55797,-1.94623,0.84437,0.8293,0.85761,0.84378,0.82862,0.86161,0.52171,0.00831,-73.0854,1.0,0.0,0.0,0.0,-3.52231,-3.52231,-1.58453,-1.58453,1.67006,1.67006,-1.65622,-1.65622,-1.57094,-1.57094,-1.95124,-1.95124,255.0,255.0
1,194,3.88,-3.50938,-1.60043,1.64235,-1.66761,-1.55841,-1.94965,0.84438,0.82945,0.85739,0.84374,0.8285,0.86156,0.52171,0.00831,-73.84489,1.0,0.0,0.0,0.0,-3.52571,-3.52571,-1.5881,-1.5881,1.67295,1.67295,-1.65554,-1.65554,-1.57094,-1.57094,-1.95463,-1.95463,255.0,255.0
1,195,3.9,-3.51328,-1.60361,1.64522,-1.66736,-1.55885,-1.95308,0.84438,0.82943,0.85725,0.84376,0.82849,0.86159,0.52171,0.00831,-74.60831,1.0,0.0,0.0,0.0,-3.52912,-3.52912,-1.59166,-1.59166,1.67582,1.67582,-1.65485,-1.65485,-1.57094,-1.57094,-1.95805,-1.95805,255.0,255.0
1,196,3.92,-3.51713,-1.60683,1.64802,-1.66704,-1.55918,-1.95651,0.84434,0.82936,0.85707,0.84371,0.82849,0.86155,0.52171,0.00831,-75.37565,1.0,0.0,0.0,0.0,-3.53255,-3.53255,-1.59522,-1.59522,1.67867,1.67867,-1.65415,-1.65415,-1.57095,-1.57095,-1.96148,-1.96148,255.0,255.0
1,197,3.94,-3.52098,-1.61009,1.65089,-1.66662,-1.55955,-1.95996,0.84439,0.82934,0.85715,0.84379,0.82864,0.86165,0.52171,0.00831,-76.14691,1.0,0.0,0.0,0.0,-3.536,-3.536,-1.59877,-1.59877,1.68149,1.68149,-1.65343,-1.65343,-1.57095,-1.57095,-1.96493,-1.96493,255.0,255.0
1,198,3.96,-3.52479,-1.61337,1.65371,-1.66613,-1.55983,-1.96342,0.84434,0.82942,0.85687,0.84368,0.82839,0.86152,0.52171,0.00831,-76.9221,1.0,0.0,0.0,0.0,-3.53947,-3.53947,-1.60231,-1.60231,1.6843,1.6843,-1.6527,-1.6527,-1.57095,-1.57095,-1.9684,-1.9684,255.0,255.0
1,199,3.98,-3.52854,-1.61666,1.65652,-1.66563,-1.56008,-1.96689,0.84433,0.82932,0.85677,0.84369,0.82848,0.86152,0.52171,0.00831,-77.70121,1.0,0.0,0.0,0.0,-3.54296,-3.54296,-1.60584,-1.60584,1.68709,1.68709,-1.65195,-1.65195,-1.57095,-1.57095,-1.97188,-1.97188,255.0,255.0
1,200,4.0,-3.53234,-1.61993,1.65945,-1.66501,-1.56035,-1.97038,0.84435,0.82942,0.85678,0.8437,0.8284,0.86152,0.52171,0.00831,-78.48424,1.0,0.0,0.0,0.0,-3.54647,-3.54647,-1.60937,-1.60937,1.68986,1.68986,-1.65119,-1.65119,-1.57095,-1.57095,-1.97539,-1.97539,255.0,255.0
1,201,4.02,-3.53606,-1.62327,1.66229,-1.66435,-1.56054,-1.97389,0.84433,0.82928,0.85681,0.84372,0.82854,0.86155,0.52171,0.00831,-79.2712,1.0,0.0,0.0,0.0,-3.54999,-3.54999,-1.61289,-1.61289,1.6926,1.6926,-1.65042,-1.65042,-1.57095,-1.57095,-1.97891,-1.97891,255.0,255.0
1,202,4.04,-3.53979,-1.62662,1.66506,-1.66367,-1.56071,-1.97741,0.84441,0.82951,0.85679,0.84373,0.82844,0.86159,0.52171,0.00831,-80.06208,1.0,0.0,0.0,0.0,-3.55353,-3.55353,-1.6164,-1.6164,1.69533,1.69533,-1.64964,-1.64964,-1.57095,-1.57095,-1.98245,-1.98245,255.0,255.0
1,203,4.06,-3.5435,-1.62996,1.66785,-1.66299,-1.56085,-1.98095,0.84442,0.82944,0.85683,0.84378,0.82859,0.86167,0.52171,0.00831,-80.85689,1.0,0.0,0.0,0.0,-3.55709,-3.55709,-1.61991,-1.61991,1.69804,1.69804,-1.64884,-1.64884,-1.57095,-1.57095,-1.98601,-1.98601,255.0,255.0
1,204,4.08,-3.54726,-1.63326,1.67075,-1.66221,-1.56104,-1.98451,0.84445,0.82951,0.85685,0.84379,0.82848,0.86166,0.52171,0.00831,-81.65562,1.0,0.0,0.0,0.0,-3.56067,-3.56067,-1.62341,-1.62341,1.70072,1.70072,-1.64803,-1.64803,-1.57095,-1.57095,-1.98959,-1.98959,255.0,255.0
1,205,4.1,-3.55096,-1.63662,1.67354,-1.66141,-1.56115,-1.98808,0.84439,0.82934,0.85686,0.84377,0.8286,0.86165,0.52171,0.00831,-82.45827,1.0,0.0,0.0,0.0,-3.56427,-3.56427,-1.6269,-1.6269,1.70339,1.70339,-1.64721,-1.64721,-1.57095,-1.57095,-1.99318,-1.99318,255.0,255.0
1,206,4.12,-3.55472,-1.64,1.67626,-1.66059,-1.56131,-1.99167,0.84438,0.82943,0.85685,0.84374,0.82847,0.86158,0.52171,0.00831,-83.26485,1.0,0.0,0.0,0.0,-3.56789,-3.56789,-1.63038,-1.63038,1.70603,1.70603,-1.64637,-1.64637,-1.57095,-1.57095,-1.9968,-1.9968,255.0,255.0
1,207,4.14,-3.55866,-1.6433,1.67915,-1.65967,-1.56164,-1.99527,0.84443,0.82945,0.85709,0.84378,0.82857,0.86167,0.52171,0.00831,-84.07535,1.0,0.0,0.0,0.0,-3.57152,-3.57152,-1.63386,-1.63386,1.70866,1.70866,-1.64552,-1.64552,-1.57096,-1.57096,-2.00043,-2.00043,255.0,255.0
1,208,4.16,-3.56256,-1.64663,1.68192,-1.65876,-1.56185,-1.99888,0.84443,0.82943,0.8574,0.84376,0.82852,0.86186,0.52171,0.00831,-84.88978,1.0,0.0,0.0,0.0,-3.57518,-3.57518,-1.63733,-1.63733,1.71127,1.71127,-1.64466,-1.64466,-1.57096,-1.57096,-2.00409,-2.00409,255.0,255.0
1,209,4.18,-3.56635,-1.64981,1.68477,-1.65797,-1.56186,-2.00252,0.84451,0.82949,0.85835,0.84389,0.82866,0.86259,0.52171,0.00831,-85.70813,1.0,0.0,0.0,0.0,-3.57885,-3.57885,-1.64079,-1.64079,1.71385,1.71385,-1.64379,-1.64379,-1.57096,-1.57096,-2.00776,-2.00776,255.0,255.0
1,210,4.2,-3.5701,-1.65298,1.68754,-1.65717,-1.5618,-2.00617,0.84446,0.82945,0.8584,0.84383,0.8286,0.86259,0.52171,0.00831,-86.5304,1.0,0.0,0.0,0.0,-3.58254,-3.58254,-1.64424,-1.64424,1.71642,1.71642,-1.64291,-1.64291,-1.57096,-1.57096,-2.01145,-2.01145,255.0,255.0
1,211,4.22,-3.57369,-1.65643,1.6906,-1.65664,-1.56184,-2.00952,0.84448,0.82947,0.85833,0.84385,0.82861,0.86263,0.52171,0.00831,-87.3566,1.0,0.0,0.0,0.0,-3.58543,-3.58543,-1.6484,-1.6484,1.72016,1.72016,-1.6424,-1.6424,-1.57094,-1.57094,-2.01439,-2.01439,255.0,255.0
1,212,4.24,-3.57717,-1.6601,1.69389,-1.65631,-1.56198,-2.01267,0.84453,0.82954,0.85835,0.8439,0.82866,0.86276,0.52171,0.00831,-88.18672,1.0,0.0,0.0,0.0,-3.58831,-3.58831,-1.6526,-1.6526,1.72398,1.72398,-1.642,-1.642,-1.57094,-1.57094,-2.01728,-2.01728,255.0,255.0
1,213,4.26,-3.58057,-1.66392,1.69735,-1.65607,-1.56216,-2.0157,0.84453,0.82956,0.85826,0.8439,0.82868,0.86276,0.52171,0.00831,-89.02077,1.0,0.0,0.0,0.0,-3.59121,-3.59121,-1.65681,-1.65681,1.7278,1.7278,-1.64161,-1.64161,-1.57094,-1.57094,-2.02018,-2.02018,255.0,255.0
1,214,4.28,-3.58389,-1.66784,1.70088,-1.65588,-1.56233,-2.01868,0.84448,0.82949,0.85806,0.84384,0.82858,0.86267,0.52171,0.00831,-89.85874,1.0,0.0,0.0,0.0,-3.59413,-3.59413,-1.66102,-1.66102,1.7316,1.7316,-1.6412,-1.6412,-1.57094,-1.57094,-2.02309,-2.02309,255.0,255.0
1,215,4.3,-3.58718,-1.67184,1.70449,-1.65564,-1.56253,-2.02162,0.84458,0.82952,0.85849,0.84397,0.82878,0.86305,0.52171,0.00831,-90.70063,1.0,0.0,0.0,0.0,-3.59707,-3.59707,-1.66523,-1.66523,1.73538,1.73538,-1.64077,-1.64077,-1.57095,-1.57095,-2.02603,-2.02603,255.0,255.0
1,216,4.32,-3.59044,-1.6759,1.70803,-1.65543,-1.56268,-2.02456,0.84451,0.82956,0.8578,0.84386,0.82863,0.86258,0.52171,0.00831,-91.54645,1.0,0.0,0.0,0.0,-3.60003,-3.60003,-1.66945,-1.66945,1.73914,1.73914,-1.64032,-1.64032,-1.57095,-1.57095,-2.02899,-2.02899,255.0,255.0
1,217,4.34,-3.59367,-1.67996,1.71168,-1.65516,-1.56282,-2.0275,0.84447,0.82947,0.85795,0.84383,0.82864,0.86277,0.52171,0.00831,-92.39619,1.0,0.0,0.0,0.0,-3.60301,-3.60301,-1.67366,-1.67366,1.74288,1.74288,-1.63985,-1.63985,-1.57095,-1.57095,-2.03197,-2.03197,255.0,255.0
1,218,4.36,-3.59687,-1.68405,1.7153,-1.65485,-1.56293,-2.03045,0.84447,0.82959,0.85754,0.84381,0.82853,0.86249,0.52171,0.00831,-93.24986,1.0,0.0,0.0,0.0,-3.60601,-3.60601,-1.67787,-1.67787,1.7466,1.7466,-1.63937,-1.63937,-1.57095,-1.57095,-2.03497,-2.03497,255.0,255.0
1,219,4.38,-3.60004,-1.68815,1.71893,-1.65454,-1.56299,-2.03342,0.84448,0.82956,0.85776,0.84384,0.82858,0.86273,0.52171,0.00831,-94.10745,1.0,0.0,0.0,0.0,-3.60904,-3.60904,-1.68208,-1.68208,1.75031,1.75031,-1.63886,-1.63886,-1.57095,-1.57095,-2.03799,-2.03799,255.0,255.0
1,220,4.4,-3.60321,-1.69228,1.72252,-1.65418,-1.56306,-2.03642,0.84445,0.82945,0.8578,0.84381,0.82861,0.86277,0.52171,0.00831,-94.96896,1.0,0.0,0.0,0.0,-3.61208,-3.61208,-1.68629,-1.68629,1.75399,1.75399,-1.63834,-1.63834,-1.57095,-1.57095,-2.04104,-2.04104,255.0,255.0
1,221,4.42,-3.6064,-1.69642,1.72615,-1.65374,-1.56313,-2.03943,0.84445,0.82955,0.8574,0.84379,0.82847,0.86247,0.52171,0.00831,-95.8344,1.0,0.0,0.0,0.0,-3.61515,-3.61515,-1.6905,-1.6905,1.75766,1.75766,-1.63779,-1.63779,-1.57095,-1.57095,-2.0441,-2.0441,255.0,255.0
1,222,4.44,-3.60955,-1.70056,1.72975,-1.65332,-1.56314,-2.04246,0.84449,0.82956,0.85764,0.84384,0.82856,0.86272,0.52171,0.00831,-96.70376,1.0,0.0,0.0,0.0,-3.61824,-3.61824,-1.69471,-1.69471,1.7613,1.7613,-1.63723,-1.63723,-1.57095,-1.57095,-2.04719,-2.04719,255.0,255.0
1,223,4.46,-3.61272,-1.70473,1.73334,-1.65282,-1.56317,-2.04552,0.84447,0.82951,0.85779,0.84382,0.82864,0.86279,0.52171,0.00831,-97.57705,1.0,0.0,0.0,0.0,-3.62135,-3.62135,-1.69893,-1.69893,1.76493,1.76493,-1.63665,-1.63665,-1.57096,-1.57096,-2.0503,-2.0503,255.0,255.0
1,224,4.48,-3.61589,-1.70891,1.73686,-1.65235,-1.56317,-2.0486,0.84441,0.8295,0.85729,0.84374,0.82853,0.86251,0.52171,0.00831,-98.45426,1.0,0.0,0.0,0.0,-3.62448,-3.62448,-1.70314,-1.70314,1.76854,1.76854,-1.63605,-1.63605,-1.57096,-1.57096,-2.05343,-2.05343,255.0,255.0
1,225,4.5,-3.61909,-1.71307,1.74045,-1.6518,-1.56319,-2.05171,0.8444,0.82942,0.85756,0.84375,0.82855,0.86269,0.52171,0.00831,-99.3354,1.0,0.0,0.0,0.0,-3.62763,-3.62763,-1.70735,-1.70735,1.77212,1.77212,-1.63543,-1.63543,-1.57096,-1.57096,-2.05658,-2.05658,255.0,255.0
1,226,4.52,-3.62231,-1.71728,1.74399,-1.6512,-1.56323,-2.05484,0.84446,0.82953,0.85742,0.84378,0.8285,0.86255,0.52171,0.00831,-100.22045,1.0,0.0,0.0,0.0,-3.63081,-3.63081,-1.71156,-1.71156,1.77569,1.77569,-1.63479,-1.63479,-1.57096,-1.57096,-2.05976,-2.05976,255.0,255.0
1,227,4.54,-3.62552,-1.72144,1.74753,-1.65063,-1.56322,-2.05799,0.84443,0.82943,0.85769,0.8438,0.82858,0.86283,0.52171,0.00831,-101.10944,1.0,0.0,0.0,0.0,-3.63401,-3.63401,-1.71577,-1.71577,1.77925,1.77925,-1.63413,-1.63413,-1.57096,-1.57096,-2.06295,-2.06295,255.0,255.0
1,228,4.56,-3.62875,-1.72563,1.75101,-1.65003,-1.5632,-2.06117,0.84449,0.82952,0.85765,0.84386,0.82854,0.86281,0.52171,0.00831,-102.00234,1.0,0.0,0.0,0.0,-3.63723,-3.63723,-1.71998,-1.71998,1.78278,1.78278,-1.63345,-1.63345,-1.57096,-1.57096,-2.06617,-2.06617,255.0,255.0
1,229,4.58,-3.63199,-1.72982,1.75449,-1.6494,-1.56319,-2.06437,0.84452,0.82964,0.85724,0.84383,0.82853,0.86253,0.52171,0.00831,-102.89917,1.0,0.0,0.0,0.0,-3.64048,-3.64048,-1.72419,-1.72419,1.78629,1.78629,-1.63276,-1.63276,-1.57096,-1.57096,-2.06942,-2.06942,255.0,255.0
1,230,4.6,-3.63523,-1.73398,1.758,-1.64875,-1.56315,-2.0676,0.84446,0.82954,0.85749,0.8438,0.8285,0.86273,0.52171,0.00831,-103.79993,1.0,0.0,0.0,0.0,-3.64375,-3.64375,-1.72841,-1.72841,1.78978,1.78978,-1.63204,-1.63204,-1.57096,-1.57096,-2.07269,-2.07269,255.0,255.0
1,231,4.62,-3.6385,-1.73818,1.7615,-1.64804,-1.56315,-2.07085,0.84455,0.82949,0.85806,0.84393,0.82872,0.86311,0.52171,0.00831,-104.7046,1.0,0.0,0.0,0.0,-3.64704,-3.64704,-1.73262,-1.73262,1.79326,1.79326,-1.63131,-1.63131,-1.57097,-1.57097,-2.07598,-2.07598,255.0,255.0
1,232,4.64,-3.64181,-1.7424,1.76492,-1.64731,-1.56316,-2.07414,0.84457,0.82958,0.85782,0.84392,0.82871,0.86292,0.52171,0.00831,-105.61321,1.0,0.0,0.0,0.0,-3.65036,-3.65036,-1.73683,-1.73683,1.79671,1.79671,-1.63055,-1.63055,-1.57097,-1.57097,-2.07929,-2.07929,255.0,255.0
1,233,4.66,-3.64513,-1.74658,1.7684,-1.64657,-1.56317,-2.07744,0.84451,0.82947,0.85808,0.84391,0.82872,0.86312,0.52171,0.00831,-106.52573,1.0,0.0,0.0,0.0,-3.6537,-3.6537,-1.74104,-1.74104,1.80015,1.80015,-1.62978,-1.62978,-1.57097,-1.57097,-2.08263,-2.08263,255.0,255.0
1,234,4.68,-3.64845,-1.75081,1.77177,-1.64581,-1.56314,-2.08078,0.8445,0.82953,0.85773,0.84385,0.82865,0.86285,0.52171,0.00831,-107.44218,1.0,0.0,0.0,0.0,-3.65706,-3.65706,-1.74525,-1.74525,1.80357,1.80357,-1.62899,-1.62899,-1.57097,-1.57097,-2.08599,-2.08599,255.0,255.0
1,235,4.7,-3.65182,-1.75502,1.77516,-1.64504,-1.56315,-2.08414,0.84444,0.8295,0.85754,0.8438,0.8285,0.86274,0.52171,0.00831,-108.36256,1.0,0.0,0.0,0.0,-3.66045,-3.66045,-1.74947,-1.74947,1.80697,1.80697,-1.62818,-1.62818,-1.57097,-1.57097,-2.08938,-2.08938,255.0,255.0
1,236,4.72,-3.65527,-1.75877,1.77817,-1.64424,-1.56294,-2.08782,0.84452,0.82955,0.8576,0.84387,0.82856,0.86268,0.52171,0.00831,-109.28686,1.0,0.0,0.0,0.0,-3.66469,-3.66469,-1.75196,-1.75196,1.80927,1.80927,-1.628,-1.628,-1.57099,-1.57099,-2.09356,-2.09356,255.0,255.0
1,237,4.74,-3.65881,-1.76217,1.7809,-1.64342,-1.56259,-2.09174,0.84449,0.82953,0.85792,0.84386,0.82858,0.86274,0.52171,0.00831,-110.21508,1.0,0.0,0.0,0.0,-3.66897,-3.66897,-1.75437,-1.75437,1.8115,1.8115,-1.62782,-1.62782,-1.57099,-1.57099,-2.09783,-2.09783,255.0,255.0
1,238,4.76,-3.66242,-1.76538,1.78334,-1.64265,-1.56217,-2.09581,0.8445,0.82953,0.85769,0.84386,0.82858,0.86246,0.52171,0.00831,-111.14722,1.0,0.0,0.0,0.0,-3.67326,-3.67326,-1.75678,-1.75678,1.81372,1.81372,-1.62764,-1.62764,-1.57099,-1.57099,-2.10211,-2.10211,255.0,255.0
1,239,4.78,-3.66613,-1.76839,1.78572,-1.6419,-1.56174,-2.09998,0.84452,0.82951,0.85795,0.84388,0.82864,0.86248,0.52171,0.00831,-112.08329,1.0,0.0,0.0,0.0,-3.67756,-3.67756,-1.75917,-1.75917,1.81592,1.81592,-1.62745,-1.62745,-1.57099,-1.57099,-2.10642,-2.10642,255.0,255.0
1,240,4.8,-3.66994,-1.7713,1.78803,-1.6412,-1.56136,-2.1042,0.84457,0.8295,0.85836,0.84396,0.82873,0.86266,0.52171,0.00831,-113.02329,1.0,0.0,0.0,0.0,-3.68188,-3.68188,-1.76154,-1.76154,1.8181,1.8181,-1.62725,-1.62725,-1.57099,-1.57099,-2.11073,-2.11073,255.0,255.0
1,241,4.82,-3.67381,-1.77413,1.79021,-1.64056,-1.56098,-2.10847,0.84445,0.82948,0.8581,0.84383,0.82861,0.86242,0.52171,0.00831,-113.96721,1.0,0.0,0.0,0.0,-3.68621,-3.68621,-1.76391,-1.76391,1.82026,1.82026,-1.62705,-1.62705,-1.57099,-1.57099,-2.11507,-2.11507,255.0,255.0
1,242,4.84,-3.67772,-1.77689,1.79231,-1.64,-1.56058,-2.11276,0.84444,0.82947,0.85792,0.84382,0.8286,0.86223,0.52171,0.00831,-114.91505,1.0,0.0,0.0,0.0,-3.69056,-3.69056,-1.76626,-1.76626,1.82241,1.82241,-1.62685,-1.62685,-1.57099,-1.57099,-2.11941,-2.11941,255.0,255.0
1,243,4.86,-3.68172,-1.77956,1.79444,-1.63949,-1.56025,-2.11709,0.84454,0.82955,0.8583,0.84393,0.8287,0.86247,0.52171,0.00831,-115.86681,1.0,0.0,0.0,0.0,-3.69492,-3.69492,-1.7686,-1.7686,1.82455,1.82455,-1.62665,-1.62665,-1.571,-1.571,-2.12377,-2.12377,255.0,255.0
1,244,4.88,-3.6858,-1.78217,1.79658,-1.63901,-1.55998,-2.12143,0.84452,0.82954,0.8585,0.84391,0.82866,0.86258,0.52171,0.00831,-116.8225,1.0,0.0,0.0,0.0,-3.6993,-3.6993,-1.77092,-1.77092,1.82667,1.82667,-1.62644,-1.62644,-1.571,-1.571,-2.12815,-2.12815,255.0,255.0
1,245,4.9,-3.68988,-1.78482,1.79856,-1.63854,-1.55968,-2.12578,0.84456,0.82954,0.85838,0.84396,0.82869,0.86243,0.52171,0.00831,-117.78212,1.0,0.0,0.0,0.0,-3.70369,-3.70369,-1.77324,-1.77324,1.82877,1.82877,-1.62623,-1.62623,-1.571,-1.571,-2.13254,-2.13254,255.0,255.0
1,246,4.92,-3.69402,-1.78739,1.80051,-1.63812,-1.55939,-2.13015,0.84451,0.82953,0.85819,0.84391,0.8287,0.86229,0.52171,0.00831,-118.74566,1.0,0.0,0.0,0.0,-3.7081,-3.7081,-1.77554,-1.77554,1.83086,1.83086,-1.62602,-1.62602,-1.571,-1.571,-2.13694,-2.13694,255.0,255.0
1,247,4.94,-3.69822,-1.78993,1.80251,-1.63774,-1.55918,-2.13454,0.84454,0.82953,0.85836,0.84394,0.82873,0.86235,0.52171,0.00831,-119.71312,1.0,0.0,0.0,0.0,-3.71252,-3.71252,-1.77782,-1.77782,1.83293,1.83293,-1.6258,-1.6258,-1.571,-1.571,-2.14136,-2.14136,255.0,255.0
1,248,4.96,-3.70249,-1.79243,1.8045,-1.63736,-1.55905,-2.13895,0.84453,0.82945,0.85859,0.84394,0.82873,0.86247,0.52171,0.00831,-120.68451,1.0,0.0,0.0,0.0,-3.71695,-3.71695,-1.7801,-1.7801,1.83498,1.83498,-1.62559,-1.62559,-1.571,-1.571,-2.1458,-2.1458,255.0,255.0
1,249,4.98,-3.70679,-1.79491,1.80641,-1.63701,-1.5589,-2.14338,0.84452,0.82952,0.85833,0.84392,0.82871,0.86229,0.52171,0.00831,-121.65982,1.0,0.0,0.0,0.0,-3.7214,-3.7214,-1.78236,-1.78236,1.83702,1.83702,-1.62537,-1.62537,-1.571,-1.571,-2.15024,-2.15024,255.0,255.0
1,250,5.0,-3.71111,-1.79732,1.80838,-1.63669,-1.55877,-2.14782,0.84447,0.82946,0.85834,0.84386,0.82861,0.86228,0.52171,0.00831,-122.63905,1.0,0.0,0.0,0.0,-3.72586,-3.72586,-1.78461,-1.78461,1.83904,1.83904,-1.62514,-1.62514,-1.571,-1.571,-2.1547,-2.1547,255.0,255.0
1,251,5.02,-3.71543,-1.79978,1.81021,-1.63637,-1.55862,-2.15227,0.84454,0.82953,0.85832,0.84394,0.82871,0.86228,0.52171,0.00831,-123.62221,1.0,0.0,0.0,0.0,-3.73034,-3.73034,-1.78684,-1.78684,1.84105,1.84105,-1.62492,-1.62492,-1.571,-1.571,-2.15918,-2.15918,255.0,255.0
1,252,5.04,-3.71977,-1.8022,1.81207,-1.63603,-1.55847,-2.15673,0.84453,0.82954,0.85822,0.84391,0.8287,0.86219,0.52171,0.00831,-124.60929,1.0,0.0,0.0,0.0,-3.73483,-3.73483,-1.78906,-1.78906,1.84304,1.84304,-1.62469,-1.62469,-1.571,-1.571,-2.16367,-2.16367,255.0,255.0
1,253,5.06,-3.72412,-1.80457,1.81399,-1.63575,-1.55834,-2.16122,0.84453,0.8295,0.85843,0.84393,0.82867,0.86234,0.52171,0.00831,-125.6003,1.0,0.0,0.0,0.0,-3.73933,-3.73933,-1.79126,-1.79126,1.84502,1.84502,-1.62446,-1.62446,-1.571,-1.571,-2.16817,-2.16817,255.0,255.0
1,254,5.08,-3.72853,-1.80692,1.81586,-1.63546,-1.55825,-2.16572,0.84453,0.82948,0.8586,0.84394,0.82875,0.86245,0.52171,0.00831,-126.59523,1.0,0.0,0.0,0.0,-3.74385,-3.74385,-1.79346,-1.79346,1.84698,1.84698,-1.62423,-1.62423,-1.57101,-1.57101,-2.17269,-2.17269,255.0,255.0
1,255,5.1,-3.73295,-1.80928,1.81765,-1.63518,-1.55812,-2.17022,0.84458,0.82955,0.85869,0.84399,0.82875,0.86248,0.52171,0.00831,-127.59408,1.0,0.0,0.0,0.0,-3.74838,-3.74838,-1.79563,-1.79563,1.84892,1.84892,-1.624,-1.624,-1.57101,-1.57101,-2.17722,-2.17722,255.0,255.0
1,256,5.12,-3.73735,-1.81162,1.8194,-1.63492,-1.55795,-2.17474,0.84449,0.82951,0.85794,0.84388,0.82869,0.86219,0.52171,0.00831,-128.59686,1.0,0.0,0.0,0.0,-3.75293,-3.75293,-1.7978,-1.7978,1.85085,1.85085,-1.62376,-1.62376,-1.57101,-1.57101,-2.18176,-2.18176,255.0,255.0
1,257,5.14,-3.74178,-1.81387,1.82127,-1.6347,-1.55778,-2.17927,0.84447,0.82945,0.85801,0.84388,0.82866,0.86241,0.52171,0.00831,-129.60356,1.0,0.0,0.0,0.0,-3.75748,-3.75748,-1.79995,-1.79995,1.85276,1.85276,-1.62353,-1.62353,-1.57101,-1.57101,-2.18632,-2.18632,255.0,255.0
1,258,5.16,-3.7462,-1.8162,1.82302,-1.63439,-1.55755,-2.18382,0.84441,0.82939,0.85766,0.84382,0.82862,0.86227,0.52171,0.00831,-130.61419,1.0,0.0,0.0,0.0,-3.76205,-3.76205,-1.80208,-1.80208,1.85466,1.85466,-1.62329,-1.62329,-1.57101,-1.57101,-2.19089,-2.19089,255.0,255.0
1,259,5.18,-3.75064,-1.81847,1.82479,-1.63412,-1.5573,-2.18838,0.84441,0.82943,0.85761,0.84378,0.8285,0.86238,0.52171,0.00831,-131.62874,1.0,0.0,0.0,0.0,-3.76664,-3.76664,-1.8042,-1.8042,1.85654,1.85654,-1.62305,-1.62305,-1.57101,-1.57101,-2.19547,-2.19547,255.0,255.0
1,260,5.2,-3.75508,-1.82074,1.82653,-1.63384,-1.55703,-2.19296,0.84458,0.82957,0.85808,0.84398,0.82871,0.86278,0.52171,0.00831,-132.64721,1.0,0.0,0.0,0.0,-3.77124,-3.77124,-1.8063,-1.8063,1.8584,1.8584,-1.62282,-1.62282,-1.57101,-1.57101,-2.20007,-2.20007,255.0,255.0
1,261,5.22,-3.75929,-1.82229,1.82755,-1.63317,-1.55685,-2.19745,0.84447,0.82946,0.858,0.84391,0.82872,0.86227,0.52171,0.00831,-133.66961,1.0,0.0,0.0,0.0,-3.77553,-3.77553,-1.80575,-1.80575,1.85795,1.85795,-1.62301,-1.62301,-1.57097,-1.57097,-2.20438,-2.20438,255.0,255.0
1,262,5.24,-3.76335,-1.82322,1.8281,-1.63227,-1.55677,-2.20184,0.84438,0.82931,0.85797,0.84381,0.82863,0.862,0.52171,0.00831,-134.69593,1.0,0.0,0.0,0.0,-3.77974,-3.77974,-1.80503,-1.80503,1.85733,1.85733,-1.62312,-1.62312,-1.57096,-1.57096,-2.2086,-2.2086,255.0,255.0
1,263,5.26,-3.76717,-1.82374,1.82827,-1.63126,-1.55649,-2.20617,0.84436,0.82933,0.85822,0.84381,0.82865,0.86179,0.52171,0.00831,-135.72618,1.0,0.0,0.0,0.0,-3.78392,-3.78392,-1.80429,-1.80429,1.85667,1.85667,-1.62321,-1.62321,-1.57096,-1.57096,-2.21279,-2.21279,255.0,255.0
1,264,5.28,-3.77095,-1.82394,1.82821,-1.63029,-1.5562,-2.21044,0.84453,0.82937,0.85893,0.84401,0.82883,0.86196,0.52171,0.00831,-136.76035,1.0,0.0,0.0,0.0,-3.7881,-3.7881,-1.80352,-1.80352,1.85599,1.85599,-1.6233,-1.6233,-1.57096,-1.57096,-2.21697,-2.21697,255.0,255.0
1,265,5.3,-3.77471,-1.82393,1.82802,-1.6294,-1.55594,-2.21467,0.84446,0.82931,0.8589,0.84395,0.8288,0.86178,0.52171,0.00831,-137.79844,1.0,0.0,0.0,0.0,-3.79226,-3.79226,-1.80273,-1.80273,1.8553,1.8553,-1.6234,-1.6234,-1.57096,-1.57096,-2.22113,-2.22113,255.0,255.0
1,266,5.32,-3.77848,-1.82375,1.82774,-1.62866,-1.55573,-2.21887,0.84447,0.82939,0.85877,0.84395,0.82881,0.86183,0.52171,0.00831,-138.84046,1.0,0.0,0.0,0.0,-3.79641,-3.79641,-1.80191,-1.80191,1.85458,1.85458,-1.6235,-1.6235,-1.57096,-1.57096,-2.22528,-2.22528,255.0,255.0
1,267,5.34,-3.78234,-1.82346,1.82727,-1.62796,-1.55555,-2.22305,0.84441,0.8293,0.85863,0.8439,0.82875,0.86169,0.52171,0.00831,-139.8864,1.0,0.0,0.0,0.0,-3.80055,-3.80055,-1.80108,-1.80108,1.85386,1.85386,-1.6236,-1.6236,-1.57096,-1.57096,-2.22942,-2.22942,255.0,255.0
1,268,5.36,-3.78622,-1.82302,1.8268,-1.6274,-1.55538,-2.2272,0.8444,0.82927,0.85886,0.84389,0.82876,0.86169,0.52171,0.00831,-140.93627,1.0,0.0,0.0,0.0,-3.80468,-3.80468,-1.80023,-1.80023,1.85312,1.85312,-1.62371,-1.62371,-1.57096,-1.57096,-2.23354,-2.23354,255.0,255.0
1,269,5.38,-3.79014,-1.8225,1.82623,-1.62693,-1.55526,-2.23134,0.84449,0.82938,0.859,0.84399,0.82886,0.86176,0.52171,0.00831,-141.99006,1.0,0.0,0.0,0.0,-3.80879,-3.80879,-1.79936,-1.79936,1.85236,1.85236,-1.62383,-1.62383,-1.57096,-1.57096,-2.23766,-2.23766,255.0,255.0
1,270,5.4,-3.79403,-1.82189,1.82567,-1.62656,-1.5551,-2.23545,0.84452,0.82938,0.85944,0.84402,0.82892,0.86186,0.52171,0.00831,-143.04777,1.0,0.0,0.0,0.0,-3.81288,-3.81288,-1.79846,-1.79846,1.85158,1.85158,-1.62395,-1.62395,-1.57095,-1.57095,-2.24176,-2.24176,255.0,255.0
1,271,5.42,-3.79799,-1.8212,1.825,-1.62626,-1.55501,-2.23954,0.84447,0.82932,0.85945,0.84398,0.82884,0.86174,0.52171,0.00831,-144.10941,1.0,0.0,0.0,0.0,-3.81697,-3.81697,-1.79755,-1.79755,1.85079,1.85079,-1.62407,-1.62407,-1.57095,-1.57095,-2.24584,-2.24584,255.0,255.0
1,272,5.44,-3.80196,-1.82044,1.82437,-1.62606,-1.55498,-2.24361,0.84448,0.82934,0.85973,0.84399,0.82887,0.86175,0.52171,0.00831,-145.17497,1.0,0.0,0.0,0.0,-3.82104,-3.82104,-1.79662,-1.79662,1.84998,1.84998,-1.6242,-1.6242,-1.57095,-1.57095,-2.24991,-2.24991,255.0,255.0
1,273,5.46,-3.80594,-1.81965,1.82372,-1.62589,-1.55497,-2.24768,0.84449,0.82932,0.85996,0.84401,0.82886,0.86172,0.52171,0.00831,-146.24446,1.0,0.0,0.0,0.0,-3.8251,-3.8251,-1.79566,-1.79566,1.84916,1.84916,-1.62433,-1.62433,-1.57095,-1.57095,-2.25397,-2.25397,255.0,255.0
1,274,5.48,-3.80997,-1.81882,1.82299,-1.62577,-1.55503,-2.25173,0.84442,0.82926,0.86004,0.84395,0.82883,0.86167,0.52171,0.00831,-147.31787,1.0,0.0,0.0,0.0,-3.82914,-3.82914,-1.79469,-1.79469,1.84832,1.84832,-1.62446,-1.62446,-1.57095,-1.57095,-2.25802,-2.25802,255.0,255.0
1,275,5.5,-3.81404,-1.8179,1.82229,-1.6257,-1.55512,-2.25577,0.84454,0.82939,0.86031,0.84406,0.82892,0.8618,0.52171,0.00831,-148.39521,1.0,0.0,0.0,0.0,-3.83317,-3.83317,-1.7937,-1.7937,1.84746,1.84746,-1.6246,-1.6246,-1.57095,-1.57095,-2.26205,-2.26205,255.0,255.0
1,276,5.52,-3.818,-1.81704,1.82152,-1.62559,-1.55513,-2.2598,0.84452,0.82933,0.86042,0.84406,0.82895,0.86174,0.52171,0.00831,-149.47646,1.0,0.0,0.0,0.0,-3.83719,-3.83719,-1.79268,-1.79268,1.84659,1.84659,-1.62474,-1.62474,-1.57095,-1.57095,-2.26607,-2.26607,255.0,255.0
1,277,5.54,-3.82202,-1.81611,1.8207,-1.6255,-1.55516,-2.2638,0.84449,0.82933,0.86045,0.84401,0.82892,0.86176,0.52171,0.00831,-150.56165,1.0,0.0,0.0,0.0,-3.84119,-3.84119,-1.79165,-1.79165,1.8457,1.8457,-1.62489,-1.62489,-1.57095,-1.57095,-2.27007,-2.27007,255.0,255.0
1,278,5.56,-3.82597,-1.81514,1.81994,-1.62548,-1.55516,-2.2678,0.84447,0.8293,0.86049,0.84401,0.82889,0.86169,0.52171,0.00831,-151.65075,1.0,0.0,0.0,0.0,-3.84518,-3.84518,-1.79059,-1.79059,1.8448,1.8448,-1.62504,-1.62504,-1.57095,-1.57095,-2.27406,-2.27406,255.0,255.0
1,279,5.58,-3.82997,-1.81413,1.81914,-1.6255,-1.55524,-2.27179,0.84452,0.82934,0.86067,0.84405,0.82892,0.86175,0.52171,0.00831,-152.74378,1.0,0.0,0.0,0.0,-3.84915,-3.84915,-1.78952,-1.78952,1.84388,1.84388,-1.62519,-1.62519,-1.57095,-1.57095,-2.27803,-2.27803,255.0,255.0
1,280,5.6,-3.83395,-1.81309,1.8184,-1.62558,-1.55536,-2.27577,0.84455,0.82933,0.86097,0.84411,0.829,0.86184,0.52171,0.00831,-153.84074,1.0,0.0,0.0,0.0,-3.85311,-3.85311,-1.78843,-1.78843,1.84294,1.84294,-1.62535,-1.62535,-1.57094,-1.57094,-2.282,-2.282,255.0,255.0
1,281,5.62,-3.83794,-1.812,1.81754,-1.62565,-1.55542,-2.27972,0.84453,0.82932,0.86093,0.84407,0.82896,0.86182,0.52171,0.00831,-154.94161,1.0,0.0,0.0,0.0,-3.85706,-3.85706,-1.78732,-1.78732,1.84199,1.84199,-1.62551,-1.62551,-1.57094,-1.57094,-2.28594,-2.28594,255.0,255.0
1,282,5.64,-3.84191,-1.81089,1.81667,-1.62574,-1.55547,-2.28367,0.84451,0.8293,0.8609,0.84405,0.82895,0.8618,0.52171,0.00831,-156.04642,1.0,0.0,0.0,0.0,-3.86099,-3.86099,-1.78618,-1.78618,1.84102,1.84102,-1.62567,-1.62567,-1.57094,-1.57094,-2.28988,-2.28988,255.0,255.0
1,283,5.66,-3.84587,-1.80977,1.81579,-1.62583,-1.55553,-2.28761,0.84463,0.82942,0.86107,0.84417,0.82907,0.86194,0.52171,0.00831,-157.15514,1.0,0.0,0.0,0.0,-3.86491,-3.86491,-1.78503,-1.78503,1.84003,1.84003,-1.62583,-1.62583,-1.57094,-1.57094,-2.29379,-2.29379,255.0,255.0
1,284,5.68,-3.84981,-1.80862,1.81489,-1.62594,-1.55559,-2.29153,0.8446,0.82941,0.86104,0.84414,0.82906,0.86191,0.52171,0.00831,-158.26779,1.0,0.0,0.0,0.0,-3.86881,-3.86881,-1.78386,-1.78386,1.83903,1.83903,-1.626,-1.626,-1.57094,-1.57094,-2.2977,-2.2977,255.0,255.0
1,285,5.7,-3.85376,-1.8075,1.81389,-1.62596,-1.55564,-2.29544,0.84454,0.82935,0.86087,0.84409,0.82898,0.86178,0.52171,0.00831,-159.38437,1.0,0.0,0.0,0.0,-3.8727,-3.8727,-1.78267,-1.78267,1.83801,1.83801,-1.62618,-1.62618,-1.57094,-1.57094,-2.30159,-2.30159,255.0,255.0
1,286,5.72,-3.85705,-1.80588,1.81261,-1.626,-1.55573,-2.2988,0.84455,0.82934,0.86107,0.8441,0.82897,0.86176,0.52171,0.00831,-160.50487,1.0,0.0,0.0,0.0,-3.8751,-3.8751,-1.77964,-1.77964,1.83596,1.83596,-1.62715,-1.62715,-1.57087,-1.57087,-2.3041,-2.3041,255.0,255.0
1,287,5.74,-3.85993,-1.80371,1.81099,-1.62648,-1.55586,-2.30173,0.84456,0.82935,0.86123,0.84413,0.82903,0.8618,0.52171,0.00831,-161.62929,1.0,0.0,0.0,0.0,-3.87739,-3.87739,-1.77651,-1.77651,1.83382,1.83382,-1.62814,-1.62814,-1.57086,-1.57086,-2.3064,-2.3064,255.0,255.0
1,288,5.76,-3.86271,-1.80114,1.80906,-1.62719,-1.55613,-2.3044,0.84458,0.82934,0.86141,0.84418,0.82907,0.86177,0.52171,0.00831,-162.75763,1.0,0.0,0.0,0.0,-3.87964,-3.87964,-1.77337,-1.77337,1.83166,1.83166,-1.62912,-1.62912,-1.57085,-1.57085,-2.30866,-2.30866,255.0,255.0
1,289,5.78,-3.86537,-1.7984,1.80699,-1.62798,-1.55646,-2.3069,0.84456,0.82935,0.86161,0.84418,0.8291,0.86179,0.52171,0.00831,-163.8899,1.0,0.0,0.0,0.0,-3.88188,-3.88188,-1.77022,-1.77022,1.82948,1.82948,-1.6301,-1.6301,-1.57085,-1.57085,-2.3109,-2.3109,255.0,255.0
1,290,5.8,-3.86796,-1.79554,1.80485,-1.62879,-1.55684,-2.30929,0.84453,0.82928,0.86173,0.84418,0.8291,0.86177,0.52171,0.00831,-165.0261,1.0,0.0,0.0,0.0,-3.88411,-3.88411,-1.76706,-1.76706,1.82729,1.82729,-1.63107,-1.63107,-1.57085,-1.57085,-2.31313,-2.31313,255.0,255.0
1,291,5.82,-3.87046,-1.79266,1.80264,-1.6296,-1.55717,-2.31161,0.84449,0.82926,0.86176,0.84415,0.82908,0.86171,0.52171,0.00831,-166.16622,1.0,0.0,0.0,0.0,-3.88631,-3.88631,-1.76389,-1.76389,1.82507,1.82507,-1.63202,-1.63202,-1.57085,-1.57085,-2.31534,-2.31534,255.0,255.0
1,292,5.84,-3.87288,-1.78971,1.80048,-1.63048,-1.55752,-2.31389,0.84451,0.82925,0.86213,0.84424,0.82921,0.86151,0.52171,0.00831,-167.31026,1.0,0.0,0.0,0.0,-3.88851,-3.88851,-1.76071,-1.76071,1.82284,1.82284,-1.63297,-1.63297,-1.57085,-1.57085,-2.31753,-2.31753,255.0,255.0
1,293,5.86,-3.87526,-1.78672,1.79818,-1.63137,-1.55779,-2.31613,0.84447,0.82919,0.86218,0.84421,0.82915,0.8614,0.52171,0.00831,-168.45822,1.0,0.0,0.0,0.0,-3.89068,-3.89068,-1.75753,-1.75753,1.8206,1.8206,-1.63391,-1.63391,-1.57085,-1.57085,-2.31971,-2.31971,255.0,255.0
1,294,5.88,-3.87762,-1.78369,1.79589,-1.63225,-1.55807,-2.31834,0.84449,0.8292,0.8623,0.84428,0.82923,0.86145,0.52171,0.00831,-169.61011,1.0,0.0,0.0,0.0,-3.89284,-3.89284,-1.75434,-1.75434,1.81833,1.81833,-1.63484,-1.63484,-1.57085,-1.57085,-2.32187,-2.32187,255.0,255.0
1,295,5.9,-3.87991,-1.78069,1.79357,-1.6331,-1.5583,-2.32053,0.84447,0.82919,0.86235,0.84426,0.82921,0.86145,0.52171,0.00831,-170.76593,1.0,0.0,0.0,0.0,-3.89499,-3.89499,-1.75114,-1.75114,1.81605,1.81605,-1.63576,-1.63576,-1.57085,-1.57085,-2.32402,-2.32402,255.0,255.0
1,296,5.92,-3.88217,-1.77766,1.79125,-1.63395,-1.5585,-2.3227,0.84452,0.82924,0.86248,0.84432,0.82928,0.86155,0.52171,0.00831,-171.92567,1.0,0.0,0.0,0.0,-3.89712,-3.89712,-1.74793,-1.74793,1.81375,1.81375,-1.63667,-1.63667,-1.57085,-1.57085,-2.32615,-2.32615,255.0,255.0
1,297,5.94,-3.88441,-1.77455,1.78901,-1.63489,-1.55873,-2.32485,0.84453,0.82921,0.86257,0.84436,0.82938,0.86152,0.52171,0.00831,-173.08933,1.0,0.0,0.0,0.0,-3.89924,-3.89924,-1.74471,-1.74471,1.81144,1.81144,-1.63758,-1.63758,-1.57085,-1.57085,-2.32827,-2.32827,255.0,255.0
1,298,5.96,-3.88661,-1.7715,1.7866,-1.63575,-1.55888,-2.32698,0.84444,0.82914,0.86249,0.84428,0.8293,0.86141,0.52171,0.00831,-174.25692,1.0,0.0,0.0,0.0,-3.90134,-3.90134,-1.74149,-1.74149,1.80911,1.80911,-1.63847,-1.63847,-1.57084,-1.57084,-2.33037,-2.33037,255.0,255.0
1,299,5.98,-3.88879,-1.76842,1.78422,-1.63661,-1.55902,-2.3291,0.84442,0.82911,0.86253,0.84428,0.82927,0.86143,0.52171,0.00831,-175.42843,1.0,0.0,0.0,0.0,-3.90343,-3.90343,-1.73826,-1.73826,1.80676,1.80676,-1.63935,-1.63935,-1.57084,-1.57084,-2.33246,-2.33246,255.0,255.0
1,300,6.0,-3.89091,-1.76538,1.78182,-1.63743,-1.55913,-2.3312,0.84445,0.82913,0.86253,0.8443,0.82926,0.8614,0.52171,0.00831,-176.60386,1.0,0.0,0.0,0.0,-3.9055,-3.9055,-1.73502,-1.73502,1.80439,1.80439,-1.64022,-1.64022,-1.57084,-1.57084,-2.33454,-2.33454,255.0,255.0
1,301,6.02,-3.89303,-1.76226,1.77943,-1.63828,-1.55924,-2.33328,0.84447,0.82917,0.86266,0.84435,0.82935,0.86152,0.52171,0.00831,-177.78322,1.0,0.0,0.0,0.0,-3.90756,-3.90756,-1.73178,-1.73178,1.80201,1.80201,-1.64109,-1.64109,-1.57084,-1.57084,-2.33659,-2.33659,255.0,255.0
1,302,6.04,-3.89511,-1.7592,1.77699,-1.6391,-1.55933,-2.33535,0.84448,0.82919,0.86267,0.84435,0.82934,0.86151,0.52171,0.00831,-178.9665,1.0,0.0,0.0,0.0,-3.9096,-3.9096,-1.72852,-1.72852,1.7996,1.7996,-1.64194,-1.64194,-1.57084,-1.57084,-2.33864,-2.33864,255.0,255.0
1,303,6.06,-3.89719,-1.75605,1.77456,-1.63994,-1.55942,-2.33741,0.84446,0.82912,0.86261,0.84434,0.82932,0.86143,0.52171,0.00831,-180.15371,1.0,0.0,0.0,0.0,-3.91163,-3.91163,-1.72526,-1.72526,1.79719,1.79719,-1.64278,-1.64278,-1.57084,-1.57084,-2.34067,-2.34067,255.0,255.0
1,304,6.08,-3.89923,-1.75297,1.77209,-1.64075,-1.55949,-2.33944,0.84449,0.82917,0.8627,0.84437,0.82933,0.86151,0.52171,0.00831,-181.34484,1.0,0.0,0.0,0.0,-3.91365,-3.91365,-1.722,-1.722,1.79475,1.79475,-1.64361,-1.64361,-1.57084,-1.57084,-2.34269,-2.34269,255.0,255.0
1,305,6.1,-3.90127,-1.74981,1.76963,-1.64158,-1.55956,-2.34147,0.84446,0.82914,0.86273,0.84435,0.82935,0.86153,0.52171,0.00831,-182.53989,1.0,0.0,0.0,0.0,-3.91565,-3.91565,-1.71873,-1.71873,1.7923,1.7923,-1.64444,-1.64444,-1.57084,-1.57084,-2.34469,-2.34469,255.0,255.0
1,306,6.12,-3.90327,-1.74671,1.76712,-1.64237,-1.55962,-2.34348,0.84444,0.82914,0.86266,0.84432,0.82932,0.86144,0.52171,0.00831,-183.73887,1.0,0.0,0.0,0.0,-3.91763,-3.91763,-1.71545,-1.71545,1.78983,1.78983,-1.64525,-1.64525,-1.57084,-1.57084,-2.34668,-2.34668,255.0,255.0
1,307,6.14,-3.90528,-1.74353,1.76463,-1.64318,-1.55968,-2.34548,0.84451,0.82916,0.86277,0.84441,0.82938,0.86154,0.52171,0.00831,-184.94177,1.0,0.0,0.0,0.0,-3.91961,-3.91961,-1.71216,-1.71216,1.78734,1.78734,-1.64605,-1.64605,-1.57084,-1.57084,-2.34865,-2.34865,255.0,255.0
1,308,6.16,-3.90726,-1.74038,1.7621,-1.64396,-1.55973,-2.34746,0.84447,0.82917,0.86275,0.84438,0.82939,0.86152,0.52171,0.00831,-186.1486,1.0,0.0,0.0,0.0,-3.92157,-3.92157,-1.70887,-1.70887,1.78484,1.78484,-1.64684,-1.64684,-1.57084,-1.57084,-2.35061,-2.35061,255.0,255.0
1,309,6.18,-3.90922,-1.73723,1.75956,-1.64474,-1.55977,-2.34943,0.84445,0.82911,0.86274,0.84436,0.82934,0.86148,0.52171,0.00831,-187.35935,1.0,0.0,0.0,0.0,-3.92351,-3.92351,-1.70557,-1.70557,1.78232,1.78232,-1.64762,-1.64762,-1.57084,-1.57084,-2.35256,-2.35256,255.0,255.0
1,310,6.2,-3.91117,-1.73406,1.757,-1.6455,-1.55982,-2.35139,0.84451,0.82919,0.86283,0.84442,0.82942,0.86158,0.52171,0.00831,-188.57402,1.0,0.0,0.0,0.0,-3.92545,-3.92545,-1.70226,-1.70226,1.77978,1.77978,-1.64839,-1.64839,-1.57084,-1.57084,-2.35449,-2.35449,255.0,255.0
1,311,6.22,-3.91248,-1.73031,1.75393,-1.64612,-1.56039,-2.35237,0.84437,0.82904,0.86287,0.8444,0.82937,0.86129,0.52171,0.00831,-189.79262,1.0,0.0,0.0,0.0,-3.9247,-3.9247,-1.69762,-1.69762,1.77542,1.77542,-1.6488,-1.6488,-1.57073,-1.57073,-2.35395,-2.35395,255.0,255.0
1,312,6.24,-3.91334,-1.72606,1.7503,-1.64654,-1.56126,-2.35264,0.84434,0.82894,0.8633,0.84452,0.82956,0.86141,0.52171,0.00831,-191.01514,1.0,0.0,0.0,0.0,-3.92383,-3.92383,-1.69287,-1.69287,1.77087,1.77087,-1.64903,-1.64903,-1.57071,-1.57071,-2.3531,-2.3531,255.0,255.0
1,313,6.26,-3.91386,-1.72159,1.74636,-1.64677,-1.56227,-2.35245,0.84432,0.82892,0.86367,0.84459,0.82961,0.8615,0.52171,0.00831,-192.24159,1.0,0.0,0.0,0.0,-3.92295,-3.92295,-1.68811,-1.68811,1.76628,1.76628,-1.6492,-1.6492,-1.57071,-1.57071,-2.35222,-2.35222,255.0,255.0
1,314,6.28,-3.91415,-1.71695,1.74233,-1.64695,-1.56334,-2.35201,0.84429,0.82893,0.86388,0.84461,0.82964,0.86139,0.52171,0.00831,-193.47196,1.0,0.0,0.0,0.0,-3.92208,-3.92208,-1.68336,-1.68336,1.76166,1.76166,-1.64934,-1.64934,-1.57071,-1.57071,-2.35135,-2.35135,255.0,255.0
1,315,6.3,-3.91431,-1.71214,1.73818,-1.64714,-1.5644,-2.35141,0.84425,0.82885,0.86404,0.84462,0.82966,0.86125,0.52171,0.00831,-194.70625,1.0,0.0,0.0,0.0,-3.92121,-3.92121,-1.67861,-1.67861,1.75703,1.75703,-1.64946,-1.64946,-1.57071,-1.57071,-2.35049,-2.35049,255.0,255.0
1,316,6.32,-3.91434,-1.70731,1.73387,-1.64726,-1.56537,-2.35071,0.84429,0.82884,0.86437,0.8447,0.82976,0.86142,0.52171,0.00831,-195.94447,1.0,0.0,0.0,0.0,-3.92036,-3.92036,-1.67387,-1.67387,1.75237,1.75237,-1.64955,-1.64955,-1.57071,-1.57071,-2.34963,-2.34963,255.0,255.0
1,317,6.34,-3.91424,-1.70248,1.72956,-1.6473,-1.56626,-2.34997,0.84429,0.82888,0.86458,0.84471,0.82975,0.86139,0.52171,0.00831,-197.18661,1.0,0.0,0.0,0.0,-3.91951,-3.91951,-1.66913,-1.66913,1.7477,1.7477,-1.64962,-1.64962,-1.57071,-1.57071,-2.34878,-2.34878,255.0,255.0
1,318,6.36,-3.91408,-1.69754,1.72528,-1.64742,-1.56708,-2.34919,0.84422,0.82878,0.86451,0.84466,0.82981,0.86112,0.52171,0.00831,-198.43268,1.0,0.0,0.0,0.0,-3.91866,-3.91866,-1.6644,-1.6644,1.74301,1.74301,-1.64966,-1.64966,-1.57071,-1.57071,-2.34794,-2.34794,255.0,255.0
1,319,6.38,-3.91384,-1.69282,1.72085,-1.64729,-1.56784,-2.34841,0.84427,0.82887,0.86452,0.84473,0.82981,0.8613,0.52171,0.00831,-199.68267,1.0,0.0,0.0,0.0,-3.91783,-3.91783,-1.65967,-1.65967,1.73829,1.73829,-1.64967,-1.64967,-1.57072,-1.57072,-2.3471,-2.3471,255.0,255.0
1,320,6.4,-3.91352,-1.68794,1.7166,-1.64722,-1.56851,-2.34762,0.84424,0.82876,0.86455,0.84473,0.82986,0.86117,0.52171,0.00831,-200.93658,1.0,0.0,0.0,0.0,-3.917,-3.917,-1.65495,-1.65495,1.73356,1.73356,-1.64967,-1.64967,-1.57072,-1.57072,-2.34627,-2.34627,255.0,255.0
1,321,6.42,-3.91317,-1.68316,1.71214,-1.64707,-1.56913,-2.34683,0.84428,0.82881,0.86479,0.84478,0.82987,0.86129,0.52171,0.00831,-202.19442,1.0,0.0,0.0,0.0,-3.91618,-3.91618,-1.65024,-1.65024,1.72881,1.72881,-1.64963,-1.64963,-1.57072,-1.57072,-2.34545,-2.34545,255.0,255.0
1,322,6.44,-3.91279,-1.67828,1.70778,-1.647,-1.56968,-2.34604,0.84422,0.82876,0.8646,0.84473,0.8299,0.86098,0.52171,0.00831,-203.45618,1.0,0.0,0.0,0.0,-3.91537,-3.91537,-1.64553,-1.64553,1.72404,1.72404,-1.64958,-1.64958,-1.57072,-1.57072,-2.34464,-2.34464,255.0,255.0
1,323,6.46,-3.91241,-1.67323,1.7033,-1.64719,-1.57008,-2.34525,0.84418,0.82865,0.86415,0.84469,0.82988,0.86082,0.52171,0.00831,-204.72187,1.0,0.0,0.0,0.0,-3.91456,-3.91456,-1.64082,-1.64082,1.71925,1.71925,-1.64949,-1.64949,-1.57072,-1.57072,-2.34383,-2.34383,255.0,255.0
1,324,6.48,-3.91198,-1.66826,1.69872,-1.64724,-1.57044,-2.34447,0.84416,0.82865,0.86404,0.84469,0.82985,0.86095,0.52171,0.00831,-205.99148,1.0,0.0,0.0,0.0,-3.91376,-3.91376,-1.63612,-1.63612,1.71444,1.71444,-1.64939,-1.64939,-1.57072,-1.57072,-2.34303,-2.34303,255.0,255.0
1,325,6.5,-3.9115,-1.66336,1.69417,-1.64719,-1.57076,-2.34369,0.8442,0.82872,0.86421,0.84473,0.8299,0.86108,0.52171,0.00831,-207.26502,1.0,0.0,0.0,0.0,-3.91297,-3.91297,-1.63142,-1.63142,1.70961,1.70961,-1.64926,-1.64926,-1.57072,-1.57072,-2.34224,-2.34224,255.0,255.0
1,326,6.52,-3.911,-1.65836,1.68969,-1.64721,-1.57105,-2.3429,0.84409,0.8286,0.86387,0.84461,0.82984,0.86062,0.52171,0.00831,-208.54247,1.0,0.0,0.0,0.0,-3.91218,-3.91218,-1.62673,-1.62673,1.70476,1.70476,-1.6491,-1.6491,-1.57072,-1.57072,-2.34145,-2.34145,255.0,255.0
1,327,6.54,-3.91047,-1.65349,1.68505,-1.64709,-1.5713,-2.34212,0.84417,0.82868,0.86411,0.84469,0.82986,0.86083,0.52171,0.00831,-209.82386,1.0,0.0,0.0,0.0,-3.9114,-3.9114,-1.62205,-1.62205,1.69989,1.69989,-1.64893,-1.64893,-1.57072,-1.57072,-2.34067,-2.34067,255.0,255.0
1,328,6.56,-3.90992,-1.64859,1.68044,-1.64693,-1.57154,-2.34135,0.84416,0.82864,0.86418,0.84471,0.82988,0.86093,0.52171,0.00831,-211.10916,1.0,0.0,0.0,0.0,-3.91063,-3.91063,-1.61736,-1.61736,1.695,1.695,-1.64872,-1.64872,-1.57072,-1.57072,-2.3399,-2.3399,255.0,255.0
1,329,6.58,-3.90935,-1.64377,1.67583,-1.64667,-1.57178,-2.34058,0.84422,0.82869,0.86437,0.84476,0.82989,0.86104,0.52171,0.00831,-212.39839,1.0,0.0,0.0,0.0,-3.90986,-3.90986,-1.61269,-1.61269,1.69009,1.69009,-1.6485,-1.6485,-1.57072,-1.57072,-2.33913,-2.33913,255.0,255.0
1,330,6.6,-3.90876,-1.63888,1.67122,-1.64648,-1.57196,-2.33981,0.84422,0.82876,0.8643,0.84475,0.82988,0.86093,0.52171,0.00831,-213.69155,1.0,0.0,0.0,0.0,-3.9091,-3.9091,-1.60801,-1.60801,1.68517,1.68517,-1.64825,-1.64825,-1.57072,-1.57072,-2.33837,-2.33837,255.0,255.0
1,331,6.62,-3.90815,-1.63396,1.66659,-1.64632,-1.5721,-2.33904,0.8442,0.82873,0.86409,0.8447,0.82978,0.86065,0.52171,0.00831,-214.98862,1.0,0.0,0.0,0.0,-3.90835,-3.90835,-1.60334,-1.60334,1.68022,1.68022,-1.64797,-1.64797,-1.57072,-1.57072,-2.33761,-2.33761,255.0,255.0
1,332,6.64,-3.90756,-1.62911,1.66186,-1.64603,-1.57225,-2.33829,0.84415,0.82867,0.86427,0.84468,0.82978,0.86082,0.52171,0.00831,-216.28963,1.0,0.0,0.0,0.0,-3.9076,-3.9076,-1.59867,-1.59867,1.67525,1.67525,-1.64767,-1.64767,-1.57072,-1.57072,-2.33686,-2.33686,255.0,255.0
1,333,6.66,-3.90694,-1.62421,1.65721,-1.64579,-1.57237,-2.33753,0.84418,0.82873,0.86411,0.84469,0.82978,0.86064,0.52171,0.00831,-217.59455,1.0,0.0,0.0,0.0,-3.90685,-3.90685,-1.59401,-1.59401,1.67026,1.67026,-1.64735,-1.64735,-1.57072,-1.57072,-2.33612,-2.33612,255.0,255.0
1,334,6.68,-3.90632,-1.61935,1.65245,-1.64547,-1.57248,-2.33679,0.84421,0.82872,0.86434,0.84474,0.82991,0.86088,0.52171,0.00831,-218.9034,1.0,0.0,0.0,0.0,-3.90612,-3.90612,-1.58935,-1.58935,1.66525,1.66525,-1.64701,-1.64701,-1.57072,-1.57072,-2.33538,-2.33538,255.0,255.0
1,335,6.7,-3.9057,-1.61453,1.64775,-1.64508,-1.5726,-2.33605,0.84416,0.82868,0.86425,0.84469,0.82983,0.86071,0.52171,0.00831,-220.21618,1.0,0.0,0.0,0.0,-3.90539,-3.90539,-1.58469,-1.58469,1.66022,1.66022,-1.64664,-1.64664,-1.57072,-1.57072,-2.33465,-2.33465,255.0,255.0
1,336,6.72,-3.90472,-1.60982,1.64316,-1.64485,-1.57299,-2.33472,0.84413,0.82859,0.86449,0.84471,0.82991,0.86084,0.52171,0.00831,-221.53288,1.0,0.0,0.0,0.0,-3.90298,-3.90298,-1.58037,-1.58037,1.65587,1.65587,-1.64654,-1.64654,-1.57068,-1.57068,-2.33237,-2.33237,255.0,255.0
1,337,6.74,-3.90346,-1.60533,1.63874,-1.64464,-1.57361,-2.33295,0.84421,0.82866,0.86491,0.84479,0.82998,0.86101,0.52171,0.00831,-222.8535,1.0,0.0,0.0,0.0,-3.90054,-3.90054,-1.57606,-1.57606,1.65154,1.65154,-1.64652,-1.64652,-1.57067,-1.57067,-2.32994,-2.32994,255.0,255.0
1,338,6.76,-3.90203,-1.60087,1.63448,-1.64457,-1.57432,-2.33091,0.84419,0.82871,0.8646,0.84472,0.82985,0.86038,0.52171,0.00831,-224.17804,1.0,0.0,0.0,0.0,-3.89812,-3.89812,-1.57175,-1.57175,1.6472,1.6472,-1.64649,-1.64649,-1.57067,-1.57067,-2.32752,-2.32752,255.0,255.0
1,339,6.78,-3.90048,-1.59651,1.63004,-1.64446,-1.57504,-2.32874,0.8442,0.82866,0.86518,0.84479,0.82992,0.86084,0.52171,0.00831,-225.50651,1.0,0.0,0.0,0.0,-3.89571,-3.89571,-1.56745,-1.56745,1.64284,1.64284,-1.64644,-1.64644,-1.57067,-1.57067,-2.32511,-2.32511,255.0,255.0
1,340,6.8,-3.89881,-1.59213,1.62575,-1.64441,-1.57572,-2.32648,0.84419,0.82865,0.86526,0.84479,0.82993,0.86074,0.52171,0.00831,-226.83891,1.0,0.0,0.0,0.0,-3.89331,-3.89331,-1.56314,-1.56314,1.63846,1.63846,-1.64637,-1.64637,-1.57067,-1.57067,-2.32271,-2.32271,255.0,255.0
1,341,6.82,-3.89707,-1.58776,1.62143,-1.64435,-1.57635,-2.32418,0.84429,0.82871,0.86546,0.84489,0.83001,0.8608,0.52171,0.00831,-228.17523,1.0,0.0,0.0,0.0,-3.89094,-3.89094,-1.55883,-1.55883,1.63406,1.63406,-1.64628,-1.64628,-1.57067,-1.57067,-2.32033,-2.32033,255.0,255.0
1,342,6.84,-3.89525,-1.5834,1.61711,-1.64428,-1.57692,-2.32186,0.84423,0.82868,0.86554,0.84484,0.83,0.86073,0.52171,0.00831,-229.51547,1.0,0.0,0.0,0.0,-3.88857,-3.88857,-1.55452,-1.55452,1.62964,1.62964,-1.64618,-1.64618,-1.57067,-1.57067,-2.31797,-2.31797,255.0,255.0
1,343,6.86,-3.89339,-1.57904,1.61277,-1.64419,-1.57743,-2.31953,0.84427,0.82868,0.86565,0.84489,0.83002,0.86073,0.52171,0.00831,-230.85963,1.0,0.0,0.0,0.0,-3.88623,-3.88623,-1.55021,-1.55021,1.6252,1.6252,-1.64605,-1.64605,-1.57067,-1.57067,-2.31562,-2.31562,255.0,255.0
1,344,6.88,-3.89148,-1.5747,1.60841,-1.64407,-1.57788,-2.3172,0.84427,0.82869,0.86573,0.8449,0.83004,0.8607,0.52171,0.00831,-232.20772,1.0,0.0,0.0,0.0,-3.8839,-3.8839,-1.5459,-1.5459,1.62074,1.62074,-1.6459,-1.6459,-1.57068,-1.57068,-2.31329,-2.31329,255.0,255.0
1,345,6.9,-3.88953,-1.57034,1.60404,-1.64395,-1.57827,-2.31488,0.84424,0.82867,0.8658,0.84487,0.83004,0.8607,0.52171,0.00831,-233.55974,1.0,0.0,0.0,0.0,-3.88158,-3.88158,-1.5416,-1.5416,1.61626,1.61626,-1.64573,-1.64573,-1.57068,-1.57068,-2.31098,-2.31098,255.0,255.0
1,346,6.92,-3.88755,-1.566,1.59965,-1.64379,-1.57862,-2.31257,0.84425,0.82868,0.86585,0.84488,0.83006,0.86067,0.52171,0.00831,-234.91568,1.0,0.0,0.0,0.0,-3.87929,-3.87929,-1.53729,-1.53729,1.61176,1.61176,-1.64554,-1.64554,-1.57068,-1.57068,-2.30868,-2.30868,255.0,255.0
1,347,6.94,-3.88554,-1.56162,1.59524,-1.64364,-1.5789,-2.31028,0.84423,0.82862,0.86593,0.84488,0.83014,0.86069,0.52171,0.00831,-236.27554,1.0,0.0,0.0,0.0,-3.877,-3.877,-1.53297,-1.53297,1.60723,1.60723,-1.64533,-1.64533,-1.57068,-1.57068,-2.30639,-2.30639,255.0,255.0
1,348,6.96,-3.88352,-1.55728,1.59082,-1.64346,-1.57916,-2.30799,0.84412,0.8285,0.86573,0.84476,0.83004,0.86042,0.52171,0.00831,-237.63933,1.0,0.0,0.0,0.0,-3.87473,-3.87473,-1.52866,-1.52866,1.60269,1.60269,-1.6451,-1.6451,-1.57068,-1.57068,-2.30412,-2.30412,255.0,255.0
1,349,6.98,-3.88148,-1.55292,1.58636,-1.64326,-1.57939,-2.30572,0.84422,0.82859,0.86586,0.84485,0.83014,0.86054,0.52171,0.00831,-239.00704,1.0,0.0,0.0,0.0,-3.87248,-3.87248,-1.52435,-1.52435,1.59813,1.59813,-1.64485,-1.64485,-1.57068,-1.57068,-2.30187,-2.30187,255.0,255.0
1,350,7.0,-3.87942,-1.54857,1.58189,-1.64302,-1.57957,-2.30346,0.84417,0.82855,0.86587,0.84481,0.83008,0.86049,0.52171,0.00831,-240.37867,1.0,0.0,0.0,0.0,-3.87024,-3.87024,-1.52004,-1.52004,1.59354,1.59354,-1.64458,-1.64458,-1.57068,-1.57068,-2.29963,-2.29963,255.0,255.0
1,351,7.02,-3.87731,-1.54418,1.57739,-1.64278,-1.57967,-2.30122,0.84416,0.82848,0.86592,0.84483,0.83016,0.86059,0.52171,0.00831,-241.75423,1.0,0.0,0.0,0.0,-3.86802,-3.86802,-1.51572,-1.51572,1.58893,1.58893,-1.64429,-1.64429,-1.57068,-1.57068,-2.2974,-2.2974,255.0,255.0
1,352,7.04,-3.87522,-1.53991,1.57288,-1.64244,-1.57981,-2.29899,0.84424,0.82861,0.86607,0.84487,0.83012,0.86064,0.52171,0.00831,-243.13371,1.0,0.0,0.0,0.0,-3.86581,-3.86581,-1.51141,-1.51141,1.5843,1.5843,-1.64398,-1.64398,-1.57068,-1.57068,-2.29519,-2.29519,255.0,255.0
1,353,7.06,-3.87314,-1.53552,1.56838,-1.6422,-1.5799,-2.29677,0.84417,0.82869,0.8656,0.84476,0.82993,0.86016,0.52171,0.00831,-244.51712,1.0,0.0,0.0,0.0,-3.86361,-3.86361,-1.50709,-1.50709,1.57965,1.57965,-1.64365,-1.64365,-1.57068,-1.57068,-2.29299,-2.29299,255.0,255.0
1,354,7.08,-3.87104,-1.53118,1.56379,-1.64188,-1.57998,-2.29457,0.84417,0.82861,0.86577,0.84479,0.83,0.8603,0.52171,0.00831,-245.90445,1.0,0.0,0.0,0.0,-3.86143,-3.86143,-1.50277,-1.50277,1.57498,1.57498,-1.6433,-1.6433,-1.57068,-1.57068,-2.29081,-2.29081,255.0,255.0
1,355,7.1,-3.86891,-1.52681,1.55921,-1.64155,-1.57999,-2.29238,0.84421,0.8286,0.86582,0.84483,0.83007,0.8604,0.52171,0.00831,-247.2957,1.0,0.0,0.0,0.0,-3.85927,-3.85927,-1.49846,-1.49846,1.57029,1.57029,-1.64293,-1.64293,-1.57068,-1.57068,-2.28865,-2.28865,255.0,255.0
1,356,7.12,-3.86675,-1.52243,1.5546,-1.64119,-1.57996,-2.2902,0.84418,0.82849,0.86596,0.84486,0.83017,0.86062,0.52171,0.00831,-248.69088,1.0,0.0,0.0,0.0,-3.85711,-3.85711,-1.49414,-1.49414,1.56557,1.56557,-1.64254,-1.64254,-1.57068,-1.57068,-2.28649,-2.28649,255.0,255.0
1,357,7.14,-3.86458,-1.5181,1.55004,-1.64082,-1.57991,-2.28803,0.84413,0.82869,0.86523,0.84465,0.82981,0.85982,0.52171,0.00831,-250.08998,1.0,0.0,0.0,0.0,-3.85498,-3.85498,-1.48981,-1.48981,1.56084,1.56084,-1.64213,-1.64213,-1.57068,-1.57068,-2.28435,-2.28435,255.0,255.0
1,358,7.16,-3.86248,-1.51376,1.54531,-1.64037,-1.57993,-2.2859,0.84423,0.82857,0.8662,0.84493,0.83024,0.86089,0.52171,0.00831,-251.49301,1.0,0.0,0.0,0.0,-3.85285,-3.85285,-1.48549,-1.48549,1.55608,1.55608,-1.64169,-1.64169,-1.57068,-1.57068,-2.28223,-2.28223,255.0,255.0
1,359,7.18,-3.8604,-1.50944,1.54064,-1.63989,-1.57995,-2.28377,0.84416,0.82846,0.86624,0.84487,0.83016,0.8609,0.52171,0.00831,-252.89996,1.0,0.0,0.0,0.0,-3.85074,-3.85074,-1.48116,-1.48116,1.5513,1.5513,-1.64124,-1.64124,-1.57069,-1.57069,-2.28011,-2.28011,255.0,255.0
1,360,7.2,-3.8583,-1.50507,1.53601,-1.63945,-1.57993,-2.28164,0.84418,0.82858,0.86582,0.84485,0.83006,0.86047,0.52171,0.00831,-254.31083,1.0,0.0,0.0,0.0,-3.84864,-3.84864,-1.47684,-1.47684,1.54649,1.54649,-1.64077,-1.64077,-1.57069,-1.57069,-2.27802,-2.27802,255.0,255.0
1,361,7.22,-3.85588,-1.50114,1.53183,-1.63921,-1.57993,-2.27912,0.84416,0.82848,0.86589,0.84484,0.83017,0.86062,0.52171,0.00831,-255.72563,1.0,0.0,0.0,0.0,-3.84544,-3.84544,-1.47382,-1.47382,1.54333,1.54333,-1.64051,-1.64051,-1.57067,-1.57067,-2.2749,-2.2749,255.0,255.0
1,362,7.24,-3.85322,-1.49765,1.52814,-1.63908,-1.58001,-2.27632,0.84419,0.82869,0.8654,0.84476,0.82991,0.86009,0.52171,0.00831,-257.14435,1.0,0.0,0.0,0.0,-3.84223,-3.84223,-1.47087,-1.47087,1.54029,1.54029,-1.64041,-1.64041,-1.57067,-1.57067,-2.2717,-2.2717,255.0,255.0
1,363,7.26,-3.85039,-1.49431,1.52461,-1.63915,-1.58007,-2.27336,0.84414,0.82856,0.86537,0.84473,0.83005,0.86018,0.52171,0.00831,-258.567,1.0,0.0,0.0,0.0,-3.83904,-3.83904,-1.46791,-1.46791,1.53726,1.53726,-1.64033,-1.64033,-1.57067,-1.57067,-2.2685,-2.2685,255.0,255.0
1,364,7.28,-3.84751,-1.49112,1.52116,-1.63928,-1.58016,-2.27031,0.84416,0.82857,0.86551,0.84477,0.83,0.8604,0.52171,0.00831,-259.99357,1.0,0.0,0.0,0.0,-3.83585,-3.83585,-1.46495,-1.46495,1.5342,1.5342,-1.64024,-1.64024,-1.57067,-1.57067,-2.26532,-2.26532,255.0,255.0
1,365,7.3,-3.84459,-1.48795,1.51784,-1.63947,-1.58024,-2.2672,0.84415,0.82867,0.86524,0.84474,0.82988,0.86018,0.52171,0.00831,-261.42406,1.0,0.0,0.0,0.0,-3.83268,-3.83268,-1.46198,-1.46198,1.53113,1.53113,-1.64014,-1.64014,-1.57067,-1.57067,-2.26214,-2.26214,255.0,255.0
1,366,7.32,-3.84161,-1.48481,1.51455,-1.63969,-1.58028,-2.26406,0.8442,0.8287,0.86512,0.84477,0.82992,0.86016,0.52171,0.00831,-262.85848,1.0,0.0,0.0,0.0,-3.82952,-3.82952,-1.459,-1.459,1.52804,1.52804,-1.64003,-1.64003,-1.57067,-1.57067,-2.25898,-2.25898,255.0,255.0
1,367,7.34,-3.83861,-1.48174,1.51121,-1.63984,-1.58033,-2.26093,0.84421,0.82864,0.86538,0.84482,0.83005,0.86053,0.52171,0.00831,-264.29682,1.0,0.0,0.0,0.0,-3.82638,-3.82638,-1.45601,-1.45601,1.52493,1.52493,-1.63991,-1.63991,-1.57067,-1.57067,-2.25584,-2.25584,255.0,255.0
1,368,7.36,-3.83561,-1.47865,1.50798,-1.64,-1.58038,-2.25778,0.84419,0.8286,0.8651,0.84478,0.83005,0.86033,0.52171,0.00831,-265.73909,1.0,0.0,0.0,0.0,-3.82324,-3.82324,-1.45301,-1.45301,1.5218,1.5218,-1.63978,-1.63978,-1.57067,-1.57067,-2.2527,-2.2527,255.0,255.0
1,369,7.38,-3.8326,-1.47563,1.5047,-1.64007,-1.58042,-2.25465,0.84421,0.82868,0.86512,0.8448,0.83001,0.86036,0.52171,0.00831,-267.18528,1.0,0.0,0.0,0.0,-3.82012,-3.82012,-1.45,-1.45,1.51865,1.51865,-1.63965,-1.63965,-1.57067,-1.57067,-2.24958,-2.24958,255.0,255.0
