ikatsov/phy-harness/artifacts/base_rotation/joints.csv
episode,sim_step,time_sec,shoulder_pan_joint,shoulder_lift_joint,elbow_joint,wrist_1_joint,wrist_2_joint,wrist_3_joint,left_driver_joint,left_spring_link_joint,left_follower,right_driver_joint,right_spring_link_joint,right_follower_joint,grasp_box_free.px,grasp_box_free.py,grasp_box_free.pz,grasp_box_free.qw,grasp_box_free.qx,grasp_box_free.qy,grasp_box_free.qz,ctrl_a_shoulder_pan,ctrl_a_shoulder_lift,ctrl_a_elbow,ctrl_a_wrist_1,ctrl_a_wrist_2,ctrl_a_wrist_3,ctrl_a_gripper
1,0,0.0,0.0,0.0,0.0,0.0,0.0,0.0,0.0,0.0,0.0,0.0,0.0,0.0,0.5217108590380051,0.008307347760506368,0.035,1.0,0.0,0.0,0.0,-1.5708,-1.5708,1.5708,-1.5708,-1.5708,0.0,220.0
1,1,0.020000000000000004,0.0014141386179561909,0.004336401879804989,-0.00286143281512405,-0.0007403537503950046,0.0005645608700992225,-7.921276591684763e-05,0.05147739855990774,0.05127205691107828,0.0501682912067551,0.05148270309632509,0.05129571335393541,0.05020303980189801,0.5217108590380051,0.008307347760506368,0.0328418,1.0,0.0,0.0,0.0,0.013999999999999999,0.0,0.0,0.0,0.0,0.0,220.0
1,2,0.04000000000000002,0.005237115898275705,0.012202327010751746,-0.0014711847819248378,-0.0032164753694257026,0.0018334126622968681,-0.0006462022399207338,0.1840718923914372,0.183931933852024,0.18308164300897609,0.184080428285886,0.1839566645697069,0.1830781800738571,0.5217108590380051,0.008307347760506368,0.026759599999999998,1.0,0.0,0.0,0.0,0.015414138617956189,0.0,0.0,0.0,0.0,0.0,220.0
1,3,0.06000000000000004,0.011225600890778113,0.020316854720821183,0.008670185840323133,-0.004877379250233042,0.0025180616173301894,-0.0012050185961866272,0.3831742157796203,0.3831080054006785,0.38257038857011333,0.3831877207552085,0.383137107324192,0.3824976515572213,0.5217108590380051,0.008307347760567163,0.021789309406642095,1.0,1.3437383507104644e-13,-1.1593040640611662e-17,2.191545016432015e-19,0.019237115898275703,0.0,0.0,0.0,0.0,0.0,220.0
1,4,0.08000000000000006,0.015862476934241657,0.029308555139954232,0.007093429907969493,0.0004181991457397804,0.0011340982398548183,0.0005059762904866677,0.6367675109077773,0.6367785537668116,0.636257050365142,0.6367509604983309,0.6367337642260197,0.6364070257629003,0.5217108590380051,0.008307347761522674,0.022525936535474963,1.0,1.8520063552006487e-12,-1.5788884074475803e-16,1.3621427276826626e-19,0.025225600890778112,0.0,0.0,0.0,0.0,0.0,220.0
1,5,0.10000000000000007,0.016613876241655147,0.031090255988756713,0.0011791019682306496,0.0062111910845812374,-0.0008891810733345543,0.0025673345316418457,0.8354161332861425,0.8304107085337261,0.8316767401478689,0.8355230315556798,0.8311752988474522,0.8307152689762879,0.5217108590380051,0.008307347762356684,0.023598865622742958,1.0,2.6943631452688323e-12,-2.3149243315808295e-16,3.188568247078657e-19,0.029862476934241655,0.0,0.0,0.0,0.0,0.0,220.0
1,6,0.12000000000000009,0.017468992945618166,0.022906981359404336,0.013686286531477588,0.001558959593756831,-0.0012995977265196313,0.0009275153207867729,0.8256886960006806,0.8243856683705949,0.8247492957532846,0.8257007814855611,0.8245064341043941,0.8246905354212156,0.5217108590380051,0.008307347762568114,0.024261331341561564,1.0,1.8317753899221794e-12,-1.5517528564653294e-16,8.409151859991463e-19,0.030613876241655145,0.0,0.0,0.0,0.0,0.0,220.0
1,7,0.1400000000000001,0.020105136563823175,0.019312130504778702,0.01492225064126605,-0.0037472728029262162,7.231226747486159e-05,-0.0014086432991270816,0.8255250877240772,0.8242245875736302,0.8262173989492237,0.8255296596439373,0.8243137680544028,0.8260774771317291,0.5217108590380051,0.008307347762629987,0.02460189575312751,1.0,9.265193521367331e-13,-7.572329611678592e-17,9.925051203125453e-19,0.03146899294561817,0.0,0.0,0.0,0.0,0.0,220.0
1,8,0.16000000000000011,0.02514210474112208,0.023782829971786507,-0.00035323107180816295,-0.0031796765079913536,0.002069605784987908,-0.0013540617389511955,0.8257606943229312,0.8243139860394544,0.8273565257275293,0.8257695541379088,0.8244168831717315,0.8271722390951406,0.5217108590380051,0.008307347762657725,0.02475848445022102,1.0,4.1100924570395404e-13,-2.9498364181646196e-17,9.888374737039797e-19,0.03410513656382318,0.0,0.0,0.0,0.0,0.0,220.0
1,9,0.18000000000000013,0.03224480142438462,0.02288432400592866,0.0020167432033566073,-0.002680035122097228,0.003344731516259929,-0.00043409336234115603,0.8257570153801629,0.8243048322901378,0.8274166562440026,0.8257722777409354,0.8244276955641368,0.8271752757228202,0.5217108590380051,0.008307347762669948,0.024829198558217015,1.0,1.7534155648323174e-13,-9.867876555240046e-18,9.700322402780662e-19,0.03914210474112208,0.0,0.0,0.0,0.0,0.0,220.0
1,10,0.20000000000000015,0.04125254409588559,0.018807677593474088,0.016591408469047705,-0.0021252790371483112,0.001912475947635896,0.00025422857143008495,0.825762437897136,0.8243064692608998,0.8274631566686751,0.8257796104602142,0.8244385114837187,0.8271467273503759,0.5217108590380051,0.008307347762675173,0.024861944447798462,1.0,7.417028771773269e-14,-2.1561765419045413e-18,9.226011012657226e-19,0.04624480142438462,0.0,0.0,0.0,0.0,0.0,220.0
1,11,0.22000000000000017,0.05089147164513634,0.023657098291570047,0.00906720740558544,0.003989497049014083,-0.00232171198582865,0.0013079343779967751,0.825761157078903,0.8243254180949023,0.8273897936933152,0.8257595195560358,0.8243964001993402,0.8271914980193381,0.5217108590380051,0.008307347762677377,0.024877499999044317,1.0,3.1442061046168303e-14,-5.037106070521021e-19,9.523074623065561e-19,0.05525254409588559,0.0,0.0,0.0,0.0,0.0,220.0
1,12,0.24000000000000019,0.06062226653969229,0.02883782225318096,-0.0011799414237863976,0.005962902634902761,-0.0038402923853529942,0.0010181004626049828,0.825770015933523,0.8243538967391123,0.8273037636629995,0.8257574570703993,0.8243796402506025,0.8272770453390177,0.5217108590380051,0.008307347762678309,0.024885018521106854,1.0,1.3400718369774077e-14,-1.746491618174897e-19,9.834011184270626e-19,0.06489147164513634,0.0,0.0,0.0,0.0,0.0,220.0
1,13,0.2600000000000002,0.06917064209108059,0.02316291935361984,0.00990216088256237,-0.0015534742201393924,-0.00025393064321815444,-0.0009486023965780564,0.8257673221978581,0.8243537360776001,0.8272704847850483,0.8257560887466124,0.8243754589225981,0.8273049205560884,0.5217108590380051,0.008307347762678703,0.024888689630820325,1.0,5.743303578037808e-15,-1.6182021913071576e-19,1.013711358057284e-18,0.07462226653969228,0.0,0.0,0.0,0.0,0.0,220.0
1,14,0.2800000000000002,0.07933047237508682,0.01964800902154727,0.01773416518003262,-0.007543904323986629,0.004445289442022739,-0.001511482579758254,0.8257553513760958,0.8243092011835728,0.827398511985926,0.8257676646218994,0.8244153658952154,0.8271888498577924,0.5217108590380051,0.008307347762678873,0.024890492168106234,1.0,2.4741351553856616e-15,-2.000914828963105e-19,1.0201107040269244e-18,0.08317064209108059,0.0,0.0,0.0,0.0,0.0,220.0
1,15,0.3000000000000002,0.09120590671071824,0.02617025353956192,0.0034700035527685724,-0.0023457443948517605,0.004018590436675334,0.0003021684149861578,0.8257476720062225,0.8242844892781074,0.8274783749723598,0.8257705450510683,0.8244339509409492,0.8271112163407038,0.5217108590380051,0.008307347762678946,0.02489137983656184,1.0,1.071005692384036e-15,-1.923293427286601e-19,9.919621643500304e-19,0.09333047237508682,0.0,0.0,0.0,0.0,0.0,220.0
1,16,0.32000000000000023,0.10332278941656521,0.02815467025945943,-0.0002939536406191576,0.003767255715157565,-0.0007118972957004542,0.0009934230415613275,0.8257528892203185,0.8243099070582073,0.8274081433595343,0.8257582991418809,0.8244029526141912,0.8271649807537068,0.5217108590380051,0.008307347762678977,0.02489181764016196,1.0,4.623449340927724e-16,-1.6315167733084667e-19,9.81538463872483e-19,0.10520590671071824,0.0,0.0,0.0,0.0,0.0,220.0
1,17,0.34000000000000025,0.11423681205882048,0.02083665242123023,0.014106784697034429,0.0035110411728142446,-0.004441330008922626,-4.670030504581915e-05,0.8257655339373214,0.8243475308407927,0.8273144429536285,0.825752697381992,0.8243729005190031,0.8272595663250217,0.5217108590380051,0.008307347762678994,0.02489203373581746,1.0,1.9863676388341783e-16,-1.3210806542959015e-19,9.61197240660324e-19,0.11732278941656521,0.0,0.0,0.0,0.0,0.0,220.0
1,18,0.36000000000000026,0.12599552977676065,0.019466853450210566,0.014311015993966726,0.0009106535366202286,-0.002808135517488623,3.12888977728815e-05,0.8257524489664158,0.8243388541417871,0.8272797963216404,0.8257385608167868,0.8243564883665074,0.8272675451257697,0.5217108590380051,0.008307347762678994,0.024892140440647956,1.0,8.497024727193495e-17,-1.0810796940301393e-19,9.688322908953671e-19,0.12823681205882048,0.0,0.0,0.0,0.0,0.0,220.0
1,19,0.3800000000000003,0.13950230197060337,0.02550717865556089,1.0345408852406822e-05,-0.0016017343707725837,0.002691709794173388,0.0007422623169870136,0.8257544514729809,0.8243238408764395,0.8273334349188817,0.8257547668097756,0.8243872185912205,0.8272363576157054,0.5217108590380051,0.008307347762678994,0.024892193140385765,1.0,3.597967173338604e-17,-8.389984511335509e-20,9.697287058794511e-19,0.13999552977676066,0.0,0.0,0.0,0.0,0.0,220.0
1,20,0.4000000000000003,0.15435016757247555,0.02543593171851651,0.004498830415044581,-0.0061101831282441305,0.006383712773668759,-0.0007251972897897489,0.8257579470798184,0.8243014199916399,0.8274514510456232,0.8257791413526863,0.8244386633617876,0.827150601867767,0.5217108590380051,0.008307347762678994,0.024892219170504756,1.0,1.3903068862099098e-17,-4.991281135068779e-20,9.47523161723128e-19,0.15350230197060338,0.0,0.0,0.0,0.0,0.0,220.0
1,21,0.4200000000000003,0.16672352980307645,0.020736369243311587,0.013011527393183144,-0.0028124020347445795,0.0018389314817734955,-0.0017954113193165994,0.8257511777491731,0.8242976416944314,0.8274621476255842,0.8257674708217627,0.8244253944233052,0.8271171328955349,0.5217108590380051,0.008307347762678994,0.024892232028271104,1.0,1.9744814553439702e-17,-4.991281135068779e-20,9.47523161723128e-19,0.16835016757247556,0.0,0.0,0.0,0.0,0.0,220.0
1,22,0.44000000000000034,0.1789249598205047,0.021163266082491732,0.007291231636552975,0.005947582207138627,-0.005348930233409957,0.00024550864194071323,0.8257683400692175,0.8243382064405782,0.8273860315669984,0.8257637740052515,0.8243954172680185,0.8272105364647584,0.5217108590380051,0.008307347762678994,0.024892238379616433,1.0,2.0554019087294123e-17,-4.991281135068779e-20,9.47523161723128e-19,0.18072352980307643,0.0,0.0,0.0,0.0,0.0,220.0
1,23,0.46000000000000035,0.19288134497131176,0.022879722932484265,0.0029393199260234967,0.006287340260969871,-0.005210739261592053,0.0024770110423219084,0.8257638039832352,0.8243612148703032,0.8272473500509362,0.8257409645283331,0.8243484163673322,0.8273096834796219,0.5217108590380051,0.008307347762678994,0.02489224151702671,1.0,2.0746015143343922e-17,-4.991281135068779e-20,9.47523161723128e-19,0.19292495982050467,0.0,0.0,0.0,0.0,0.0,220.0
1,24,0.48000000000000037,0.2083900074146982,0.021788044048921623,0.010185420703959237,-0.003440740793890065,0.0024337151023417973,0.0010613748039792156,0.8257685983507782,0.8243494034846266,0.8272980148778867,0.8257616608211421,0.8243825108611113,0.8272899613759247,0.5217108590380051,0.008307347762678994,0.024892243066840732,1.0,2.0814919443605166e-17,-4.991281135068779e-20,9.47523161723128e-19,0.20688134497131178,0.0,0.0,0.0,0.0,0.0,220.0
1,25,0.5000000000000003,0.2231399054239669,0.023078284111106805,0.009335841385158564,-0.007376145073223751,0.0068655995436686925,-0.0019612549593464768,0.8257523011855313,0.8243066805540988,0.8274092885670885,0.825763594150023,0.8244112351219864,0.8271629646409037,0.5217108590380051,0.008307347762678994,0.02489224383241829,1.0,2.100157111883472e-17,-4.991281135068779e-20,9.47523161723128e-19,0.22239000741469822,0.0,0.0,0.0,0.0,0.0,220.0
1,26,0.5200000000000004,0.23584444719829917,0.024828846408599756,0.001113396885021875,-0.0006114749724681573,0.002173289713990784,-0.002361983385661529,0.8257440617334848,0.8242852716183232,0.8274753458302999,0.8257656344285247,0.8244289338002637,0.8271010349148246,0.5217108590380051,0.008307347762678994,0.02489224421059907,1.0,2.1190677444408753e-17,-4.991281135068779e-20,9.47523161723128e-19,0.2371399054239669,0.0,0.0,0.0,0.0,0.0,220.0
1,27,0.5400000000000004,0.2500159660693449,0.021632589032098717,0.008893128745233594,0.002956739764877982,-0.0038758610857027457,6.687726819297315e-05,0.8257548154335193,0.8243223322889583,0.8273852097484495,0.8257538780110448,0.8243920141358987,0.827184637231057,0.5217108590380051,0.008307347762678994,0.02489224439741334,1.0,2.1306584912538902e-17,-4.991281135068779e-20,9.47523161723128e-19,0.24984444719829918,0.0,0.0,0.0,0.0,0.0,220.0
1,28,0.5600000000000004,0.26574098224822296,0.02070291103750825,0.015025277776430179,0.0022125838916705557,-0.004363526950760328,0.0027531321271620068,0.8257624746068621,0.8243501990816267,0.8272949428388456,0.8257460881362239,0.8243607115679757,0.827272697844775,0.5217108590380051,0.008307347762678994,0.024892244489696146,1.0,2.1384195562418498e-17,-4.991281135068779e-20,9.47523161723128e-19,0.2640159660693449,0.0,0.0,0.0,0.0,0.0,220.0
1,29,0.5800000000000004,0.28056964409024127,0.02565871556205419,0.003343151575619541,0.0023883871212890206,-6.473108489030179e-05,0.002312064489736395,0.8257720610386786,0.8243605977560369,0.8272836441221093,0.8257589295639514,0.8243741838122133,0.8273006511259166,0.5217108590380051,0.008307347762678994,0.02489224453528216,1.0,2.151370608878102e-17,-4.991281135068779e-20,9.47523161723128e-19,0.27974098224822297,0.0,0.0,0.0,0.0,0.0,220.0
1,30,0.6000000000000004,0.2959650001404611,0.02635428138785,0.0032815477265277096,-0.0024074458427608644,0.005017736066029263,-0.001872210677182898,0.8257595966119052,0.8243181368386221,0.8273906364799414,0.825770280561277,0.8244149357847426,0.8272006172307972,0.5217108590380051,0.008307347762678994,0.024892244557800817,1.0,2.1618318994676196e-17,-4.991281135068779e-20,9.47523161723128e-19,0.2945696440902413,0.0,0.0,0.0,0.0,0.0,220.0
1,31,0.6200000000000004,0.3094329413013084,0.02121545753952826,0.011726110594588647,-0.005165122133913056,0.0036402298169446352,-0.0036672824729448873,0.825749946634813,0.8242967286477954,0.8274505223172268,0.8257674646043491,0.8244238524800168,0.8271300394804701,0.5217108590380051,0.008307347762678994,0.024892244568924624,1.0,2.0913810191779573e-17,3.711852431244275e-19,9.370342024463418e-19,0.30996500014046113,0.0,0.0,0.0,0.0,0.0,220.0
1,32,0.6400000000000005,0.32306524819992327,0.020336188145074277,0.00935735625930041,-0.0007261462308917489,-0.0021920065086686908,7.54433464941485e-05,0.8257510632958933,0.8243096904268082,0.8274210142233516,0.8257574577881832,0.8244042225833768,0.8271512909887856,0.5217108590380051,0.008307347762678994,0.024892244574419586,1.0,2.2802588126796043e-17,3.3590074733281525e-20,9.32472321445523e-19,0.3234329413013084,0.0,0.0,0.0,0.0,0.0,220.0
1,33,0.6600000000000005,0.33822579999194907,0.022876357503622335,0.0027839266264957814,0.004313172485195165,-0.004380175336682226,0.003715292974175155,0.8257726887124905,0.8243582862829496,0.8273158232885495,0.8257589611087865,0.8243784893680891,0.827272368283107,0.5217108590380051,0.008307347762678994,0.02489224457713399,1.0,2.0689339429355436e-17,1.8223507733699187e-19,9.232184235886931e-19,0.3370652481999233,0.0,0.0,0.0,0.0,0.0,220.0
1,34,0.6800000000000005,0.35480557749538144,0.022543689127284886,0.007925256380098746,0.0018537853769781073,7.123335172970027e-05,0.0015619482974248023,0.8257662621582496,0.8243518636627674,0.8272945710397426,0.8257562673271365,0.8243772110738689,0.8272792143092559,0.5217108590380051,0.008307347762678994,0.024892244578474856,1.0,2.2517807949156736e-17,5.203858719015659e-19,9.152253983342266e-19,0.3522257999919491,0.0,0.0,0.0,0.0,0.0,220.0
1,35,0.7000000000000005,0.3710224115990398,0.02261124270228997,0.01129529433008977,-0.0025189717919317364,0.004302865990994334,-0.002627865781816505,0.8257689326733714,0.8243380642625155,0.8273682663542492,0.8257655891237556,0.8243942462300339,0.8272215194408338,0.5217108590380051,0.008307347762678994,0.02489224457913723,1.0,2.0605866558868607e-17,3.8882293608685663e-20,9.273171063192528e-19,0.36880557749538145,0.0,0.0,0.0,0.0,0.0,220.0
1,36,0.7200000000000005,0.384312335824441,0.024103988236697474,0.002557130459464482,-0.0010841277130201425,0.0018382449732922918,-0.002344686878438157,0.8257470088514871,0.8242993200977325,0.8274302715330859,0.8257609250234565,0.8244136409827509,0.8271405805074487,0.5217108590380051,0.008307347762678994,0.024892244579464422,1.0,2.242687722706834e-17,-2.0635001354953434e-20,9.337074505611926e-19,0.3850224115990398,0.0,0.0,0.0,0.0,0.0,220.0
1,37,0.7400000000000005,0.39902099742641056,0.022097594912080052,0.006268059072272294,-0.0016972454436691045,-0.0016374006366976575,0.0008342683563209396,0.8257501223971829,0.8243146256773081,0.8273800118094989,0.8257521171974629,0.8243911576986842,0.8271840361032846,0.5217108590380051,0.008307347762678994,0.024892244579626046,1.0,2.3364291077645355e-17,-5.08282147179422e-20,9.273406699614003e-19,0.39831233582444103,0.0,0.0,0.0,0.0,0.0,220.0
1,38,0.7600000000000006,0.41511607191238253,0.020338725898005065,0.01339555237058757,-0.0015242996945015234,-0.001794546929493804,0.0023005605549393767,0.8257516288647508,0.8243276308002713,0.8273298392623368,0.8257453602585331,0.8243725017143634,0.8272267640489606,0.5217108590380051,0.008307347762678994,0.024892244579705892,1.0,1.941794175120968e-17,-5.502691866370937e-20,9.238037306412328e-19,0.4130209974264106,0.0,0.0,0.0,0.0,0.0,220.0
1,39,0.7800000000000006,0.43204160668742725,0.02468980811772592,0.007532307267312692,0.0021982680915900612,0.000674584858436884,0.0005887545109269901,0.8257747671126081,0.8243554833933222,0.8273380177121294,0.8257637917936433,0.8243855448712981,0.8272530924498377,0.5217108590380051,0.008307347762678994,0.024892244579745336,1.0,2.1071567848227693e-17,-6.120889626731188e-20,9.293439909912838e-19,0.42911607191238255,0.0,0.0,0.0,0.0,0.0,220.0
1,40,0.8000000000000006,0.44619062084069067,0.026319213794110608,0.0002431317331165353,0.004565188845544325,0.001360058024663562,-0.0015223036402862555,0.8257556345293832,0.8243218426658707,0.8273670777280548,0.8257587757912951,0.82439523669177,0.8272063280890036,0.5217108590380051,0.008307347762678994,0.02489224457976482,1.0,2.2829987097495324e-17,-5.864638262984352e-20,9.177676237815844e-19,0.44604160668742726,0.0,0.0,0.0,0.0,0.0,220.0
1,41,0.8200000000000006,0.4617323953389618,0.021414168619787108,0.012633465226808045,-0.003231597472092416,0.0013139981842014083,-0.0016002642280601486,0.825754404260315,0.8243132573822896,0.8274029143496077,0.8257620755064982,0.8244054649109346,0.8271768682708193,0.5217108590380051,0.008307347762678994,0.024892244579774438,1.0,2.1756788029772816e-17,-2.9136552523817196e-20,8.974933746310007e-19,0.4601906208406907,0.0,0.0,0.0,0.0,0.0,220.0
1,42,0.8400000000000006,0.4772403890463316,0.02115612732482366,0.012895851926705589,-0.005634960641224034,-0.0003701021415180496,0.0009726319951742285,0.8257695594117059,0.8243382355923473,0.8273855414603922,0.82576849358639,0.8244029748871694,0.8272091362773248,0.5217108590380051,0.008307347762678994,0.024892244579779194,1.0,2.0611809538118906e-17,-1.5649103981222945e-21,8.894764595170724e-19,0.47573239533896183,0.0,0.0,0.0,0.0,0.0,220.0
1,43,0.8600000000000007,0.49245466814483474,0.02575121043362992,-0.00016649271994838787,0.0013019556459831782,-0.0013236825828033066,0.0019807070112704546,0.8257673276127424,0.8243406941844171,0.8273494430217019,0.8257630889145215,0.8243912881175423,0.8272414528126528,0.5217108590380051,0.008307347762678994,0.024892244579781547,1.0,2.1503902055957538e-17,-2.0851906882939836e-19,8.96939990813224e-19,0.4912403890463316,0.0,0.0,0.0,0.0,0.0,220.0
1,44,0.8800000000000007,0.5089725897902353,0.02386737758060565,0.006561832196826094,0.00295407717745953,0.0009461514669112645,-0.0008151674543519393,0.8257679219034713,0.8243377446983459,0.827359301129226,0.8257672995927904,0.824398398310914,0.8272376181284803,0.5217108590380051,0.008307347762678994,0.024892244579782705,1.0,2.2637707406565265e-17,-3.4387479716744375e-19,8.951884628381709e-19,0.5064546681448348,0.0,0.0,0.0,0.0,0.0,220.0
1,45,0.9000000000000007,0.5244517494822246,0.0202771320352485,0.014557299506643534,0.0008835960960392635,0.0015305842247815525,-0.00194097737780276,0.8257506012546408,0.8243164074265437,0.8273747066729689,0.8257518581762119,0.8243872227118768,0.8271862441777212,0.5217108590380051,0.008307347762678994,0.024892244579783285,1.0,2.171415708607173e-17,4.0464351141324684e-19,9.179405045511038e-19,0.5229725897902353,0.0,0.0,0.0,0.0,0.0,220.0
1,46,0.9200000000000007,0.5391086087041923,0.02282354520712833,0.00466767901517975,0.00031968941464653933,-0.000872099469655584,0.0009115841716285466,0.8257457269585444,0.8243090024054699,0.8273857903693642,0.8257489432565398,0.8243886474499675,0.8271724354516345,0.5217108590380051,0.008307347762678994,0.024892244579783566,1.0,1.9721755994098152e-17,-8.575242055125015e-20,9.10934877712526e-19,0.5384517494822246,0.0,0.0,0.0,0.0,0.0,220.0
1,47,0.9400000000000007,0.5551347597903773,0.024021306716877702,0.0021947186527316357,-0.0027043305254965794,-0.0010286258524334134,0.002018755485639767,0.8257603581219036,0.8243352317998879,0.8273396891455864,0.8257559934876946,0.8243860302701579,0.8272344176698324,0.5217108590380051,0.008307347762678994,0.0248922445797837,1.0,2.2100040860550138e-17,-3.608370340876096e-20,9.052832573071194e-19,0.5531086087041923,0.0,0.0,0.0,0.0,0.0,220.0
1,48,0.9600000000000007,0.5723657119599306,0.02149424072524023,0.012841852544454137,-0.004963687985182141,0.0018232148304538351,-0.0009499537683653415,0.8257614861778975,0.8243288970270948,0.8273632778907708,0.825763315809394,0.8243975596571121,0.8272223253528893,0.5217108590380051,0.008307347762678994,0.024892244579783767,1.0,2.110726715100331e-17,1.2248894937603802e-19,8.955518525318456e-19,0.5691347597903773,0.0,0.0,0.0,0.0,0.0,220.0
1,49,0.9800000000000008,0.587494954457995,0.022641034209418903,0.00836263097194457,0.0020050717364253137,0.0017165387391390146,-0.002263538488560885,0.8257613513868064,0.8243238506379873,0.8274003348749357,0.8257669960042977,0.8244082277043858,0.827186386859175,0.5217108590380051,0.008307347762678994,0.0248922445797838,1.0,2.1984126132488865e-17,4.0874527669667167e-20,8.932319181237617e-19,0.5863657119599306,0.0,0.0,0.0,0.0,0.0,220.0
1,50,1.0000000000000007,0.6026868170279932,0.024625673081318758,0.0017393274885200538,0.006071627332566832,-0.0007680335557496611,0.0003040299724267443,0.8257658367456412,0.8243285468756363,0.8274086899435801,0.8257697700739167,0.8244100402956145,0.8271912620452866,0.5217108590380051,0.008307347762678994,0.024892244579783816,1.0,2.0892561099174442e-17,2.0007417081165273e-20,8.909358296000687e-19,0.6014949544579951,0.0,0.0,0.0,0.0,0.0,220.0
1,51,1.0200000000000007,0.6192510012302076,0.02202506023528816,0.010512925307031601,-0.000933419723469588,-0.0014848738098961272,0.0024379742602673006,0.8257532364864405,0.8243273685265766,0.8273485230293139,0.8257496211698688,0.824382020617412,0.8272113422176957,0.5217108590380051,0.008307347762678994,0.024892244579783816,1.0,2.1316780072777526e-17,9.849039652766144e-21,8.827851565223192e-19,0.6166868170279932,0.0,0.0,0.0,0.0,0.0,220.0
1,52,1.0400000000000007,0.6352156239816614,0.021875704971217592,0.011427884749495205,-0.004963533169803934,-0.0003898487998038551,0.001111652080778134,0.825751152469189,0.8243333015201882,0.8273004415207519,0.8257389101802756,0.8243587726460516,0.8272415286733236,0.5217108590380051,0.008307347762678994,0.024892244579783816,1.0,2.197061955106664e-17,-6.895498566051913e-21,8.877213900030045e-19,0.6332510012302076,0.0,0.0,0.0,0.0,0.0,220.0
1,53,1.0600000000000007,0.6498234774862661,0.024584980302398085,0.0011370157750460173,-0.00014182504019927654,0.0010769731596935507,-0.0019513462414434955,0.8257496124274838,0.8243210741013518,0.8273393186745996,0.8257500184713202,0.8243844634482657,0.8272167906721581,0.5217108590380051,0.008307347762678994,0.024892244579783816,1.0,2.087315512983919e-17,-3.253268443016594e-20,8.795362622230652e-19,0.6492156239816614,0.0,0.0,0.0,0.0,0.0,220.0
1,54,1.0800000000000007,0.6657480571118725,0.02247778714380831,0.006650686200603581,0.0010549632876278464,0.002554832926229895,-0.002761692741404499,0.8257576769377827,0.8243164309436491,0.827404827987973,0.8257669979567809,0.8244127296709944,0.8271816674557795,0.5217108590380051,0.008307347762678994,0.024892244579783816,1.0,2.1759501022255572e-17,-6.51791684756028e-20,8.79441922523508e-19,0.6638234774862661,0.0,0.0,0.0,0.0,0.0,220.0
1,55,1.1000000000000008,0.6829306016439186,0.020671655523803616,0.015240582856247527,-0.001372304698628304,0.0014341443867826593,0.000659299100459936,0.8257527626036901,0.8243066288869214,0.8274414979065535,0.8257649691245915,0.8244167560548927,0.8271390732663043,0.5217108590380051,0.008307347762678994,0.024892244579783816,1.0,2.1880968388645966e-17,-9.634007210594359e-20,8.626200745565286e-19,0.6797480571118725,0.0,0.0,0.0,0.0,0.0,220.0
1,56,1.1200000000000008,0.6980847396304429,0.0246177669724429,0.0036518037186002534,0.0017917198623948237,-0.0026537735831334867,0.0039327078053021025,0.8257553774012362,0.8243276740474312,0.8273586072025425,0.8257500703522215,0.8243791057365272,0.8272066783569905,0.5217108590380051,0.008307347762678994,0.024892244579783816,1.0,2.0487399819808e-17,4.976276247534734e-19,8.526214113436518e-19,0.6969306016439186,0.0,0.0,0.0,0.0,0.0,220.0
1,57,1.1400000000000008,0.7132816081393075,0.02484250201248708,0.0012547113638330112,0.001962098814462403,-0.0027579608606077893,0.0009895003274578936,0.8257679933650712,0.8243553241228548,0.8272938624581294,0.8257546882070791,0.8243731484098681,0.8272824615883675,0.5217108590380051,0.008307347762678994,0.024892244579783816,1.0,2.2060179974929298e-17,1.0407446012433757e-19,8.628985353728131e-19,0.7120847396304429,0.0,0.0,0.0,0.0,0.0,220.0
1,58,1.1600000000000008,0.7298257915356395,0.020094630174364046,0.015078491729841093,-0.0034684149483655024,0.0020335714221434865,-0.004014102140398763,0.8257594844380759,0.8243341318997885,0.8273336007383613,0.8257580835921645,0.8243893709143849,0.8272388372628748,0.5217108590380051,0.008307347762678994,0.024892244579783816,1.0,2.1830352418684997e-17,-4.410950252949245e-20,8.728680343245758e-19,0.7272816081393075,0.0,0.0,0.0,0.0,0.0,220.0
1,59,1.1800000000000008,0.7461735021570811,0.022463256397560034,0.010478684329811779,-0.002598214289120035,0.003931977129762738,-0.002401646142999769,0.8257620043648253,0.8243177152700638,0.8274278157812713,0.8257721808429369,0.824418893140858,0.8271666736542638,0.5217108590380051,0.008307347762678994,0.024892244579783816,1.0,2.0679087379614096e-17,-9.515827205039891e-20,8.801562374945033e-19,0.7438257915356395,0.0,0.0,0.0,0.0,0.0,220.0
1,60,1.2000000000000008,0.7619889241468649,0.02714887401020115,-0.0015725969806007056,0.0020565386885097897,0.0006884525880416251,0.003011062635256033,0.8257631914833437,0.824316976328705,0.8274441323955125,0.8257745448663145,0.8244245715574735,0.8271579896808826,0.5217108590380051,0.008307347762678994,0.024892244579783816,1.0,2.2816777785951223e-17,-1.1242267667370705e-19,8.963921644192206e-19,0.7601735021570811,0.0,0.0,0.0,0.0,0.0,220.0
1,61,1.2200000000000009,0.7790216524577401,0.0235583774001508,0.010298690394901975,-0.00020888183085930237,-0.00190865700569482,0.002982613830687075,0.8257592194496303,0.824330229564904,0.8273684558525934,0.8257574152764867,0.8243917885272409,0.8272072602996366,0.5217108590380051,0.008307347762678994,0.024892244579783816,1.0,2.1254719448319168e-17,4.72176054403258e-19,8.937750271523814e-19,0.7759889241468649,0.0,0.0,0.0,0.0,0.0,220.0
1,62,1.2400000000000009,0.7929973351734793,0.019654419706100476,0.013850994622019053,0.0009341864506264346,-0.0029307644765997286,-0.001136035394907546,0.8257669362633291,0.8243508403453244,0.8273099558171155,0.8257541826933544,0.8243710672100821,0.8272694327270671,0.5217108590380051,0.008307347762678994,0.024892244579783816,1.0,2.3078669563777034e-17,7.844425610329994e-20,8.777140111792405e-19,0.7930216524577401,0.0,0.0,0.0,0.0,0.0,220.0
1,63,1.260000000000001,0.8081246071476234,0.022560954346201544,0.003219425853330396,0.0022643882717112607,-0.00012899857450983338,-0.0028168093916100733,0.8257527213241945,0.8243309212976937,0.827313230577582,0.8257463261517758,0.8243713125887444,0.8272440351823217,0.5217108590380051,0.008307347762678994,0.024892244579783816,1.0,2.137906476798968e-17,-6.232033299079074e-20,8.749178504496808e-19,0.8069973351734793,0.0,0.0,0.0,0.0,0.0,220.0
1,64,1.280000000000001,0.8245823236931458,0.02320992266441346,0.002639788609958413,-0.002329181030972718,0.0037767148203659484,-0.0003874008960677168,0.8257614795235634,0.8243211336641322,0.8273946320852144,0.825769984558833,0.8244130812850459,0.8271996546573003,0.5217108590380051,0.008307347762678994,0.024892244579783816,1.0,2.2469348224792496e-17,1.1278911594944821e-19,8.868077854338645e-19,0.8221246071476234,0.0,0.0,0.0,0.0,0.0,220.0
1,65,1.300000000000001,0.8421431339634287,0.02094510018186284,0.013365253274646523,-0.007239929691162124,0.004191358835925655,0.0018381290281722434,0.8257478420031601,0.8242915654856121,0.8274624416705915,0.8257675477840823,0.8244257383754634,0.8271205655105724,0.5217108590380051,0.008307347762678994,0.024892244579783816,1.0,2.152757631366111e-17,-1.0973036229699705e-19,8.98332696810276e-19,0.8385823236931458,0.0,0.0,0.0,0.0,0.0,220.0
1,66,1.320000000000001,0.8578392267134263,0.023349522562376837,0.007455604392775839,0.00017160954864465787,-0.001152353830521685,0.0012286586711789938,0.8257588038295812,0.8243202796174641,0.8274164141525993,0.8257623963936686,0.8244043375321006,0.8271637095953844,0.5217108590380051,0.008307347762678994,0.024892244579783816,1.0,2.0709836504778385e-17,3.983658011052879e-19,9.14359631940482e-19,0.8561431339634287,0.0,0.0,0.0,0.0,0.0,220.0
1,67,1.340000000000001,0.8730124965524027,0.025275714344329004,0.0009994563950624649,0.007955074347604901,-0.0049777799205641985,-0.0011685507484924648,0.8257722983969012,0.8243579614067693,0.8273204405586018,0.8257587355050637,0.8243783846480298,0.827265592639695,0.5217108590380051,0.008307347762678994,0.024892244579783816,1.0,2.1664828540812583e-17,-3.340922635505937e-20,9.148032230519317e-19,0.8718392267134263,0.0,0.0,0.0,0.0,0.0,220.0
1,68,1.360000000000001,0.8896453853888759,0.021661102125333398,0.012259964940630306,0.0022024648069676905,-0.0016018138456273866,-0.001645018388492779,0.8257750115333204,0.8243659347468384,0.8272861543306291,0.8257601679047722,0.8243745472036703,0.8273019045786383,0.5217108590380051,0.008307347762678994,0.024892244579783816,1.0,2.0621438418638268e-17,-1.2584057845549884e-19,9.007976400430926e-19,0.8870124965524027,0.0,0.0,0.0,0.0,0.0,220.0
1,69,1.380000000000001,0.9054262034767768,0.021639627744862448,0.011913042522569259,-0.004425567323553667,0.003131560092699691,0.0012599731608080454,0.8257552934219374,0.8243252345442909,0.8273464166281287,0.825755733247641,0.8243867487486601,0.8272241178869444,0.5217108590380051,0.008307347762678994,0.024892244579783816,1.0,2.1588770706627154e-17,4.69172468554842e-20,8.901553766979036e-19,0.903645385388876,0.0,0.0,0.0,0.0,0.0,220.0
1,70,1.400000000000001,0.9212752597180063,0.025757429621527547,0.0012379731190963385,-0.0043057465904456005,0.004114538230820312,0.0021985070638801873,0.8257513192673223,0.8242994911375205,0.8274376627452649,0.8257679558306874,0.8244213583209318,0.8271473656066138,0.5217108590380051,0.008307347762678994,0.024892244579783816,1.0,2.2699951909132206e-17,4.331123163696736e-19,8.69534775752079e-19,0.9194262034767768,0.0,0.0,0.0,0.0,0.0,220.0
1,71,1.420000000000001,0.9382326475247275,0.024571270290186048,0.006916727518466947,-0.0023185122378589305,0.0016027585996651868,-0.001482866135588163,0.8257436896440579,0.8242938833310112,0.8274356793178063,0.82575788789897,0.8244110930086515,0.8271306637423822,0.5217108590380051,0.008307347762678994,0.024892244579783816,1.0,2.1662365244944214e-17,-5.063922780869245e-19,8.562202371871302e-19,0.9352752597180063,0.0,0.0,0.0,0.0,0.0,220.0
1,72,1.440000000000001,0.9529859006536736,0.020987096112985847,0.012053069087280162,0.0034137943729361225,-0.003272334211417446,-0.0029884721729402735,0.8257665771315916,0.8243417101099593,0.8273651593131469,0.8257605133852984,0.8243894322159279,0.8272185102577242,0.5217108590380051,0.008307347762678994,0.024892244579783816,1.0,2.2925254836633265e-17,7.706692295283986e-19,9.751062230794508e-19,0.9522326475247275,0.0,0.0,0.0,0.0,0.0,220.0
1,73,1.460000000000001,0.9679067456990637,0.02171392289138448,0.006408549742721141,0.006177300193972111,-0.004431862753084941,0.0010048367283242816,0.8257608415411638,0.8243491641605969,0.8272925466685095,0.8257447253200835,0.8243597443741104,0.8272700142739113,0.5217108590380051,0.008307347762678994,0.024892244579783816,1.0,1.9787109656623522e-17,-8.090872306683935e-19,1.0335720616713416e-18,0.9669859006536736,0.0,0.0,0.0,0.0,0.0,220.0
1,74,1.480000000000001,0.9843167180443494,0.022788198972690514,0.00439857537625806,-0.0001216218926846508,0.0005568775781710893,0.003965640205341703,0.825765022659523,0.8243493000708619,0.827295779927004,0.8257556882179856,0.8243763287635234,0.8272798064557264,0.5217108590380051,0.008307347762678994,0.024892244579783816,1.0,2.18236815580196e-17,-7.123575949473114e-21,1.0449900786361835e-18,0.9819067456990637,0.0,0.0,0.0,0.0,0.0,220.0
1,75,1.500000000000001,1.0019109876877264,0.022340551690547272,0.010301155523862559,-0.008172680076941134,0.005973909002522738,0.00042512752902110744,0.8257658407453784,0.8243178262653051,0.8274295331737904,0.8257808909978911,0.824431410995737,0.8271807441293112,0.5217108590380051,0.008307347762678994,0.024892244579783816,1.0,2.07361716052003e-17,2.70739977562305e-19,1.0462132860782493e-18,0.9983167180443494,0.0,0.0,0.0,0.0,0.0,220.0
1,76,1.5200000000000011,1.0181834528566676,0.02393087296072031,0.007684891064686323,-0.004669925592236825,0.003908151529261957,-0.004264078571312478,0.8257541345884687,0.824294670770094,0.8274847556855083,0.8257747037899996,0.8244339763495948,0.8271125198954328,0.5217108590380051,0.008307347762678994,0.024892244579783816,1.0,2.1851372581772098e-17,-2.5490601136116517e-19,1.032819182310861e-18,1.0159109876877264,0.0,0.0,0.0,0.0,0.0,220.0
1,77,1.5400000000000011,1.0343873436737334,0.02537741789782128,0.004837738219123092,0.0037316668247858076,-0.0026228724854909418,-0.0028853483279999304,0.8257586225018487,0.8243196175346076,0.8274247725864146,0.8257635486468224,0.8244082574600698,0.8271598708690266,0.5217108590380051,0.008307347762678994,0.024892244579783816,1.0,2.087521260532965e-17,1.3106887557160652e-19,1.0223632459897168e-18,1.0321834528566676,0.0,0.0,0.0,0.0,0.0,220.0
1,78,1.5600000000000012,1.0500914992707497,0.023225899890003895,0.008914568927098493,0.006401760558553363,-0.005754527434798934,0.0031425123160922176,0.825765235130641,0.8243614093693553,0.8272724662037673,0.8257428438833527,0.8243523039701811,0.8272855842856022,0.5217108590380051,0.008307347762678994,0.024892244579783816,1.0,1.9593395180685654e-17,-3.641361377248503e-19,1.0218401142474111e-18,1.0483873436737334,0.0,0.0,0.0,0.0,0.0,220.0
1,79,1.5800000000000012,1.0657937834584992,0.021672691891069008,0.010905362425216895,0.0021009618798987647,-0.0018280151383672492,0.005228394955972332,0.825755447778918,0.8243501313109607,0.8272466394917164,0.8257376315045413,0.8243469166831466,0.8273004388931258,0.5217108590380051,0.008307347762678994,0.024892244579783816,1.0,2.142515676272803e-17,1.5369666900574438e-20,1.0203054783730708e-18,1.0640914992707498,0.0,0.0,0.0,0.0,0.0,220.0
1,80,1.6000000000000012,1.0828624499455328,0.023806879670537174,0.007373895593528471,-0.0043936354295497715,0.004904276659746418,-0.0002632577568149718,0.8257554898517652,0.8243202271463902,0.8273664446760459,0.8257623091424112,0.8244018657455533,0.8272107864094216,0.5217108590380051,0.008307347762678994,0.024892244579783816,1.0,2.2742838084855455e-17,1.496423715950039e-19,1.010542577207387e-18,1.0797937834584992,0.0,0.0,0.0,0.0,0.0,220.0
1,81,1.6200000000000012,1.0997819390549075,0.025628903687892036,0.004263667023481449,-0.006121644946888895,0.005909356215538515,-0.005819842117605392,0.8257556430781094,0.8243008173088596,0.8274612892898385,0.8257735468346153,0.8244296669457389,0.8271302572884756,0.5217108590380051,0.008307347762678994,0.024892244579783816,1.0,2.1327653481890944e-17,-2.0476584209119132e-19,1.022455664186571e-18,1.0968624499455328,0.0,0.0,0.0,0.0,0.0,220.0
1,82,1.6400000000000012,1.115573441370187,0.023415849727942036,0.00779880206096557,-0.001945372223601965,-0.00012651542389198144,-0.003337259460216686,0.825754016146222,0.8243031295588737,0.8274638021355104,0.825768413953224,0.8244233527593567,0.8271256417744753,0.5217108590380051,0.008307347762678994,0.024892244579783816,1.0,2.2259582733413445e-17,1.4969586398777245e-19,1.0257499749583504e-18,1.1137819390549075,0.0,0.0,0.0,0.0,0.0,220.0
1,83,1.6600000000000013,1.1326604941865963,0.02186878672114148,0.012831410661064146,0.0029783727949918085,-0.004958740011548737,0.0039419230600175135,0.8257641803863759,0.8243420281901265,0.8273528469213545,0.8257548961050671,0.8243799962596732,0.8272260829170405,0.5217108590380051,0.008307347762678994,0.024892244579783816,1.0,2.13619659651277e-17,-1.0501941955683124e-19,1.0288104210949296e-18,1.129573441370187,0.0,0.0,0.0,0.0,0.0,220.0
1,84,1.6800000000000013,1.1496831811757746,0.024455202347304576,0.006941084668970514,0.006424735454590003,-0.003669237615497579,0.0060129875781707465,0.8257556901645103,0.8243519683383181,0.8272513033529628,0.8257350408113738,0.8243430451672755,0.8272918722620378,0.5217108590380051,0.008307347762678994,0.024892244579783816,1.0,2.353418046047307e-17,-3.382888892217086e-19,1.0387102497069599e-18,1.1466604941865963,0.0,0.0,0.0,0.0,0.0,220.0
1,85,1.7000000000000013,1.166826214467106,0.0257146944219802,0.004403283092721252,0.0020296167555364083,0.0022434539789970296,-0.00048810065987683367,0.8257684510051697,0.8243551804575824,0.8272922569228641,0.8257560222443542,0.8243728965491403,0.8272815328099306,0.5217108590380051,0.008307347762678994,0.024892244579783816,1.0,1.959425126009821e-17,2.112575854292922e-19,1.080306929451274e-18,1.1636831811757746,0.0,0.0,0.0,0.0,0.0,220.0
1,86,1.7200000000000013,1.1827855540733554,0.02258150615340573,0.009310675162729366,-0.005963935113966722,0.005108725317018622,-0.006193182647746752,0.8257573252464295,0.8243084736838026,0.8274337573917468,0.825773742083361,0.8244266911034488,0.8271592731131299,0.5217108590380051,0.008307347762678994,0.024892244579783816,1.0,2.1444259161772648e-17,-2.381550252038597e-19,1.0787849223638388e-18,1.180826214467106,0.0,0.0,0.0,0.0,0.0,220.0
1,87,1.7400000000000013,1.1998922478801826,0.02181579971910295,0.011332160435687372,-0.008324633541339567,0.0024687484553727874,-0.0029677207733136194,0.8257602812949751,0.8243039154797625,0.8274876563726947,0.8257796037408538,0.824439639599037,0.8271193843213697,0.5217108590380051,0.008307347762678994,0.024892244579783816,1.0,1.9660887128118186e-17,2.1108164964758299e-19,1.0726845991351163e-18,1.1967855540733554,0.0,0.0,0.0,0.0,0.0,220.0
1,88,1.7600000000000013,1.218092635599261,0.025310221420344812,0.0057217376499845325,-0.0006445554297611254,-0.0020836994014574953,0.004116269364210293,0.8257584334152425,0.8243231832908284,0.82740378837045,0.8257606460649436,0.8244010877187083,0.8271772230588001,0.5217108590380051,0.008307347762678994,0.024892244579783816,1.0,2.2061550054023758e-17,-8.845733625069354e-20,1.0670722528692057e-18,1.2138922478801826,0.0,0.0,0.0,0.0,0.0,220.0
1,89,1.7800000000000014,1.2353710891993843,0.02569151051191165,0.005087042515674962,0.007997561202556172,-0.0034736323503060146,0.004635407422747235,0.8257720053133698,0.8243629421317447,0.8272923944768913,0.8257528572706802,0.8243632923863121,0.8272850406458069,0.5217108590380051,0.008307347762678994,0.024892244579783816,1.0,2.2764227607058208e-17,-1.0268850644455725e-19,1.0541683919889793e-18,1.232092635599261,0.0,0.0,0.0,0.0,0.0,220.0
1,90,1.8000000000000014,1.2522164119493964,0.022294563523396888,0.012209617926477763,0.006208527240869602,-0.0006452748964236996,-0.0012725986940268154,0.8257648862156859,0.824353476087288,0.8272977726781595,0.8257509703716466,0.8243671978057124,0.8272697120553513,0.5217108590380051,0.008307347762678994,0.024892244579783816,1.0,2.1742014148840676e-17,2.6218258012004617e-19,1.178694286935757e-18,1.2493710891993843,0.0,0.0,0.0,0.0,0.0,220.0
1,91,1.8200000000000014,1.2689623739265397,0.022281905117041943,0.0101914947215818,-0.0026006186830818683,0.002266698192694084,-0.004002877221325602,0.8257629137789629,0.8243278138290785,0.8273892964627778,0.8257673588293281,0.8244056942123769,0.8272023639834837,0.5217108590380051,0.008307347762678994,0.024892244579783816,1.0,2.0725906748515753e-17,9.282659290919223e-20,1.0280847813088673e-18,1.2662164119493964,0.0,0.0,0.0,0.0,0.0,220.0
1,92,1.8400000000000014,1.2868642571429325,0.02532039664218851,0.003769617208549299,-0.009319772642078828,0.0030202841300564637,-0.00071001132639782,0.8257527444070157,0.8243074693903617,0.8274213474676589,0.8257647612181053,0.8244141267291172,0.8271604642069699,0.5217108590380051,0.008307347762678994,0.024892244579783816,1.0,2.127483352496329e-17,-5.5549274238640645e-19,1.0037725916616493e-18,1.2829623739265397,0.0,0.0,0.0,0.0,0.0,220.0
1,93,1.8600000000000014,1.3047918827355893,0.02487302000303041,0.006253329164690869,-0.006242655139366329,0.0015407404405926844,0.0021812350009139223,0.8257645841860681,0.8243311752677618,0.8273876786309632,0.8257649832355466,0.8244014359956796,0.8271962086001745,0.5217108590380051,0.008307347762678994,0.024892244579783816,1.0,2.302388852584018e-17,-1.8095516953190014e-19,9.987656500110667e-19,1.3008642571429325,0.0,0.0,0.0,0.0,0.0,220.0
1,94,1.8800000000000014,1.3211806679923537,0.021871228157563,0.01069018758139977,0.005184941362259946,-0.0014206262724264834,0.0009778698896109911,0.8257636101965199,0.8243325979869848,0.8273848975406147,0.8257641837210556,0.8244001046508117,0.8272021463283974,0.5217108590380051,0.008307347762678994,0.024892244579783816,1.0,2.1273493272438385e-17,-3.7814612065806115e-20,9.791780599234414e-19,1.3187918827355893,0.0,0.0,0.0,0.0,0.0,220.0
1,95,1.9000000000000015,1.3389421205874477,0.022251374860431005,0.0103763448153906,0.009741879840435785,-0.002461636998562696,-0.0009094350670947645,0.8257527956312051,0.8243279084885194,0.827352987417625,0.8257469700553918,0.8243748484340384,0.8272082777896872,0.5217108590380051,0.008307347762678994,0.024892244579783816,1.0,2.2140401478459982e-17,-4.039787630335922e-20,9.755878777195203e-19,1.3351806679923537,0.0,0.0,0.0,0.0,0.0,220.0
1,96,1.9200000000000015,1.3576205948635445,0.02530625604763285,0.006025831661636151,0.0016162084797033977,-0.0008732925970672163,-2.3935217375689565e-05,0.8257643825686946,0.8243474901864709,0.8273260635276097,0.8257522387874777,0.8243733187861143,0.8272442028327017,0.5217108590380051,0.008307347762678994,0.024892244579783816,1.0,2.0840225737162958e-17,-5.4616449271947e-20,9.753498651277259e-19,1.3529421205874477,0.0,0.0,0.0,0.0,0.0,220.0
1,97,1.9400000000000015,1.3746031248477693,0.025103742894402644,0.005019160684889322,-0.00835744146243678,0.001568650637349138,0.0010654350814054672,0.8257677024454001,0.824340206560707,0.827344755016519,0.8257653768834186,0.8243932112981225,0.8272475890372922,0.5217108590380051,0.008307347762678994,0.024892244579783816,1.0,2.0802925550049993e-17,-1.5588884742658268e-20,9.403731784172904e-19,1.3716205948635445,0.0,0.0,0.0,0.0,0.0,220.0
1,98,1.9600000000000015,1.392085386437248,0.022539132264152578,0.011091737367960137,-0.009347542204021552,0.0036920876181126545,-0.0008107740325579316,0.8257539594525448,0.8243118754748875,0.8274002979290164,0.8257648969068389,0.8244109584283155,0.8271804236204794,0.5217108590380051,0.008307347762678994,0.024892244579783816,1.0,2.125284824063626e-17,3.8105427979327636e-21,9.430308317955986e-19,1.3886031248477693,0.0,0.0,0.0,0.0,0.0,220.0
1,99,1.9800000000000015,1.4097203287975768,0.023264392204888504,0.009227866445918314,0.0018375548715354507,0.002046453532609377,-0.002191837871466356,0.8257520517863823,0.824303277926142,0.8274428866547796,0.8257643788046214,0.8244136217232007,0.8271400348590761,0.5217108590380051,0.008307347762678994,0.024892244579783816,1.0,2.181560404339061e-17,8.55977304558243e-21,9.46879574068088e-19,1.406085386437248,0.0,0.0,0.0,0.0,0.0,220.0
1,100,2.0000000000000013,1.4276400312360271,0.025267065215833932,0.004878420612324493,0.010012516189899972,-0.0022211453812567912,0.00018804368130133028,0.8257618867083156,0.8243252120271224,0.82741553753252,0.8257641139743125,0.8244026129688091,0.8271750859477561,0.5217108590380051,0.008307347762678994,0.024892244579783816,1.0,1.9630820531684594e-17,3.4349109789416596e-20,9.95235218352444e-19,1.4237203287975768,0.0,0.0,0.0,0.0,0.0,220.0
1,101,2.019999999999999,1.4451628918129225,0.023719627879787316,0.008164802102373669,0.004498213017684922,-0.004198157151585675,0.003247498329664747,0.8257720792946706,0.8243635157641771,0.8272962227772703,0.825752093800577,0.8243622101674293,0.8272797004172764,0.5217108590380051,0.008307347762678994,0.024892244579783816,1.0,2.100854674981266e-17,3.472702446149905e-20,9.929563583513338e-19,1.4416400312360271,0.0,0.0,0.0,0.0,0.0,220.0
1,102,2.039999999999997,1.461981121280262,0.02175080493625475,0.010403531630720842,-0.0055355784897222985,-0.0011035788649827022,0.0019603560817391535,0.8257685691079902,0.8243596106518487,0.8272787064942602,0.8257546181593823,0.8243695994695819,0.8272957389846766,0.5217108590380051,0.008307347762678994,0.024892244579783816,1.0,2.1834036404839698e-17,2.4474659226756827e-20,9.893855079058288e-19,1.4591628918129225,0.0,0.0,0.0,0.0,0.0,220.0
1,103,2.0599999999999947,1.4799664526396963,0.02328401790414757,0.007294556184122942,-0.008455559901999709,0.004640358264744557,-0.0028398885367247268,0.825749087465577,0.8243131495904275,0.8273590120097395,0.8257556079298533,0.8243932141283222,0.8272082922009746,0.5217108590380051,0.008307347762678994,0.024892244579783816,1.0,2.0694966919854664e-17,1.425810991324058e-20,9.757349048313258e-19,1.475981121280262,0.0,0.0,0.0,0.0,0.0,220.0
1,104,2.0799999999999925,1.4988847647091368,0.025379706599401603,0.005760299799172764,-0.002745610632810537,0.0059755848683573426,-0.004375750045992481,0.8257409804831101,0.8242816168377036,0.8274729290312125,0.8257656230837187,0.8244296309870057,0.827100001574459,0.5217108590380051,0.008307347762678994,0.024892244579783816,1.0,2.1627533517468583e-17,-3.1970204194084213e-21,9.70029373065223e-19,1.4939664526396963,0.0,0.0,0.0,0.0,0.0,220.0
1,105,2.0999999999999903,1.5155779402750627,0.023846158988488846,0.007121181084842739,0.0056757474640601,-0.0005914555368760041,0.0005365582716978141,0.8257501877344043,0.8243004407952665,0.8274610824640087,0.8257626127592645,0.8244140711735141,0.8271188033277008,0.5217108590380051,0.008307347762678994,0.024892244579783816,1.0,2.1731893777687032e-17,-1.2199949468110191e-19,1.141848475181107e-18,1.5128847647091368,0.0,0.0,0.0,0.0,0.0,220.0
1,106,2.119999999999988,1.533030381830125,0.021808097534223636,0.011656257227203261,0.005750784282843747,-0.006317940655783785,0.005198720520549577,0.8257673818208889,0.8243516407737024,0.8273425718847243,0.8257540922056006,0.824376394192096,0.8272339562325728,0.5217108590380051,0.008307347762678994,0.024892244579783816,1.0,2.1891097700833752e-17,4.1651689611749155e-19,1.1841299050415602e-18,1.5295779402750627,0.0,0.0,0.0,0.0,0.0,220.0
1,107,2.139999999999986,1.551649829918484,0.02372257960806965,0.009481098990407007,-0.00028946646272758736,-0.0038274450660300973,0.0028087786254396103,0.8257763192218487,0.8243824668022772,0.8272353511604625,0.8257474982689729,0.8243458601215701,0.8273366566826116,0.5217108590380051,0.008307347762678994,0.024892244579783816,1.0,2.200644405523302e-17,-2.5324821082031323e-20,1.1861706491184476e-18,1.547030381830125,0.0,0.0,0.0,0.0,0.0,220.0
1,108,2.1599999999999837,1.568209989674695,0.025295886655838627,0.0022993378043944398,-0.003824594685242023,0.003279939786513924,-0.0036307979245112205,0.8257644540509056,0.8243472694046436,0.8272907459753054,0.8257585535471665,0.8243797437155598,0.827287025381858,0.5217108590380051,0.008307347762678994,0.024892244579783816,1.0,2.229435633576846e-17,-1.450949456325421e-19,1.1770512509405614e-18,1.565649829918484,0.0,0.0,0.0,0.0,0.0,220.0
1,109,2.1799999999999815,1.5858427719621266,0.022611893559981142,0.008852596515073901,-0.0063786602756385315,0.00775385813523468,-0.005563746667963328,0.8257491007003712,0.8242879267650071,0.8274677071535838,0.8257740958964498,0.8244347584173317,0.8271258143859672,0.5217108590380051,0.008307347762678994,0.024892244579783816,1.0,2.131619814046196e-17,1.755358710946142e-19,1.1786170593302389e-18,1.582209989674695,0.0,0.0,0.0,0.0,0.0,220.0
1,110,2.1999999999999793,1.6042707445007036,0.021902476459494172,0.013040140201440825,-0.0029639923854107527,0.0032173906065264234,0.00043220544127663856,0.8257384777467066,0.8242728966575559,0.8275209542953011,0.8257624191350141,0.8244292986748476,0.8270512480095541,0.5217108590380051,0.008307347762678994,0.024892244579783816,1.0,2.230842562005096e-17,-1.8863242683970395e-19,1.1810997970710172e-18,1.5998427719621267,0.0,0.0,0.0,0.0,0.0,220.0
1,111,2.219999999999977,1.6222457143789113,0.02558565442426263,0.005016229948236543,0.005495749169360808,-0.0055233738534857905,0.00601789902170797,0.825762652532743,0.8243320840932927,0.8274052951617707,0.8257593304265036,0.8243942078805141,0.8271806308570608,0.5217108590380051,0.008307347762678994,0.024892244579783816,1.0,2.1524639302666727e-17,2.386219295016301e-19,1.1985338704959962e-18,1.6182707445007036,0.0,0.0,0.0,0.0,0.0,220.0
1,112,2.239999999999975,1.6400980808388483,0.0257366715247716,0.0051522488835135626,0.006802534493177929,-0.006882340368750377,0.002681929181945685,0.8257737726791806,0.8243816934302821,0.8272226156395639,0.8257428834068035,0.824338586140173,0.8273424211658525,0.5217108590380051,0.008307347762678994,0.024892244579783816,1.0,2.1128187326158578e-17,1.250779987608302e-18,1.2572933553880262e-18,1.6362457143789113,0.0,0.0,0.0,0.0,0.0,220.0
1,113,2.2599999999999727,1.657015337698938,0.021849598218034134,0.012284716963694157,-0.0003017434032234257,0.0004005455951681516,-0.004210769213566048,0.8257644878136754,0.8243615601567558,0.8272359205802905,0.8257466031488696,0.8243528314924633,0.8273270896327563,0.5217108590380051,0.008307347762678994,0.024892244579783816,1.0,2.1487365727128942e-17,-7.116346632599662e-20,1.1429626453252392e-18,1.6540980808388484,0.0,0.0,0.0,0.0,0.0,220.0
1,114,2.2799999999999705,1.674971493040392,0.02261170404654149,0.01046310439949521,-0.007279849629690759,0.0074624244245973985,-0.004276769549775918,0.8257425074899891,0.8242928251562092,0.8274158510013209,0.8257603491916922,0.8244114872897057,0.8271533909344702,0.5217108590380051,0.008307347762678994,0.024892244579783816,1.0,2.238670206432983e-17,-7.634502791844251e-20,1.1188674765237598e-18,1.671015337698938,0.0,0.0,0.0,0.0,0.0,220.0
1,115,2.2999999999999683,1.6938529590386262,0.02658802464829178,0.0033921449816772,-0.006619325727625077,0.005954487213211585,0.0016175735068956973,0.8257415626710483,0.8242689373717986,0.8275333319591162,0.8257734602582756,0.824447456124152,0.8270556550087897,0.5217108590380051,0.008307347762678994,0.024892244579783816,1.0,2.071130915513625e-17,2.280320331598152e-19,1.1310840846000887e-18,1.688971493040392,0.0,0.0,0.0,0.0,0.0,220.0
1,116,2.319999999999966,1.7114671096708889,0.02514319587454596,0.00633509440126733,0.0007391172179111334,-0.0022602047377270292,0.0039054296020623724,0.8257586696278004,0.8243189376712705,0.8274365157447624,0.8257626141520247,0.824406976231668,0.8271458478427944,0.5217108590380051,0.008307347762678994,0.024892244579783816,1.0,2.240114028139707e-17,-2.0668913798132865e-19,1.1380882295192917e-18,1.7078529590386262,0.0,0.0,0.0,0.0,0.0,220.0
1,117,2.339999999999964,1.7287373117688956,0.021318120859292893,0.013838914626285606,0.006990519322755307,-0.0070930125712075145,0.00011734319917574746,0.8257689680818787,0.8243616194558385,0.8272966434903966,0.8257485382970591,0.8243587470013275,0.8272772147749644,0.5217108590380051,0.008307347762678994,0.024892244579783816,1.0,2.074308617673889e-17,-3.4548769193578216e-19,1.131443938641866e-18,1.725467109670889,0.0,0.0,0.0,0.0,0.0,220.0
1,118,2.3599999999999617,1.7474364263122815,0.023357889245789833,0.010218609772403037,0.0054921538244421435,-0.0029834359853854915,-0.0025756212177477362,0.8257746439781432,0.8243762874388125,0.8272511353848523,0.8257519300848416,0.8243567068618504,0.8273243051130105,0.5217108590380051,0.008307347762678994,0.024892244579783816,1.0,2.1532192420257387e-17,7.818472583552307e-20,1.1391757136985574e-18,1.7427373117688956,0.0,0.0,0.0,0.0,0.0,220.0
1,119,2.3799999999999595,1.7654729207709672,0.02647159281037429,0.0019502873306951676,-0.002538131508120544,0.004427375895705785,-0.0003822560724018335,0.8257574997596615,0.8243306671986966,0.8273285634330071,0.8257579708939898,0.8243872591432068,0.8272434346206881,0.5217108590380051,0.008307347762678994,0.024892244579783816,1.0,2.23184040966414e-17,1.2364789188216322e-20,9.947143279035608e-19,1.7614364263122815,0.0,0.0,0.0,0.0,0.0,220.0
1,120,2.3999999999999573,1.783559891155551,0.02400631055952795,0.007924302565850284,-0.010368900384452004,0.007200754150986861,0.001539027919460211,0.8257559013346367,0.8243021344161016,0.8274498168611446,0.8257725599025757,0.8244248387955853,0.8271409045368266,0.5217108590380051,0.008307347762678994,0.024892244579783816,1.0,2.141214948080002e-17,2.836100918878322e-20,9.735605184395212e-19,1.7794729207709672,0.0,0.0,0.0,0.0,0.0,220.0
1,121,2.419999999999955,1.800001207040329,0.020827055034854918,0.01123649580426841,-0.004554706747520387,0.0012659190009844828,9.396069830241729e-05,0.8257431627366494,0.8242837666798731,0.8274873449919977,0.8257635720429928,0.8244243904840667,0.8270909661534672,0.5217108590380051,0.008307347762678994,0.024892244579783816,1.0,2.231642191190316e-17,-4.431374633797258e-20,9.756649476846588e-19,1.797559891155551,0.0,0.0,0.0,0.0,0.0,220.0
1,122,2.439999999999953,1.8176640580237664,0.022266349878526562,0.0066684257895480515,0.0069607565217517245,-0.005359186883303121,-0.0017425476802970887,0.8257656652080182,0.8243405855382427,0.8273780380416237,0.8257588912621612,0.8243886360256567,0.8272071824364533,0.5217108590380051,0.008307347762678994,0.024892244579783816,1.0,2.1440601359094196e-17,-3.383358829945391e-20,9.671343740106076e-19,1.814001207040329,0.0,0.0,0.0,0.0,0.0,220.0
1,123,2.4599999999999507,1.836634362173123,0.023930998100466432,0.00576154620060159,0.008142774355736718,-0.004743266618297281,-0.0002896343069599371,0.825768530547483,0.8243679869270104,0.8272625764927258,0.8257459879106804,0.8243538107656119,0.8273014968865982,0.5217108590380051,0.008307347762678994,0.024892244579783816,1.0,2.2312964017404808e-17,-9.885346315336251e-20,9.689429288196824e-19,1.8316640580237664,0.0,0.0,0.0,0.0,0.0,220.0
1,124,2.4799999999999485,1.8551062726558636,0.02347690218914384,0.009217401850965019,-0.0012654183298756315,0.00151928950676737,0.0024521212863088653,0.825775733931336,0.824371565958087,0.8272593764908209,0.8257540700864763,0.8243576076029379,0.8273186612365262,0.5217108590380051,0.008307347762678994,0.024892244579783816,1.0,2.0930124714298783e-17,-3.481489965626086e-19,9.68194616092407e-19,1.850634362173123,0.0,0.0,0.0,0.0,0.0,220.0
1,125,2.4999999999999463,1.871013805897932,0.02274107526086384,0.0064171845849771555,-0.006747247852215046,0.0050918378535515065,0.0017131326477932587,0.8257514680941967,0.8243062525500223,0.8274033999340797,0.825764392843926,0.824409878731999,0.8271784077238871,0.5217108590380051,0.008307347762678994,0.024892244579783816,1.0,2.1961688886943207e-17,3.746080353275048e-19,9.919952040960106e-19,1.8691062726558636,0.0,0.0,0.0,0.0,0.0,220.0
1,126,2.519999999999944,1.8880241498483357,0.02216560765238484,0.0066929953062841155,-0.005497407156636514,0.003608364157206349,-0.0026218855623217213,0.8257534047865823,0.8242964793073414,0.8274769269024405,0.8257743113344629,0.8244354239130953,0.8271174101310215,0.5217108590380051,0.008307347762678994,0.024892244579783816,1.0,2.1045464351383512e-17,-5.485636256166255e-19,9.990291523155109e-19,1.885013805897932,0.0,0.0,0.0,0.0,0.0,220.0
1,127,2.539999999999942,1.9061121820278493,0.022260477100489055,0.00898631882305351,0.0006118747289255818,-0.00119648952705473,-0.0037076542157599432,0.8257437944067568,0.8242997975321984,0.8274274607280698,0.8257518293204505,0.8243990540941764,0.8271346170323332,0.5217108590380051,0.008307347762678994,0.024892244579783816,1.0,1.9645638400932404e-17,3.381443608964418e-19,1.000207728791987e-18,1.9020241498483357,0.0,0.0,0.0,0.0,0.0,220.0
1,128,2.5599999999999397,1.9247969201085149,0.024212091582219906,0.008635193770564395,0.005209540785138585,-0.004072478718484512,0.0010901260970960585,0.8257727960746868,0.8243632709503096,0.8273173256653802,0.8257517236456359,0.8243636418194932,0.8272605957325345,0.5217108590380051,0.008307347762678994,0.024892244579783816,1.0,2.159270164689279e-17,-1.2834170749137759e-20,9.959165479253804e-19,1.9201121820278493,0.0,0.0,0.0,0.0,0.0,220.0
1,129,2.5799999999999375,1.9402583610357789,0.024139746268817174,0.004125370187977496,0.005752670857894441,-0.003012160349952251,0.005185249738647747,0.8257656306685307,0.8243623810877785,0.8272569231152348,0.8257465038502535,0.8243555235627524,0.8273059271911536,0.5217108590380051,0.008307347762678994,0.024892244579783816,1.0,2.3325181424449243e-17,-1.4437020857208822e-19,9.874216602316966e-19,1.938796920108515,0.0,0.0,0.0,0.0,0.0,220.0
1,130,2.5999999999999353,1.9571038147124928,0.021422596246263824,0.010069315817085573,-0.0027844576335756587,0.0026660401956976553,0.0015043970968931573,0.8257574635556685,0.8243332699264397,0.8273249595170913,0.8257559263533742,0.8243850830445261,0.8272456193570779,0.5217108590380051,0.008307347762678994,0.024892244579783816,1.0,2.1615753334908622e-17,1.3353427617868364e-19,9.929060840535151e-19,1.9542583610357789,0.0,0.0,0.0,0.0,0.0,220.0
1,131,2.619999999999933,1.9750910518266118,0.02211097603162171,0.011154802603479147,-0.008312238674780295,0.0057240852280263255,-0.004628618764754135,0.8257483526830129,0.8242952777731077,0.8274499651842986,0.825768399844156,0.8244265338732704,0.8271297748212244,0.5217108590380051,0.008307347762678994,0.024892244579783816,1.0,2.2724681331357984e-17,-3.772493252900056e-19,9.829168261358351e-19,1.9711038147124929,0.0,0.0,0.0,0.0,0.0,220.0
1,132,2.639999999999931,1.9930935374329244,0.02635798099074721,0.003585719039170596,-0.003571877885703186,0.0020993362990695047,-0.004214644326319374,0.8257439363457267,0.8242892222952055,0.8274638808012625,0.8257603124905707,0.8244160182984425,0.8271085425033144,0.5217108590380051,0.008307347762678994,0.024892244579783816,1.0,2.1287033449572374e-17,1.760743872215179e-19,9.556950649751313e-19,1.9890910518266118,0.0,0.0,0.0,0.0,0.0,220.0
1,133,2.6599999999999286,2.009909312231311,0.025574219536844325,0.004947688696713347,0.004098363991097791,-0.003709064375017035,0.0019618458867034375,0.8257516570048848,0.8243232197563345,0.8273630246660802,0.8257471314245872,0.8243779828254874,0.8271965963919792,0.5217108590380051,0.008307347762678994,0.024892244579783816,1.0,2.2014242631103074e-17,-2.529792496079255e-19,9.517199406929968e-19,2.007093537432924,0.0,0.0,0.0,0.0,0.0,220.0
1,134,2.6799999999999264,2.0264367502385787,0.021249459118613347,0.013766278277210076,0.006066190044395499,-0.004580089750197553,0.005339808826636674,0.8257740530851232,0.8243695803350319,0.8272805418289191,0.8257538356468807,0.8243638576026037,0.8272977764636074,0.5217108590380051,0.008307347762678994,0.024892244579783816,1.0,2.087968575422649e-17,5.5882660478730675e-19,9.950383504589625e-19,2.0239093122313108,0.0,0.0,0.0,0.0,0.0,220.0
1,135,2.6999999999999242,2.04369122916734,0.022462610492816372,0.010388167101664098,0.002536500670385312,5.960229093676827e-06,0.0017782364161261794,0.8257569972704649,0.8243433673555186,0.827293064855111,0.8257469368642494,0.8243670025647962,0.8272641813287549,0.5217108590380051,0.008307347762678994,0.024892244579783816,1.0,2.3157050580410264e-17,-4.535117874128098e-19,1.0247528983807778e-18,2.0404367502385785,0.0,0.0,0.0,0.0,0.0,220.0
1,136,2.719999999999922,2.062148961773451,0.026583061483591377,0.003136957354657625,-0.004631568730516675,0.004940940939629855,-0.004044601545583144,0.825740227758566,0.8242987782035143,0.8273829952353758,0.825750998754015,0.8243953321125513,0.8271706506661011,0.5217108590380051,0.008307347762678994,0.024892244579783816,1.0,2.1013037487133743e-17,4.7999158934034213e-20,1.039620677406548e-18,2.05769122916734,0.0,0.0,0.0,0.0,0.0,220.0
1,137,2.73999999999992,2.078455850772622,0.024617685644251142,0.005023953495759309,-0.007483545882719246,0.003799184281232353,-0.004451794519616225,0.8257522542184621,0.8243004797430691,0.827446513922347,0.8257694351204916,0.8244241526675948,0.8271393782042746,0.5217108590380051,0.008307347762678994,0.024892244579783816,1.0,2.174732507245925e-17,3.407837620195754e-19,1.0044370312465346e-18,2.076148961773451,0.0,0.0,0.0,0.0,0.0,220.0
1,138,2.7599999999999176,2.0953247626705522,0.02060600185617462,0.013363850116128895,-0.0033302738034203163,-0.0007864822072468777,0.0008108276082537037,0.8257592892905719,0.824317019245033,0.8274320918876003,0.8257676706986736,0.8244147018479637,0.8271581352487707,0.5217108590380051,0.008307347762678994,0.024892244579783816,1.0,2.0747978539374482e-17,-2.2186538112903064e-19,9.84096238103428e-19,2.092455850772622,0.0,0.0,0.0,0.0,0.0,220.0
1,139,2.7799999999999154,2.113444666172939,0.02281274486384173,0.009662882108587938,0.0058766404871223865,-0.0036534744844643756,0.004903898484257988,0.8257506108615355,0.8243273509857166,0.8273447175668303,0.8257428777382453,0.824369865759578,0.8272090251924576,0.5217108590380051,0.008307347762678994,0.024892244579783816,1.0,2.124164265328249e-17,2.653122435702578e-19,9.750007652317227e-19,2.109324762670552,0.0,0.0,0.0,0.0,0.0,220.0
1,140,2.7999999999999132,2.131872701491528,0.02668150135881772,0.0027535292228427965,0.00852128691196356,-0.0019967785334025615,0.0023328413610983673,0.8257759871064602,0.8243723991148715,0.8272778121136044,0.8257532459388987,0.8243605606174653,0.8272979370584593,0.5217108590380051,0.008307347762678994,0.024892244579783816,1.0,2.3142643308276896e-17,-1.3499908333890499e-19,9.607458045638909e-19,2.1274446661729387,0.0,0.0,0.0,0.0,0.0,220.0
1,141,2.819999999999911,2.1487602244158364,0.024022942629050574,0.007733905269592738,-0.0003739130320266393,0.001653923423915101,-0.0031851918748160824,0.8257682633908956,0.8243435504330502,0.82734315793882,0.8257659719490139,0.8243946817856059,0.8272480877527041,0.5217108590380051,0.008307347762678994,0.024892244579783816,1.0,2.0959039641594378e-17,1.7156265921680928e-20,9.641331836256462e-19,2.1458727014915278,0.0,0.0,0.0,0.0,0.0,220.0
1,142,2.839999999999909,2.1659422826526256,0.02121091492719761,0.01364471645044782,-0.010009968467934869,0.003577450188815138,-0.0038460307944246756,0.8257615017972215,0.8243193653681807,0.8274157782794227,0.8257713665224221,0.8244169861671043,0.8271772876565979,0.5217108590380051,0.008307347762678994,0.024892244579783816,1.0,2.1527779173377523e-17,5.0957245864554516e-20,9.748023312497397e-19,2.162760224415836,0.0,0.0,0.0,0.0,0.0,220.0
1,143,2.8599999999999066,2.1833175242357314,0.024299348362848583,0.005236668107432103,-0.0060485866004614435,0.0016507583560685908,0.0008435336214541872,0.8257598363148536,0.8243132059322509,0.8274416201623198,0.8257721697184575,0.8244228904439141,0.8271552059657128,0.5217108590380051,0.008307347762678994,0.024892244579783816,1.0,2.2676234322936227e-17,-2.922225062860754e-19,9.819278690238348e-19,2.1799422826526254,0.0,0.0,0.0,0.0,0.0,220.0
1,144,2.8799999999999044,2.2017373168442065,0.0258040757547527,0.0038280717614398697,0.0034559297492368682,-0.0007178680828642883,0.003166464019286307,0.825750721457474,0.8243148316668073,0.8273863536471961,0.825753450421536,0.824391599365381,0.8271821413338106,0.5217108590380051,0.008307347762678994,0.024892244579783816,1.0,2.1616935027411287e-17,2.0607638949249106e-19,9.849426294829506e-19,2.1973175242357312,0.0,0.0,0.0,0.0,0.0,220.0
1,145,2.899999999999902,2.218134853721169,0.0220402390286895,0.009959664330268094,0.008875252745436725,-0.002563891421034145,0.0008564597760601676,0.8257604606711442,0.8243428119009868,0.8273196522557014,0.8257483198624729,0.824367273103365,0.8272433711271437,0.5217108590380051,0.008307347762678994,0.024892244579783816,1.0,2.229462313323563e-17,8.977354180083692e-20,1.1686100039620585e-18,2.2157373168442063,0.0,0.0,0.0,0.0,0.0,220.0
1,146,2.9199999999999,2.2339668931667203,0.02004415570455309,0.010069738159846449,0.004437868396958793,-0.0022330425247467527,-0.0013472729740468903,0.825755504657813,0.8243362273774649,0.8273210801331247,0.8257460851297151,0.8243681509743037,0.8272397101167153,0.5217108590380051,0.008307347762678994,0.024892244579783816,1.0,2.1328803014717455e-17,7.560963585171768e-20,1.225428142840378e-18,2.2321348537211687,0.0,0.0,0.0,0.0,0.0,220.0
1,147,2.939999999999898,2.251187641398515,0.022026262552723996,0.004777128091329012,-0.006071640034833117,0.0011305840986606933,-0.0007644682265232317,0.8257610172716829,0.8243337247039126,0.8273433627783744,0.8257584935254667,0.8243876530344034,0.8272365116428207,0.5217108590380051,0.008307347762678994,0.024892244579783816,1.0,2.2436757211182654e-17,3.879248012164e-20,1.2235821210081428e-18,2.24796689316672,0.0,0.0,0.0,0.0,0.0,220.0
1,148,2.9599999999998956,2.2694496918996734,0.023363688346377996,0.005183174225908835,-0.011041944882380354,0.004678103729542218,-6.18447780257746e-05,0.8257612798559278,0.8243175599918405,0.8274090510843672,0.8257732136968648,0.8244205380437992,0.8271872943742988,0.5217108590380051,0.008307347762678994,0.024892244579783816,1.0,2.1536956280209826e-17,-2.1756821899206866e-19,1.2049526811463448e-18,2.265187641398515,0.0,0.0,0.0,0.0,0.0,220.0
1,149,2.9799999999998934,2.2880083769866904,0.023504394428060918,0.010200779436693352,-0.0037585742321783913,0.003978058253598247,-0.0008006567950930984,0.825752595997599,0.8243061746353384,0.827440246884638,0.8257626152876947,0.8244114030575986,0.8271356664710351,0.5217108590380051,0.008307347762678994,0.024892244579783816,1.0,2.078982950752454e-17,3.0559429786912965e-19,1.1907211816297822e-18,2.283449691899673,0.0,0.0,0.0,0.0,0.0,220.0
1,150,2.999999999999891,2.3031534602261,0.023423735489358475,0.006176962565587319,0.010651149367670644,-0.0027581199507032386,-0.00016071445387142556,0.8257590632219717,0.8243197179789876,0.8274226902059472,0.8257627060448347,0.824402479764363,0.8271660904592502,0.5217108590380051,0.008307347762678994,0.024892244579783816,1.0,2.1739335511030818e-17,3.2595445590050103e-19,1.1788165947055942e-18,2.30200837698669,0.0,0.0,0.0,0.0,0.0,220.0
1,151,3.019999999999889,2.319814947728269,0.022488331103485804,0.008230156770750329,0.00960884461587288,-0.005974073571023658,0.0017320355103529828,0.825760825733043,0.8243489505236888,0.8273065004705095,0.8257436441271275,0.8243590595412575,0.8272547161939475,0.5217108590380051,0.008307347762678994,0.024892244579783816,1.0,2.27351364778503e-17,-6.5644711503779845e-19,1.1767973503259419e-18,2.3171534602260997,0.0,0.0,0.0,0.0,0.0,220.0
1,152,3.039999999999887,2.337897292460916,0.02267831125783782,0.01149423271970429,-0.004273190296062335,-0.001494509212689966,0.0020175999433984623,0.8257607070393583,0.8243538024040841,0.8272599106997433,0.825743235665245,0.8243529797755874,0.827299602577037,0.5217108590380051,0.008307347762678994,0.024892244579783816,1.0,2.1731649950984842e-17,3.3119037174976475e-19,1.1885860506930042e-18,2.3338149477282686,0.0,0.0,0.0,0.0,0.0,220.0
1,153,3.0599999999998846,2.354100818417095,0.024891381967957888,0.004362504953198545,-0.010099597045122245,0.004719727798786391,-0.0007722114904235219,0.825748411886513,0.8243199041713103,0.8273190099031548,0.8257505239995706,0.8243813955875755,0.8272360358683337,0.5217108590380051,0.008307347762678994,0.024892244579783816,1.0,2.0717672588685743e-17,-1.0394720486252944e-19,1.179947702118837e-18,2.3518972924609156,0.0,0.0,0.0,0.0,0.0,220.0
1,154,3.0799999999998824,2.3708154129493306,0.02447658607010089,0.005088405440113571,-0.005403730450851858,0.006658960071144714,-0.003927665062115935,0.8257522682132773,0.8242919146703434,0.8274736601947976,0.8257777325963734,0.8244416166379062,0.8271218209793989,0.5217108590380051,0.008307347762678994,0.024892244579783816,1.0,2.1797998254250392e-17,3.9293503706986046e-19,1.1718413130619823e-18,2.3681008184170946,0.0,0.0,0.0,0.0,0.0,220.0
1,155,3.09999999999988,2.3883973377456833,0.022253214483547487,0.012755527255657819,0.003011638856798035,0.001335486754864767,-0.0019660382521183867,0.8257552329256668,0.8242988935669064,0.8275021300664255,0.8257721301408171,0.8244312348252764,0.8270939113321742,0.5217108590380051,0.008307347762678994,0.024892244579783816,1.0,2.2863742660957223e-17,-5.861479713199545e-19,1.164581260894587e-18,2.3848154129493304,0.0,0.0,0.0,0.0,0.0,220.0
1,156,3.119999999999878,2.404154212989162,0.02290149830529807,0.007822875417698041,0.009643075928229475,-0.006847790657628369,0.004077063996056863,0.8257691230348543,0.8243481862688326,0.8273699175479822,0.8257584767898232,0.824383641709103,0.8272189127163285,0.5217108590380051,0.008307347762678994,0.024892244579783816,1.0,2.185168038804813e-17,3.711464725813549e-19,1.1718832724633832e-18,2.402397337745683,0.0,0.0,0.0,0.0,0.0,220.0
1,157,3.139999999999876,2.4214225882085416,0.02412825175544877,0.005390817091615116,0.0036110273979142473,-0.006092269662854122,0.004848365239776977,0.8257688007410287,0.8243779249742766,0.8272143394098641,0.8257388668008784,0.8243370109812587,0.8273418106850463,0.5217108590380051,0.008307347762678994,0.024892244579783816,1.0,2.2869603130572418e-17,-5.753739104942729e-19,1.1844154437117366e-18,2.4181542129891618,0.0,0.0,0.0,0.0,0.0,220.0
1,158,3.1599999999998736,2.439417715818901,0.02343840996562464,0.009869284915129532,-0.0075482189366420024,0.0032010508824037334,-0.0017464950493781381,0.8257729550693057,0.8243675560996027,0.827249455976526,0.8257539547748461,0.8243597217342561,0.8273265634850945,0.5217108590380051,0.008307347762678994,0.024892244579783816,1.0,2.1997981023178118e-17,5.259321831314734e-19,1.1803158672734789e-18,2.4354225882085414,0.0,0.0,0.0,0.0,0.0,220.0
1,159,3.1799999999998714,2.455565744285696,0.02341324028457254,0.0074343600872242835,-0.007957935065075354,0.00849888039858993,-0.006149291208552809,0.8257446628626048,0.8242864229833655,0.8274474357629751,0.8257693137993144,0.8244286994536445,0.8271325880910658,0.5217108590380051,0.008307347762678994,0.024892244579783816,1.0,2.2200208078126432e-17,-1.2214478295766917e-19,1.1569740819387223e-18,2.453417715818901,0.0,0.0,0.0,0.0,0.0,220.0
1,160,3.199999999999869,2.472756858238985,0.024016622090116034,0.006275404654882071,-0.0011351601463061144,0.004192001881883547,-0.0020829947266428474,0.8257449073624457,0.824272788516959,0.8275459802823364,0.8257765432925647,0.8244524282376081,0.8270479892563957,0.5217108590380051,0.008307347762678994,0.024892244579783816,1.0,2.2357726406864958e-17,-3.3759537116124e-19,1.1433885340885252e-18,2.469565744285696,0.0,0.0,0.0,0.0,0.0,220.0
1,161,3.219999999999867,2.4905291858441636,0.02364177948184445,0.009247079616687474,0.00506954378961479,-0.004813942700886148,0.004916479598358566,0.8257599970970151,0.8243287988966188,0.8274075152915701,0.8257525491194525,0.8243842438454281,0.8271672416015343,0.5217108590380051,0.008307347762678994,0.024892244579783816,1.0,2.0450814628987194e-17,2.0848605175363264e-20,1.1497713226262953e-18,2.486756858238985,0.0,0.0,0.0,0.0,0.0,220.0
1,162,3.2399999999998648,2.5067961631959887,0.022977237288798517,0.008429117644664334,0.007004926891066157,-0.008296002554611189,0.005220062961316193,0.8257743784087906,0.8243805681816286,0.8272361648979916,0.8257438089918183,0.8243399908243674,0.8273355319233425,0.5217108590380051,0.008307347762678994,0.024892244579783816,1.0,2.215381366182021e-17,5.856392376495906e-20,1.1624442663092341e-18,2.5045291858441634,0.0,0.0,0.0,0.0,0.0,220.0
1,163,3.2599999999998626,2.5245205044381005,0.023332012592399757,0.00881673870585081,0.000170486025445096,-0.0006867497441453552,-0.0017900216336017502,0.8257563789730157,0.824359343612434,0.8272049549799794,0.8257339921085138,0.8243357912944794,0.8273355793668311,0.5217108590380051,0.008307347762678994,0.024892244579783816,1.0,2.238333927408151e-17,5.705593403287361e-20,1.18132370748946e-18,2.5207961631959885,0.0,0.0,0.0,0.0,0.0,220.0
1,164,3.2799999999998604,2.541828596219669,0.02434403278597047,0.006391360497028347,-0.006646122768099874,0.007799175048245811,-0.0058472607880234485,0.8257517818570297,0.8243125833920741,0.827368066624352,0.8257606135570152,0.8243993606458666,0.8272037429810469,0.5217108590380051,0.008307347762678994,0.024892244579783816,1.0,2.3288178899734215e-17,2.937393800361834e-20,1.1923899263783107e-18,2.5385205044381003,0.0,0.0,0.0,0.0,0.0,220.0
1,165,3.299999999999858,2.5582303456936213,0.02378334120961241,0.005438781066352422,-0.00650625830702562,0.006691478617755048,-0.0016552586155626921,0.8257449917902965,0.8242729351891155,0.8275309245369872,0.8257786122227766,0.8244546520345877,0.8270622790448838,0.5217108590380051,0.008307347762678994,0.024892244579783816,1.0,2.140425442636231e-17,3.335348467478495e-20,1.1915657992962414e-18,2.5558285962196687,0.0,0.0,0.0,0.0,0.0,220.0
1,166,3.319999999999856,2.575684000625887,0.02213219876171721,0.010343234379101278,-0.0009320741078072384,-0.0015421963242649916,0.00405298178422401,0.8257485379160412,0.8242956868385256,0.8274812569854052,0.8257633851058273,0.824421434100556,0.8270988279101047,0.5217108590380051,0.008307347762678994,0.024892244579783816,1.0,2.245559753870335e-17,-2.022320938341627e-19,1.1895457500048962e-18,2.572230345693621,0.0,0.0,0.0,0.0,0.0,220.0
1,167,3.3399999999998538,2.593821470209142,0.023378130403167306,0.009999185693965974,0.006495266812697926,-0.007213095043137778,0.0036363840500117733,0.8257823723267811,0.8243820553520707,0.8272943113462536,0.8257540668023794,0.8243575623490784,0.8272929764506518,0.5217108590380051,0.008307347762678994,0.024892244579783816,1.0,2.1521681691882102e-17,-5.478582336973967e-20,1.1823994856646742e-18,2.589684000625887,0.0,0.0,0.0,0.0,0.0,220.0
1,168,3.3599999999998515,2.610459958694802,0.02496637418971974,0.004284580078551081,0.008136891977537558,-0.0044220525922925484,-0.001282622764566586,0.8257806516969515,0.8243892936633638,0.8272144033172755,0.8257515979265339,0.8243454346485023,0.8273687096717497,0.5217108590380051,0.008307347762678994,0.024892244579783816,1.0,2.055365853223973e-17,4.259086145248544e-20,1.345733587259707e-18,2.607821470209142,0.0,0.0,0.0,0.0,0.0,220.0
1,169,3.3799999999998493,2.628438776002843,0.023546120710449512,0.009574436599843904,-0.003089176996658678,0.004518243963725286,-0.0037635668270765282,0.825755527483253,0.8243318544119616,0.8273108517899466,0.8257541650228011,0.824380112641525,0.8272567674878226,0.5217108590380051,0.008307347762678994,0.024892244579783816,1.0,2.1599153045607696e-17,-3.197825108017107e-19,1.3613411595529991e-18,2.6244599586948016,0.0,0.0,0.0,0.0,0.0,220.0
1,170,3.399999999999847,2.644519830692635,0.02237477004841224,0.008906046675315384,-0.009773936434003167,0.007238742753160375,-0.0004214208709998088,0.8257520456515541,0.8242902473227884,0.8274775182880885,0.8257769559065056,0.8244384713020606,0.8271192157720835,0.5217108590380051,0.008307347762678994,0.024892244579783816,1.0,2.0570537229822936e-17,-2.879189340079442e-20,1.357877144162976e-18,2.6424387760028427,0.0,0.0,0.0,0.0,0.0,220.0
1,171,3.419999999999845,2.66114586854306,0.023246662485994316,0.004814504988826682,-0.004968025354620733,0.0018792461121443615,0.002570308486175977,0.8257549323325051,0.824293858346419,0.8275061596821554,0.8257773349145188,0.8244423431026502,0.827096093526797,0.5217108590380051,0.008307347762678994,0.024892244579783816,1.0,2.1609756665044697e-17,-3.777145067136865e-19,1.357368163919297e-18,2.6585198306926348,0.0,0.0,0.0,0.0,0.0,220.0
1,172,3.4399999999998427,2.6788949596057017,0.022778198169689783,0.007702045133689956,0.004154199227423332,-0.004307561730439953,0.0006622595061354726,0.8257608504203385,0.8243305156850985,0.8273838944681248,0.8257572583439375,0.8243892719990333,0.8271985014225971,0.5217108590380051,0.008307347762678994,0.024892244579783816,1.0,2.0609020655807183e-17,-8.765804388105944e-20,1.3512618177306656e-18,2.67514586854306,0.0,0.0,0.0,0.0,0.0,220.0
1,173,3.4599999999998405,2.697352122179169,0.02281967378350388,0.011534210852016821,0.007569570756075632,-0.004632150759763301,-0.0018288054164016857,0.8257870639091909,0.8243910945857337,0.8272679464577413,0.8257570502169901,0.8243557878878554,0.827323762039509,0.5217108590380051,0.008307347762678994,0.024892244579783816,1.0,2.2585273469123417e-17,-5.5870000721372705e-19,1.3399460337426508e-18,2.6928949596057015,0.0,0.0,0.0,0.0,0.0,220.0
1,174,3.4799999999998383,2.712746781134473,0.02368777051311363,0.004490079258194564,0.004524419563082622,-0.0007848885767817402,4.335150535955385e-05,0.8257685148926432,0.8243612028043126,0.8272711166204418,0.8257533428284075,0.8243653741809486,0.8273036340269468,0.5217108590380051,0.008307347762678994,0.024892244579783816,1.0,2.1190412103199527e-17,1.972244947679277e-19,1.3591470409891086e-18,2.7113521221791688,0.0,0.0,0.0,0.0,0.0,220.0
1,175,3.499999999999836,2.729483545457583,0.022508900322805545,0.006427337864669739,-0.006710843332086319,0.004753900959579649,0.0019745783341403914,0.8257517964429102,0.8243129451320793,0.8273734761577038,0.8257599771874466,0.8243999844783767,0.8272022617484213,0.5217108590380051,0.008307347762678994,0.024892244579783816,1.0,2.2257772285566008e-17,1.4690218830406723e-19,1.361848645321404e-18,2.726746781134473,0.0,0.0,0.0,0.0,0.0,220.0
1,176,3.519999999999834,2.7472548687128433,0.02162290998043168,0.011217834911125801,-0.011176499797417827,0.005663775077229998,-8.376001897317358e-05,0.8257499553330185,0.8242878196134714,0.8274839065458943,0.8257744719376349,0.8244374965885741,0.8271095610591684,0.5217108590380051,0.008307347762678994,0.024892244579783816,1.0,2.113538488933644e-17,-1.0226328989281132e-19,1.3761868757200034e-18,2.743483545457583,0.0,0.0,0.0,0.0,0.0,220.0
1,177,3.5399999999998317,2.7651086663118103,0.02471905836479027,0.006643327554057081,-0.001041277485682053,0.00034159710287929576,-0.0029164228321481825,0.8257504052834476,0.8243038041065629,0.8274446722905513,0.8257572556329319,0.8244038653385577,0.827127046975748,0.5217108590380051,0.008307347762678994,0.024892244579783816,1.0,2.2205674498364648e-17,2.1775775619244614e-19,1.3761639927498688e-18,2.761254868712843,0.0,0.0,0.0,0.0,0.0,220.0
1,178,3.5599999999998295,2.781581318973886,0.025557952420505823,0.0036021147453507364,0.010296275492822932,-0.005469895962336126,-0.0013573901463665209,0.8257625315839552,0.8243442709224976,0.8273416848871034,0.8257516156763458,0.824376544682277,0.8272276462592435,0.5217108590380051,0.008307347762678994,0.024892244579783816,1.0,2.12841107883088e-17,-4.100634747660649e-19,1.3751270220361908e-18,2.77910866631181,0.0,0.0,0.0,0.0,0.0,220.0
1,179,3.5799999999998273,2.7986145517145324,0.022142392400863624,0.012245017744082565,0.006637536988186218,-0.004272948251519697,0.003033685649438938,0.8257774410922096,0.8243841258329131,0.8272357045264738,0.8257466330239779,0.8243436611626106,0.8273345852843035,0.5217108590380051,0.008307347762678994,0.024892244579783816,1.0,2.217480203018499e-17,5.849775571641043e-20,1.3634284786275856e-18,2.795581318973886,0.0,0.0,0.0,0.0,0.0,220.0
1,180,3.599999999999825,2.8145599368336356,0.021670478191197027,0.010159436158369265,-0.0027092098403384644,0.0013549554314980733,0.004118006135368675,0.8257749035689781,0.824357881036521,0.8273117577603214,0.8257670479678455,0.8243881049719551,0.827284853374714,0.5217108590380051,0.008307347762678994,0.024892244579783816,1.0,2.3251332478276714e-17,-2.0822187723799123e-19,1.3552130517919246e-18,2.8126145517145322,0.0,0.0,0.0,0.0,0.0,220.0
1,181,3.619999999999823,2.831729288553988,0.024502881877897065,0.0034160757365762793,-0.008686187327639447,0.006133000990959816,-0.0012785061484564372,0.8257551062922288,0.8243068121862607,0.8274219179125145,0.8257715537751188,0.8244242078682695,0.8271665689109872,0.5217108590380051,0.008307347762678994,0.024892244579783816,1.0,1.971675493181878e-17,8.799555454403201e-20,1.3760271891825241e-18,2.8285599368336354,0.0,0.0,0.0,0.0,0.0,220.0
1,182,3.6399999999998207,2.849831449980882,0.02443691357289404,0.006972135551655203,-0.0069664748501681506,0.004932395929409413,-0.006213309086366346,0.8257442170349125,0.8242808385596196,0.8274950222934232,0.8257702623361466,0.8244377687185114,0.8270886942290883,0.5217108590380051,0.008307347762678994,0.024892244579783816,1.0,2.199645333660314e-17,-5.978509008992604e-20,1.3958420032938473e-18,2.8457292885539878,0.0,0.0,0.0,0.0,0.0,220.0
1,183,3.6599999999998185,2.8661999224377253,0.02258613118563935,0.010072461119134306,0.00305019516151713,-0.0023584461483903726,-0.002284555480539727,0.8257499323945413,0.8243073658047705,0.8274296579238999,0.8257556226764774,0.8243997846362131,0.8271412568189275,0.5217108590380051,0.008307347762678994,0.024892244579783816,1.0,1.987088351568306e-17,2.0763561836490436e-19,1.4203576897925491e-18,2.8638314499808817,0.0,0.0,0.0,0.0,0.0,220.0
1,184,3.6799999999998163,2.883044445268739,0.02296829115982447,0.008520409524621936,0.009329435532485202,-0.006678367520425802,0.00574285478641732,0.8257601182552352,0.8243492867184993,0.8273027551019532,0.825741781348224,0.824356101882199,0.8272560240066199,0.5217108590380051,0.008307347762678994,0.024892244579783816,1.0,2.1671595235585762e-17,3.3249126621449226e-19,1.4309333250374563e-18,2.880199922437725,0.0,0.0,0.0,0.0,0.0,220.0
1,185,3.699999999999814,2.9013073490917547,0.024390080923487878,0.008183210155706899,0.0037221524794937757,-0.002296568878405567,0.005963855679097303,0.8257781064421629,0.8243770704431731,0.8272574308606816,0.8257572069813983,0.8243636629176117,0.8273286640222861,0.5217108590380051,0.008307347762678994,0.024892244579783816,1.0,2.1818393904382004e-17,-1.7291300012839556e-19,1.411408264416756e-18,2.897044445268739,0.0,0.0,0.0,0.0,0.0,220.0
1,186,3.719999999999812,2.917355483875561,0.02392839146062992,0.006245902909717542,-0.004661962606407165,0.004360108629758955,-0.002339092684733178,0.8257471967780132,0.8243214521073853,0.8273117832100121,0.8257477659242463,0.8243764545864465,0.8272397492774863,0.5217108590380051,0.008307347762678994,0.024892244579783816,1.0,1.9723361347151294e-17,1.5095723722707608e-19,1.4021058636959854e-18,2.9153073490917545,0.0,0.0,0.0,0.0,0.0,220.0
1,187,3.7399999999998097,2.9343627071477734,0.02275548204248028,0.008681936920276084,-0.009446596262176032,0.0066164986388500945,-0.0077904670678625165,0.8257427685379152,0.8242834013378781,0.8274659830750613,0.8257678489669849,0.8244312341163745,0.827110640217623,0.5217108590380051,0.008307347762678994,0.024892244579783816,1.0,2.2143822498115516e-17,-1.1674822728354538e-19,1.3998987102244782e-18,2.931355483875561,0.0,0.0,0.0,0.0,0.0,220.0
1,188,3.7599999999998075,2.952369697177073,0.023507951132627342,0.009180975327277536,-0.004631108636869476,0.0017699829768248983,-0.0023174774227650605,0.8257519577002158,0.8242926713987085,0.8275018044380953,0.8257733191528945,0.824437195162904,0.8270923206286299,0.5217108590380051,0.008307347762678994,0.024892244579783816,1.0,2.2282120364352298e-17,-1.0250867103356936e-19,1.3886078407105153e-18,2.948362707147773,0.0,0.0,0.0,0.0,0.0,220.0
1,189,3.7799999999998053,2.9699422634673773,0.025105988826182174,0.0062033985446941185,0.005957802848723514,-0.004847190234638238,0.0063659261377076,0.8257581363220491,0.8243320965031073,0.8273682392843773,0.8257515682050486,0.8243807951725974,0.827201624968943,0.5217108590380051,0.008307347762678994,0.024892244579783816,1.0,2.0627558449304987e-17,2.8027915930521724e-19,1.4316012188082342e-18,2.9663696971770728,0.0,0.0,0.0,0.0,0.0,220.0
1,190,3.799999999999803,2.9871267598796005,0.024155304853874654,0.008107630047542193,0.009509761022414293,-0.005292541751064084,0.00581759967402809,0.8257755019485292,0.8243775238640978,0.8272526299573,0.8257506053437558,0.8243533899959408,0.8273241636808883,0.5217108590380051,0.008307347762678994,0.024892244579783816,1.0,2.1036740829886464e-17,-5.32836273061797e-19,1.464396181501324e-18,2.983942263467377,0.0,0.0,0.0,0.0,0.0,220.0
1,191,3.819999999999801,3.004100083946737,0.022548309188111914,0.010652072981332555,0.002037400831867971,0.0005099603762179092,-0.002496599271264276,0.8257684254391432,0.8243595659710157,0.8272754757699825,0.8257547193272153,0.8243682999903749,0.827299049740782,0.5217108590380051,0.008307347762678994,0.024892244579783816,1.0,2.1529319837157866e-17,4.980969105977914e-19,1.5211461904743579e-18,3.0011267598796003,0.0,0.0,0.0,0.0,0.0,220.0
1,192,3.8399999999997987,3.021614121442304,0.0237314002286659,0.007583978004784772,-0.00823375156804113,0.005677586599204117,-0.006447264238862957,0.8257483323438435,0.8243021114605014,0.8274075395680749,0.8257621199176238,0.824409121251232,0.8271689751150867,0.5217108590380051,0.008307347762678994,0.024892244579783816,1.0,2.342388296938243e-17,2.4531336091121273e-19,1.5280652229209356e-18,3.0181000839467367,0.0,0.0,0.0,0.0,0.0,220.0
1,193,3.8599999999997965,3.040080440810829,0.02546651342561362,0.0058467684979028175,-0.010659263479776094,0.00498600853277937,-0.001532830248559945,0.8257402538971516,0.8242800196311054,0.8274774425463446,0.8257646675212292,0.824429793273716,0.8270941662509872,0.5217108590380051,0.008307347762678994,0.024892244579783816,1.0,2.1952476504633446e-17,-6.091172661877288e-20,1.5258471830758733e-18,3.0356141214423036,0.0,0.0,0.0,0.0,0.0,220.0
1,194,3.8799999999997943,3.056144942788412,0.02355857369949218,0.006352262092331329,0.0002958489475513814,-0.00146725992922952,0.004487545778891844,0.8257574258769244,0.8243171055969091,0.82742209603199,0.825764249863013,0.8244097814833306,0.82715958428429,0.5217108590380051,0.008307347762678994,0.024892244579783816,1.0,2.0558279409733524e-17,1.3071479098733235e-19,1.5380006472176762e-18,3.0540804408108286,0.0,0.0,0.0,0.0,0.0,220.0
1,195,3.899999999999792,3.07335255582301,0.02101460993242192,0.01154114923117557,0.009881646620779165,-0.005045904778939916,0.0034055923931221835,0.8257673579168021,0.8243522142305855,0.8273310009933066,0.8257546449442011,0.8243761986106091,0.8272452028009712,0.5217108590380051,0.008307347762678994,0.024892244579783816,1.0,2.093764123695853e-17,1.536642529919519e-19,1.524240780474825e-18,3.0701449427884118,0.0,0.0,0.0,0.0,0.0,220.0
1,196,3.91999999999979,3.0919746250458666,0.022774911883165376,0.010125667166986731,0.00748830866243934,-0.002478123332934398,-0.0014660808875748095,0.8257743828903901,0.8243635948054563,0.8273072276118313,0.8257590482164806,0.8243736891197363,0.82728286321773,0.5217108590380051,0.008307347762678994,0.024892244579783816,1.0,2.2047322515763996e-17,-3.5278754650282612e-19,1.5240254264655839e-18,3.08735255582301,0.0,0.0,0.0,0.0,0.0,220.0
1,197,3.9399999999997877,3.109750007255776,0.025974128199429413,0.0029225756065928005,-0.0033764918927868624,0.0022736461699825084,-0.002829310145272723,0.8257652413558813,0.8243442428874875,0.8273231548007562,0.8257589777569736,0.8243835708179724,0.8272539588816317,0.5217108590380051,0.008307347762678994,0.024892244579783816,1.0,2.2222153514291358e-17,4.257490991488912e-19,1.5220565168223105e-18,3.1059746250458664,0.0,0.0,0.0,0.0,0.0,220.0
1,198,3.9599999999997855,3.1268725851676953,0.024213232966660798,0.006340933512939864,-0.011955948935819184,0.00487898699628448,-0.0006414993278073139,0.8257550656921419,0.824307520538704,0.8274152382470478,0.8257694092643907,0.8244181000501046,0.8271729194838624,0.5217108590380051,0.008307347762678994,0.024892244579783816,1.0,2.2341840904321488e-17,4.46108867999607e-20,1.5110025550240148e-18,3.123750007255776,0.0,0.0,0.0,0.0,0.0,220.0
1,199,3.9799999999997833,3.1446036249063742,0.021737276600313975,0.013206706371058783,-0.007132188194528817,0.003106887811899931,0.0009375328201363961,0.825763353551605,0.8243128477615721,0.827462627836944,0.8257774774951797,0.8244304428981281,0.8271417675788969,0.5217108590380051,0.008307347762678994,0.024892244579783816,1.0,2.2918299504103588e-17,-5.620975244026021e-20,1.4956742068253365e-18,3.140872585167695,0.0,0.0,0.0,0.0,0.0,220.0
1,200,3.999999999999781,3.1620600912438928,0.024107274292388063,0.007081159932547052,0.008251908083503285,-0.0022468707008702253,0.0008342027807292325,0.8257636119751535,0.8243254826149187,0.82742748369394,0.825767763872404,0.824409668008998,0.8271681935207027,0.5217108590380051,0.008307347762678994,0.024892244579783816,1.0,2.063203781971979e-17,1.3606118560304704e-19,1.4863210827901282e-18,3.158603624906374,0.0,0.0,0.0,0.0,0.0,220.0
1,201,4.019999999999779,3.180614428530589,0.02587074773771486,0.005352188175874234,0.011729914581866053,-0.004644485129412385,0.0002618812467242389,0.8257683557503337,0.8243575404071022,0.8273147595897045,0.8257492308132579,0.8243624461825962,0.8272571246587973,0.5217108590380051,0.008307347762678994,0.024892244579783816,1.0,2.0648828509866708e-17,-3.1299194429558216e-19,1.4727003686256259e-18,3.1760600912438925,0.0,0.0,0.0,0.0,0.0,220.0
1,202,4.039999999999777,3.1970262873802864,0.02271949996970109,0.009568356606713957,0.0006366451208076235,-0.0022730076069016883,0.0005796320959267798,0.8257653298882398,0.8243598980650433,0.8272625903802953,0.8257472000374272,0.8243559242612707,0.827303294155779,0.5217108590380051,0.008307347762678994,0.024892244579783816,1.0,2.1562921843704634e-17,2.675040120198812e-19,1.425902582260494e-18,3.194614428530589,0.0,0.0,0.0,0.0,0.0,220.0
1,203,4.059999999999775,3.2147172359226683,0.021786643415784398,0.011599007014483671,-0.01176864541546293,0.0037243948191448594,0.0001359308795273995,0.8257606996802683,0.8243303221172156,0.8273468902639203,0.8257626817575902,0.8243947922604772,0.8272356605643013,0.5217108590380051,0.008307347762678994,0.024892244579783816,1.0,2.0554330219239766e-17,-2.9567410513855934e-19,1.4109313966537747e-18,3.211026287380286,0.0,0.0,0.0,0.0,0.0,220.0
1,204,4.079999999999773,3.233367171386997,0.025392220577665527,0.005166423631324076,-0.00932396107530969,0.006508867479487536,-0.0015993714071508656,0.8257562804336779,0.8242964183864577,0.8274726253320841,0.8257791761830616,0.8244386453526028,0.8271324773144362,0.5217108590380051,0.008307347762678994,0.024892244579783816,1.0,2.169783098842391e-17,-2.0463121290614694e-19,1.4065119333616097e-18,3.228717235922668,0.0,0.0,0.0,0.0,0.0,220.0
1,205,4.0999999999997705,3.250520666343715,0.025695656043187153,0.002904521591247122,0.004029778927028574,0.001698517124139047,-0.0020524984676383107,0.8257544432283016,0.82430178303289,0.827471029380663,0.8257708450342001,0.8244276312039633,0.8271172050086034,0.5217108590380051,0.008307347762678994,0.024892244579783816,1.0,2.08848587280188e-17,7.928294778576117e-20,1.4062478444065245e-18,3.2473671713869967,0.0,0.0,0.0,0.0,0.0,220.0
1,206,4.119999999999768,3.267617845460037,0.021202391748547943,0.012393128417560653,0.009846995660957826,-0.0051135061144572305,0.0007012375591878602,0.8257639322332299,0.8243352566369566,0.8273909040077312,0.8257592447180762,0.8243901977963588,0.8271954799963913,0.5217108590380051,0.008307347762678994,0.024892244579783816,1.0,2.1709140636554436e-17,-1.5369422145254307e-19,1.4079694271194074e-18,3.264520666343715,0.0,0.0,0.0,0.0,0.0,220.0
1,207,4.139999999999766,3.28615067263746,0.021539769488111198,0.01371178663175127,0.003634998118190179,-0.005775332018818959,0.00389354397763294,0.8257638158507146,0.8243618404545917,0.8272728639258384,0.8257411091745627,0.8243499867752621,0.8272841457915819,0.5217108590380051,0.008307347762678994,0.024892244579783816,1.0,2.2870799957431892e-17,3.192325770876917e-19,1.4164354065400712e-18,3.281617845460037,0.0,0.0,0.0,0.0,0.0,220.0
1,208,4.159999999999764,3.304402623321074,0.02675323461100437,0.002035014873876161,-0.004491986455506426,0.0005536981007448679,0.0021248395390895,0.8257666270718961,0.824360185751861,0.8272524853640543,0.8257505412634056,0.8243598934098824,0.8273166557989594,0.5217108590380051,0.008307347762678994,0.024892244579783816,1.0,2.188020952070567e-17,-2.927557998021157e-19,1.4165848062727197e-18,3.30015067263746,0.0,0.0,0.0,0.0,0.0,220.0
1,209,4.179999999999762,3.321975288434827,0.02596314848786751,0.0034612209619821117,-0.008465156639275068,0.0072545817399390115,-0.003962784278561843,0.8257496389495648,0.8243125497565242,0.8273564637478794,0.8257568153018383,0.8243950088607852,0.8272048593223175,0.5217108590380051,0.008307347762678994,0.024892244579783816,1.0,2.0472641144602268e-17,2.966011516183124e-19,1.4137259734534193e-18,3.3184026233210737,0.0,0.0,0.0,0.0,0.0,220.0
1,210,4.1999999999997595,3.3382211751492354,0.02039000399330253,0.01306837315425458,-0.0036377358288346446,0.005419383130193709,-0.005203694534904275,0.8257428148839113,0.8242752386936728,0.8275142797030975,0.8257727025127135,0.8244435961387487,0.8270719571027096,0.5217108590380051,0.008307347762678994,0.024892244579783816,1.0,2.2091575399115465e-17,-1.061912871464446e-19,1.4096033660753141e-18,3.3359752884348266,0.0,0.0,0.0,0.0,0.0,220.0
1,211,4.219999999999757,3.3556756335072686,0.02103738965438326,0.010624795273941423,0.005205919747544827,-0.0029328958101005644,0.0016561820813882546,0.8257461051601324,0.8242966139950322,0.8274703289903242,0.8257566796480134,0.8244090657275291,0.8271021006103053,0.5217108590380051,0.008307347762678994,0.024892244579783816,1.0,2.2240361705056045e-17,-8.847537047549686e-20,1.4251450743876702e-18,3.3522211751492352,0.0,0.0,0.0,0.0,0.0,220.0
1,212,4.239999999999755,3.374430730051343,0.025465056218242757,0.0028147551484540186,0.00744744440148933,-0.007379038861827835,0.00679210646870259,0.8257669902370073,0.8243601465138062,0.827292810441253,0.8257450040049444,0.824354420896866,0.8272767501831334,0.5217108590380051,0.008307347762678994,0.024892244579783816,1.0,2.0380881641122416e-17,3.074673337281558e-19,1.4441712215077494e-18,3.3696756335072684,0.0,0.0,0.0,0.0,0.0,220.0
1,213,4.259999999999753,3.3925599963483957,0.02470144352406683,0.006548800098640106,0.0002294048316990042,-0.002302689549549276,0.001913110702922199,0.8257900314335572,0.8244107277332992,0.8271729038900534,0.8257489930462298,0.8243307257751359,0.8274041096615417,0.5217108590380051,0.008307347762678994,0.024892244579783816,1.0,2.1857148742976258e-17,-7.215939824438388e-20,1.4314985506946134e-18,3.388430730051343,0.0,0.0,0.0,0.0,0.0,220.0
1,214,4.279999999999751,3.407159889858123,0.020392618498160587,0.009241806171766316,-0.004828397608774375,0.004815718194637463,-0.005650923843111964,0.8257626466115533,0.8243363640926072,0.8273271724143415,0.8257646826971572,0.8243957751769988,0.8272550835487732,0.5217108590380051,0.008307347762678994,0.024892244579783816,1.0,1.9784099856783766e-17,2.4386896687059344e-19,1.4192387933919971e-18,3.4065599963483955,0.0,0.0,0.0,0.0,0.0,220.0
1,215,4.2999999999997485,3.423037439594491,0.019581219001430502,0.007236936949556338,-0.005420447216165342,0.006650501207933889,-0.004929550942357373,0.8257495605339735,0.824283225200825,0.8274995754624513,0.8257774686068506,0.8244442892475408,0.8270983526455973,0.5217108590380051,0.008307347762678994,0.024892244579783816,1.0,2.2162201217982543e-17,-4.1082216728326884e-20,1.4234149921006626e-18,3.4211598898581226,0.0,0.0,0.0,0.0,0.0,220.0
1,216,4.319999999999746,3.4400429780000374,0.021296889342882385,0.003574874735638377,-0.0014090255669893471,0.0009790796060847695,0.0027606570427247457,0.8257391080756732,0.824278476288863,0.8274914347191182,0.8257595387483914,0.8244227148254047,0.8270790056825111,0.5217108590380051,0.008307347762678994,0.024892244579783816,1.0,2.118749248367778e-17,1.5306742072683774e-19,1.4340155317867711e-18,3.4370374395944907,0.0,0.0,0.0,0.0,0.0,220.0
1,217,4.339999999999744,3.458186226371195,0.021768135658243547,0.007830023861063714,0.0022305699891858317,-0.004666092227666833,0.005621212855533527,0.8257573338927024,0.824330561687483,0.8273654772986329,0.8257507817789828,0.8243796207813668,0.82720629944075,0.5217108590380051,0.008307347762678994,0.024892244579783816,1.0,2.227108466848568e-17,-8.377644278277972e-20,1.452257205350501e-18,3.4540429780000372,0.0,0.0,0.0,0.0,0.0,220.0
1,218,4.359999999999742,3.4764040094031223,0.023158774070112274,0.010807295905140742,0.003990603503331585,-0.004019117190312647,0.0001498502145570626,0.8257758056594339,0.8243841873654024,0.8272326013209464,0.8257416759650481,0.8243363084123072,0.8273287950291848,0.5217108590380051,0.008307347762678994,0.024892244579783816,1.0,2.1297916509168915e-17,-3.4289255922658435e-20,1.4737647009306173e-18,3.472186226371195,0.0,0.0,0.0,0.0,0.0,220.0
1,219,4.37999999999974,3.490573926291426,0.024285774702664437,0.0028712580128698404,0.004718834676534935,1.087345941026194e-05,-0.004391047498965808,0.8257644003481559,0.8243548810691476,0.827270817353683,0.8257516674484944,0.8243661941236238,0.8272983425408503,0.5217108590380051,0.008307347762678994,0.024892244579783816,1.0,2.2417685387585855e-17,-2.3324863924343847e-20,1.4870104957836243e-18,3.490404009403122,0.0,0.0,0.0,0.0,0.0,220.0
1,220,4.3999999999997375,3.5061779157732196,0.021902958785429943,0.007508929485981207,-0.00413884871688124,0.00476329338787669,-0.0021844748585851705,0.8257527286101872,0.824310391955427,0.8273909078185018,0.8257636568265077,0.8244077143765997,0.8271883449470488,0.5217108590380051,0.008307347762678994,0.024892244579783816,1.0,2.1478637362257372e-17,2.0199516522842747e-19,1.4772364723219926e-18,3.504573926291426,0.0,0.0,0.0,0.0,0.0,220.0
1,221,4.419999999999735,3.5229634003690116,0.02089354094177939,0.012442189720663289,-0.009685023198478837,0.004453670154750992,0.0028570072232372316,0.8257389727375002,0.8242786780755706,0.827471676939416,0.8257617395596667,0.824423699937394,0.827098851791162,0.5217108590380051,0.008307347762678994,0.024892244579783816,1.0,2.0666095611104738e-17,-3.4104106945860025e-19,1.4774461987982415e-18,3.5201779157732194,0.0,0.0,0.0,0.0,0.0,220.0
1,222,4.439999999999733,3.540316724165228,0.02524346802639455,0.005800457968272128,-0.0019882621116143412,-0.0005482418940704832,0.0028515057972034407,0.8257704683717372,0.8243330333353271,0.8274284335400105,0.8257715239686312,0.8244107964017149,0.8271736404463998,0.5217108590380051,0.008307347762678994,0.024892244579783816,1.0,2.1619658866421085e-17,-3.7660808594894106e-19,1.4835824584684563e-18,3.5369634003690114,0.0,0.0,0.0,0.0,0.0,220.0
1,223,4.459999999999731,3.556100079678501,0.026209248229383617,0.0028563893878666468,0.008675134405063591,-0.004637611337573723,-0.0018450421521145005,0.8257780359038659,0.8243628689032019,0.827329640414951,0.8257654390628766,0.8243849158085109,0.8272695421532587,0.5217108590380051,0.008307347762678994,0.024892244579783816,1.0,2.275973613741133e-17,5.180648426945639e-19,1.4942958068467175e-18,3.554316724165228,0.0,0.0,0.0,0.0,0.0,220.0
1,224,4.479999999999729,3.5718267809978257,0.02174873098570879,0.012525258922312217,0.006597279194779499,-0.0028402494697454,-0.003161455822420275,0.8257646793675132,0.8243630765947086,0.8272526108974464,0.8257425953991284,0.8243499049978802,0.8273020367261578,0.5217108590380051,0.008307347762678994,0.024892244579783816,1.0,2.177429402543959e-17,-4.345147934220583e-19,1.5036457774401004e-18,3.5701000796785007,0.0,0.0,0.0,0.0,0.0,220.0
