ikatsov/phy-harness/artifacts/base_rotation/joints.csv
episode,sim_step,time_sec,shoulder_pan_joint,shoulder_lift_joint,elbow_joint,wrist_1_joint,wrist_2_joint,wrist_3_joint,left_driver_joint,left_spring_link_joint,left_follower,right_driver_joint,right_spring_link_joint,right_follower_joint,grasp_box_free.px,grasp_box_free.py,grasp_box_free.pz,grasp_box_free.qw,grasp_box_free.qx,grasp_box_free.qy,grasp_box_free.qz,target_a_shoulder_pan,ctrl_a_shoulder_pan,target_a_shoulder_lift,ctrl_a_shoulder_lift,target_a_elbow,ctrl_a_elbow,target_a_wrist_1,ctrl_a_wrist_1,target_a_wrist_2,ctrl_a_wrist_2,target_a_wrist_3,ctrl_a_wrist_3,target_a_gripper,ctrl_a_gripper
1,0,0.0,0.0,0.0,0.0,0.0,0.0,0.0,0.0,0.0,0.0,0.0,0.0,0.0,0.52171,0.00831,0.035,1.0,0.0,0.0,0.0,-1.5708,-1.5708,-1.5708,-1.5708,1.5708,1.5708,-1.5708,-1.5708,-1.5708,-1.5708,0.0,0.0,220.0,220.0
1,1,0.02,0.0033,0.0017,0.00049,-8e-05,7e-05,-1e-05,0.05125,0.05107,0.04997,0.05124,0.05104,0.04994,0.52171,0.00831,0.03284,1.0,0.0,0.0,0.0,0.014,0.014,0.0,0.0,0.0,0.0,0.0,0.0,0.0,0.0,0.0,0.0,220.0,220.0
1,2,0.04,0.00869,0.00411,0.00154,-6e-05,5e-05,-1e-05,0.1837,0.18356,0.18267,0.18369,0.18356,0.18272,0.52171,0.00831,0.02676,1.0,0.0,0.0,0.0,0.0173,0.0173,0.0,0.0,0.0,0.0,0.0,0.0,0.0,0.0,0.0,0.0,220.0,220.0
1,3,0.06,0.01435,0.00591,0.00237,-3e-05,3e-05,0.0,0.38287,0.38281,0.38219,0.38286,0.38281,0.38224,0.52171,0.00831,0.02179,1.0,0.0,-0.0,0.0,0.02269,0.02269,0.0,0.0,0.0,0.0,0.0,0.0,0.0,0.0,0.0,0.0,220.0,220.0
1,4,0.08,0.02007,0.00693,0.00283,-1e-05,1e-05,0.0,0.63643,0.63643,0.63599,0.63643,0.63642,0.63603,0.52171,0.00831,0.02253,1.0,0.0,-0.0,0.0,0.02835,0.02835,0.0,0.0,0.0,0.0,0.0,0.0,0.0,0.0,0.0,0.0,220.0,220.0
1,5,0.1,0.0258,0.00739,0.00303,0.0,2e-05,0.0,0.8351,0.83019,0.83118,0.83522,0.83091,0.82994,0.52171,0.00831,0.0236,1.0,0.0,-0.0,-0.0,0.03406,0.03406,0.0,0.0,0.0,0.0,0.0,0.0,0.0,0.0,0.0,0.0,220.0,220.0
1,6,0.12,0.03152,0.00753,0.00308,0.0,0.0,0.0,0.82567,0.82441,0.82458,0.82567,0.82443,0.82476,0.52171,0.00831,0.02426,1.0,0.0,-0.0,-0.0,0.0398,0.0398,0.0,0.0,0.0,0.0,0.0,0.0,0.0,0.0,0.0,0.0,220.0,220.0
1,7,0.14,0.03723,0.00754,0.00306,-0.0,0.0,0.0,0.82558,0.82425,0.82643,0.82558,0.82434,0.82626,0.52171,0.00831,0.0246,1.0,0.0,-0.0,-0.0,0.04552,0.04552,0.0,0.0,0.0,0.0,0.0,0.0,0.0,0.0,0.0,0.0,220.0,220.0
1,8,0.16,0.04293,0.00751,0.00303,-0.0,0.0,0.0,0.82576,0.82433,0.82733,0.82576,0.8244,0.8272,0.52171,0.00831,0.02476,1.0,0.0,-0.0,-0.0,0.05123,0.05123,0.0,0.0,0.0,0.0,0.0,0.0,0.0,0.0,0.0,0.0,220.0,220.0
1,9,0.18,0.04864,0.00748,0.00301,-0.0,0.0,0.0,0.82576,0.82433,0.82735,0.82576,0.8244,0.82723,0.52171,0.00831,0.02483,1.0,0.0,-0.0,-0.0,0.05693,0.05693,0.0,0.0,0.0,0.0,0.0,0.0,0.0,0.0,0.0,0.0,220.0,220.0
1,10,0.2,0.05434,0.00746,0.003,-1e-05,0.0,0.0,0.82576,0.82433,0.82735,0.82576,0.8244,0.82723,0.52171,0.00831,0.02486,1.0,0.0,-0.0,-0.0,0.06263,0.06263,0.0,0.0,0.0,0.0,0.0,0.0,0.0,0.0,0.0,0.0,220.0,220.0
1,11,0.22,0.06004,0.00745,0.00299,-1e-05,0.0,-0.0,0.82575,0.82432,0.82734,0.82575,0.82439,0.82722,0.52171,0.00831,0.02488,1.0,0.0,0.0,-0.0,0.06833,0.06833,0.0,0.0,0.0,0.0,0.0,0.0,0.0,0.0,0.0,0.0,220.0,220.0
1,12,0.24,0.06574,0.00745,0.00299,-1e-05,0.0,-0.0,0.82576,0.82433,0.82734,0.82575,0.82439,0.82723,0.52171,0.00831,0.02489,1.0,0.0,0.0,-0.0,0.07404,0.07404,0.0,0.0,0.0,0.0,0.0,0.0,0.0,0.0,0.0,0.0,220.0,220.0
1,13,0.26,0.07145,0.00745,0.00298,-1e-05,0.0,-0.0,0.82576,0.82433,0.82735,0.82576,0.82439,0.82723,0.52171,0.00831,0.02489,1.0,0.0,0.0,-0.0,0.07974,0.07974,0.0,0.0,0.0,0.0,0.0,0.0,0.0,0.0,0.0,0.0,220.0,220.0
1,14,0.28,0.07715,0.00745,0.00298,-1e-05,0.0,-0.0,0.82577,0.82434,0.82735,0.82577,0.8244,0.82724,0.52171,0.00831,0.02489,1.0,0.0,0.0,-0.0,0.08544,0.08544,0.0,0.0,0.0,0.0,0.0,0.0,0.0,0.0,0.0,0.0,220.0,220.0
1,15,0.3,0.08285,0.00745,0.00298,-1e-05,0.0,-0.0,0.82576,0.82433,0.82735,0.82576,0.82439,0.82723,0.52171,0.00831,0.02489,1.0,0.0,0.0,-0.0,0.09115,0.09115,0.0,0.0,0.0,0.0,0.0,0.0,0.0,0.0,0.0,0.0,220.0,220.0
1,16,0.32,0.08856,0.00745,0.00298,-1e-05,0.0,-0.0,0.82576,0.82433,0.82734,0.82576,0.82439,0.82723,0.52171,0.00831,0.02489,1.0,0.0,-0.0,-0.0,0.09685,0.09685,0.0,0.0,0.0,0.0,0.0,0.0,0.0,0.0,0.0,0.0,220.0,220.0
1,17,0.34,0.09426,0.00745,0.00298,-1e-05,0.0,-0.0,0.82576,0.82433,0.82735,0.82576,0.8244,0.82723,0.52171,0.00831,0.02489,1.0,0.0,-0.0,-0.0,0.10255,0.10255,0.0,0.0,0.0,0.0,0.0,0.0,0.0,0.0,0.0,0.0,220.0,220.0
1,18,0.36,0.09996,0.00745,0.00298,-1e-05,0.0,-0.0,0.82576,0.82433,0.82735,0.82576,0.82439,0.82723,0.52171,0.00831,0.02489,1.0,0.0,-0.0,-0.0,0.10826,0.10826,0.0,0.0,0.0,0.0,0.0,0.0,0.0,0.0,0.0,0.0,220.0,220.0
1,19,0.38,0.10567,0.00745,0.00298,-1e-05,0.0,-0.0,0.82577,0.82434,0.82735,0.82577,0.8244,0.82724,0.52171,0.00831,0.02489,1.0,0.0,-0.0,-0.0,0.11396,0.11396,0.0,0.0,0.0,0.0,0.0,0.0,0.0,0.0,0.0,0.0,220.0,220.0
1,20,0.4,0.11137,0.00745,0.00298,-1e-05,0.0,-0.0,0.82576,0.82432,0.82734,0.82575,0.82439,0.82723,0.52171,0.00831,0.02489,1.0,0.0,-0.0,-0.0,0.11966,0.11966,0.0,0.0,0.0,0.0,0.0,0.0,0.0,0.0,0.0,0.0,220.0,220.0
1,21,0.42,0.11707,0.00745,0.00298,-1e-05,0.0,-0.0,0.82576,0.82433,0.82734,0.82576,0.82439,0.82723,0.52171,0.00831,0.02489,1.0,0.0,-0.0,-0.0,0.12537,0.12537,0.0,0.0,0.0,0.0,0.0,0.0,0.0,0.0,0.0,0.0,220.0,220.0
1,22,0.44,0.12278,0.00745,0.00298,-1e-05,0.0,-0.0,0.82575,0.82432,0.82734,0.82575,0.82439,0.82723,0.52171,0.00831,0.02489,1.0,0.0,-0.0,-0.0,0.13107,0.13107,0.0,0.0,0.0,0.0,0.0,0.0,0.0,0.0,0.0,0.0,220.0,220.0
1,23,0.46,0.12848,0.00745,0.00298,-1e-05,0.0,-0.0,0.82576,0.82432,0.82734,0.82575,0.82439,0.82723,0.52171,0.00831,0.02489,1.0,0.0,-0.0,-0.0,0.13677,0.13677,0.0,0.0,0.0,0.0,0.0,0.0,0.0,0.0,0.0,0.0,220.0,220.0
1,24,0.48,0.13418,0.00745,0.00298,-1e-05,0.0,-0.0,0.82577,0.82434,0.82735,0.82577,0.8244,0.82724,0.52171,0.00831,0.02489,1.0,0.0,-0.0,-0.0,0.14247,0.14247,0.0,0.0,0.0,0.0,0.0,0.0,0.0,0.0,0.0,0.0,220.0,220.0
1,25,0.5,0.13988,0.00745,0.00298,-1e-05,0.0,-0.0,0.82576,0.82433,0.82735,0.82576,0.8244,0.82723,0.52171,0.00831,0.02489,1.0,0.0,-0.0,-0.0,0.14818,0.14818,0.0,0.0,0.0,0.0,0.0,0.0,0.0,0.0,0.0,0.0,220.0,220.0
1,26,0.52,0.14559,0.00745,0.00298,-1e-05,0.0,-0.0,0.82576,0.82432,0.82734,0.82575,0.82439,0.82723,0.52171,0.00831,0.02489,1.0,0.0,-0.0,-0.0,0.15388,0.15388,0.0,0.0,0.0,0.0,0.0,0.0,0.0,0.0,0.0,0.0,220.0,220.0
1,27,0.54,0.15129,0.00745,0.00298,-1e-05,0.0,-0.0,0.82576,0.82433,0.82735,0.82576,0.82439,0.82723,0.52171,0.00831,0.02489,1.0,0.0,-0.0,-0.0,0.15958,0.15958,0.0,0.0,0.0,0.0,0.0,0.0,0.0,0.0,0.0,0.0,220.0,220.0
1,28,0.56,0.15699,0.00745,0.00298,-1e-05,0.0,-0.0,0.82577,0.82433,0.82735,0.82577,0.8244,0.82724,0.52171,0.00831,0.02489,1.0,0.0,-0.0,-0.0,0.16529,0.16529,0.0,0.0,0.0,0.0,0.0,0.0,0.0,0.0,0.0,0.0,220.0,220.0
1,29,0.58,0.1627,0.00745,0.00298,-1e-05,0.0,-0.0,0.82576,0.82433,0.82734,0.82575,0.82439,0.82723,0.52171,0.00831,0.02489,1.0,0.0,-0.0,-0.0,0.17099,0.17099,0.0,0.0,0.0,0.0,0.0,0.0,0.0,0.0,0.0,0.0,220.0,220.0
1,30,0.6,0.1684,0.00745,0.00298,-1e-05,0.0,-0.0,0.82576,0.82433,0.82735,0.82576,0.82439,0.82723,0.52171,0.00831,0.02489,1.0,0.0,-0.0,-0.0,0.17669,0.17669,0.0,0.0,0.0,0.0,0.0,0.0,0.0,0.0,0.0,0.0,220.0,220.0
1,31,0.62,0.1741,0.00745,0.00298,-1e-05,0.0,-0.0,0.82575,0.82432,0.82734,0.82575,0.82439,0.82722,0.52171,0.00831,0.02489,1.0,0.0,-0.0,-0.0,0.1824,0.1824,0.0,0.0,0.0,0.0,0.0,0.0,0.0,0.0,0.0,0.0,220.0,220.0
1,32,0.64,0.17981,0.00745,0.00298,-1e-05,0.0,-0.0,0.82576,0.82433,0.82735,0.82576,0.82439,0.82723,0.52171,0.00831,0.02489,1.0,0.0,-0.0,-0.0,0.1881,0.1881,0.0,0.0,0.0,0.0,0.0,0.0,0.0,0.0,0.0,0.0,220.0,220.0
1,33,0.66,0.18551,0.00745,0.00298,-1e-05,0.0,-0.0,0.82576,0.82433,0.82735,0.82576,0.8244,0.82723,0.52171,0.00831,0.02489,1.0,0.0,-0.0,-0.0,0.1938,0.1938,0.0,0.0,0.0,0.0,0.0,0.0,0.0,0.0,0.0,0.0,220.0,220.0
1,34,0.68,0.19121,0.00745,0.00298,-1e-05,0.0,-0.0,0.82575,0.82432,0.82734,0.82575,0.82438,0.82722,0.52171,0.00831,0.02489,1.0,0.0,-0.0,-0.0,0.19951,0.19951,0.0,0.0,0.0,0.0,0.0,0.0,0.0,0.0,0.0,0.0,220.0,220.0
1,35,0.7,0.19692,0.00745,0.00298,-1e-05,0.0,-0.0,0.82576,0.82433,0.82735,0.82576,0.82439,0.82723,0.52171,0.00831,0.02489,1.0,0.0,-0.0,-0.0,0.20521,0.20521,0.0,0.0,0.0,0.0,0.0,0.0,0.0,0.0,0.0,0.0,220.0,220.0
1,36,0.72,0.20262,0.00745,0.00298,-1e-05,0.0,-0.0,0.82576,0.82433,0.82735,0.82576,0.82439,0.82723,0.52171,0.00831,0.02489,1.0,0.0,-0.0,-0.0,0.21091,0.21091,0.0,0.0,0.0,0.0,0.0,0.0,0.0,0.0,0.0,0.0,220.0,220.0
1,37,0.74,0.20832,0.00745,0.00298,-1e-05,0.0,-0.0,0.82577,0.82434,0.82735,0.82577,0.8244,0.82724,0.52171,0.00831,0.02489,1.0,0.0,0.0,-0.0,0.21662,0.21662,0.0,0.0,0.0,0.0,0.0,0.0,0.0,0.0,0.0,0.0,220.0,220.0
1,38,0.76,0.21402,0.00745,0.00298,-1e-05,0.0,-0.0,0.82577,0.82434,0.82735,0.82577,0.8244,0.82724,0.52171,0.00831,0.02489,1.0,0.0,-0.0,-0.0,0.22232,0.22232,0.0,0.0,0.0,0.0,0.0,0.0,0.0,0.0,0.0,0.0,220.0,220.0
1,39,0.78,0.21973,0.00745,0.00298,-1e-05,0.0,-0.0,0.82576,0.82433,0.82734,0.82576,0.82439,0.82723,0.52171,0.00831,0.02489,1.0,0.0,0.0,-0.0,0.22802,0.22802,0.0,0.0,0.0,0.0,0.0,0.0,0.0,0.0,0.0,0.0,220.0,220.0
1,40,0.8,0.22543,0.00745,0.00298,-1e-05,0.0,-0.0,0.82576,0.82433,0.82735,0.82576,0.82439,0.82723,0.52171,0.00831,0.02489,1.0,0.0,0.0,-0.0,0.23372,0.23372,0.0,0.0,0.0,0.0,0.0,0.0,0.0,0.0,0.0,0.0,220.0,220.0
1,41,0.82,0.23113,0.00745,0.00298,-1e-05,0.0,-0.0,0.82576,0.82432,0.82734,0.82575,0.82439,0.82723,0.52171,0.00831,0.02489,1.0,0.0,0.0,-0.0,0.23943,0.23943,0.0,0.0,0.0,0.0,0.0,0.0,0.0,0.0,0.0,0.0,220.0,220.0
1,42,0.84,0.23684,0.00745,0.00298,-1e-05,0.0,-0.0,0.82576,0.82432,0.82734,0.82575,0.82439,0.82723,0.52171,0.00831,0.02489,1.0,0.0,-0.0,-0.0,0.24513,0.24513,0.0,0.0,0.0,0.0,0.0,0.0,0.0,0.0,0.0,0.0,220.0,220.0
1,43,0.86,0.24254,0.00745,0.00298,-1e-05,0.0,-0.0,0.82576,0.82433,0.82734,0.82576,0.82439,0.82723,0.52171,0.00831,0.02489,1.0,0.0,0.0,-0.0,0.25083,0.25083,0.0,0.0,0.0,0.0,0.0,0.0,0.0,0.0,0.0,0.0,220.0,220.0
1,44,0.88,0.24824,0.00745,0.00298,-1e-05,0.0,-0.0,0.82576,0.82433,0.82735,0.82576,0.82439,0.82723,0.52171,0.00831,0.02489,1.0,0.0,-0.0,-0.0,0.25654,0.25654,0.0,0.0,0.0,0.0,0.0,0.0,0.0,0.0,0.0,0.0,220.0,220.0
1,45,0.9,0.25395,0.00745,0.00298,-1e-05,0.0,-0.0,0.82576,0.82432,0.82734,0.82575,0.82439,0.82723,0.52171,0.00831,0.02489,1.0,0.0,0.0,-0.0,0.26224,0.26224,0.0,0.0,0.0,0.0,0.0,0.0,0.0,0.0,0.0,0.0,220.0,220.0
1,46,0.92,0.25965,0.00745,0.00298,-1e-05,0.0,-0.0,0.82576,0.82432,0.82734,0.82576,0.82439,0.82723,0.52171,0.00831,0.02489,1.0,0.0,-0.0,-0.0,0.26794,0.26794,0.0,0.0,0.0,0.0,0.0,0.0,0.0,0.0,0.0,0.0,220.0,220.0
1,47,0.94,0.26535,0.00745,0.00298,-1e-05,0.0,-0.0,0.82576,0.82433,0.82735,0.82576,0.8244,0.82724,0.52171,0.00831,0.02489,1.0,0.0,-0.0,-0.0,0.27365,0.27365,0.0,0.0,0.0,0.0,0.0,0.0,0.0,0.0,0.0,0.0,220.0,220.0
1,48,0.96,0.27106,0.00745,0.00298,-1e-05,0.0,-0.0,0.82576,0.82433,0.82735,0.82576,0.82439,0.82723,0.52171,0.00831,0.02489,1.0,0.0,-0.0,-0.0,0.27935,0.27935,0.0,0.0,0.0,0.0,0.0,0.0,0.0,0.0,0.0,0.0,220.0,220.0
1,49,0.98,0.27676,0.00745,0.00298,-1e-05,0.0,-0.0,0.82576,0.82433,0.82735,0.82576,0.82439,0.82723,0.52171,0.00831,0.02489,1.0,0.0,-0.0,-0.0,0.28505,0.28505,0.0,0.0,0.0,0.0,0.0,0.0,0.0,0.0,0.0,0.0,220.0,220.0
1,50,1.0,0.28246,0.00745,0.00298,-1e-05,0.0,-0.0,0.82575,0.82432,0.82734,0.82575,0.82439,0.82723,0.52171,0.00831,0.02489,1.0,0.0,-0.0,-0.0,0.29076,0.29076,0.0,0.0,0.0,0.0,0.0,0.0,0.0,0.0,0.0,0.0,220.0,220.0
1,51,1.02,0.28816,0.00745,0.00298,-1e-05,0.0,-0.0,0.82576,0.82433,0.82734,0.82576,0.82439,0.82723,0.52171,0.00831,0.02489,1.0,0.0,-0.0,-0.0,0.29646,0.29646,0.0,0.0,0.0,0.0,0.0,0.0,0.0,0.0,0.0,0.0,220.0,220.0
1,52,1.04,0.29387,0.00745,0.00298,-1e-05,0.0,-0.0,0.82576,0.82433,0.82735,0.82576,0.8244,0.82724,0.52171,0.00831,0.02489,1.0,0.0,0.0,0.0,0.30216,0.30216,0.0,0.0,0.0,0.0,0.0,0.0,0.0,0.0,0.0,0.0,220.0,220.0
1,53,1.06,0.29957,0.00745,0.00298,-1e-05,0.0,-0.0,0.82577,0.82434,0.82736,0.82577,0.82441,0.82725,0.52171,0.00831,0.02489,1.0,0.0,-0.0,-0.0,0.30786,0.30786,0.0,0.0,0.0,0.0,0.0,0.0,0.0,0.0,0.0,0.0,220.0,220.0
1,54,1.08,0.30527,0.00745,0.00298,-1e-05,0.0,-0.0,0.82575,0.82432,0.82734,0.82575,0.82439,0.82722,0.52171,0.00831,0.02489,1.0,0.0,-0.0,-0.0,0.31357,0.31357,0.0,0.0,0.0,0.0,0.0,0.0,0.0,0.0,0.0,0.0,220.0,220.0
1,55,1.1,0.31098,0.00745,0.00298,-1e-05,0.0,-0.0,0.82577,0.82434,0.82735,0.82577,0.8244,0.82724,0.52171,0.00831,0.02489,1.0,0.0,0.0,-0.0,0.31927,0.31927,0.0,0.0,0.0,0.0,0.0,0.0,0.0,0.0,0.0,0.0,220.0,220.0
1,56,1.12,0.31668,0.00745,0.00298,-1e-05,0.0,-0.0,0.82576,0.82433,0.82734,0.82576,0.82439,0.82723,0.52171,0.00831,0.02489,1.0,0.0,-0.0,-0.0,0.32497,0.32497,0.0,0.0,0.0,0.0,0.0,0.0,0.0,0.0,0.0,0.0,220.0,220.0
1,57,1.14,0.32238,0.00745,0.00298,-1e-05,0.0,-0.0,0.82576,0.82433,0.82734,0.82576,0.82439,0.82723,0.52171,0.00831,0.02489,1.0,0.0,-0.0,-0.0,0.33068,0.33068,0.0,0.0,0.0,0.0,0.0,0.0,0.0,0.0,0.0,0.0,220.0,220.0
1,58,1.16,0.32809,0.00745,0.00298,-1e-05,0.0,-0.0,0.82576,0.82433,0.82735,0.82576,0.82439,0.82723,0.52171,0.00831,0.02489,1.0,0.0,-0.0,-0.0,0.33638,0.33638,0.0,0.0,0.0,0.0,0.0,0.0,0.0,0.0,0.0,0.0,220.0,220.0
1,59,1.18,0.33379,0.00745,0.00298,-1e-05,0.0,-0.0,0.82576,0.82432,0.82734,0.82575,0.82439,0.82723,0.52171,0.00831,0.02489,1.0,0.0,-0.0,-0.0,0.34208,0.34208,0.0,0.0,0.0,0.0,0.0,0.0,0.0,0.0,0.0,0.0,220.0,220.0
1,60,1.2,0.33949,0.00745,0.00298,-1e-05,0.0,-0.0,0.82576,0.82433,0.82734,0.82576,0.82439,0.82723,0.52171,0.00831,0.02489,1.0,0.0,-0.0,-0.0,0.34779,0.34779,0.0,0.0,0.0,0.0,0.0,0.0,0.0,0.0,0.0,0.0,220.0,220.0
1,61,1.22,0.3452,0.00745,0.00298,-1e-05,0.0,-0.0,0.82576,0.82432,0.82734,0.82575,0.82439,0.82723,0.52171,0.00831,0.02489,1.0,0.0,0.0,-0.0,0.35349,0.35349,0.0,0.0,0.0,0.0,0.0,0.0,0.0,0.0,0.0,0.0,220.0,220.0
1,62,1.24,0.3509,0.00745,0.00298,-1e-05,0.0,-0.0,0.82575,0.82432,0.82734,0.82575,0.82438,0.82722,0.52171,0.00831,0.02489,1.0,0.0,-0.0,-0.0,0.35919,0.35919,0.0,0.0,0.0,0.0,0.0,0.0,0.0,0.0,0.0,0.0,220.0,220.0
1,63,1.26,0.3566,0.00745,0.00298,-1e-05,0.0,-0.0,0.82576,0.82433,0.82734,0.82576,0.82439,0.82723,0.52171,0.00831,0.02489,1.0,0.0,0.0,-0.0,0.3649,0.3649,0.0,0.0,0.0,0.0,0.0,0.0,0.0,0.0,0.0,0.0,220.0,220.0
1,64,1.28,0.3623,0.00745,0.00298,-1e-05,0.0,-0.0,0.82576,0.82433,0.82735,0.82576,0.82439,0.82723,0.52171,0.00831,0.02489,1.0,0.0,-0.0,-0.0,0.3706,0.3706,0.0,0.0,0.0,0.0,0.0,0.0,0.0,0.0,0.0,0.0,220.0,220.0
1,65,1.3,0.36801,0.00745,0.00298,-1e-05,0.0,-0.0,0.82575,0.82432,0.82734,0.82575,0.82438,0.82722,0.52171,0.00831,0.02489,1.0,0.0,0.0,-0.0,0.3763,0.3763,0.0,0.0,0.0,0.0,0.0,0.0,0.0,0.0,0.0,0.0,220.0,220.0
1,66,1.32,0.37371,0.00745,0.00298,-1e-05,0.0,-0.0,0.82576,0.82433,0.82735,0.82576,0.8244,0.82723,0.52171,0.00831,0.02489,1.0,0.0,-0.0,-0.0,0.382,0.382,0.0,0.0,0.0,0.0,0.0,0.0,0.0,0.0,0.0,0.0,220.0,220.0
1,67,1.34,0.37941,0.00745,0.00298,-1e-05,0.0,-0.0,0.82577,0.82434,0.82735,0.82577,0.8244,0.82724,0.52171,0.00831,0.02489,1.0,0.0,0.0,-0.0,0.38771,0.38771,0.0,0.0,0.0,0.0,0.0,0.0,0.0,0.0,0.0,0.0,220.0,220.0
1,68,1.36,0.38512,0.00745,0.00298,-1e-05,0.0,-0.0,0.82576,0.82433,0.82734,0.82576,0.82439,0.82723,0.52171,0.00831,0.02489,1.0,0.0,-0.0,-0.0,0.39341,0.39341,0.0,0.0,0.0,0.0,0.0,0.0,0.0,0.0,0.0,0.0,220.0,220.0
1,69,1.38,0.39082,0.00745,0.00298,-1e-05,0.0,-0.0,0.82576,0.82432,0.82734,0.82575,0.82439,0.82723,0.52171,0.00831,0.02489,1.0,0.0,0.0,-0.0,0.39911,0.39911,0.0,0.0,0.0,0.0,0.0,0.0,0.0,0.0,0.0,0.0,220.0,220.0
1,70,1.4,0.39652,0.00745,0.00298,-1e-05,0.0,-0.0,0.82577,0.82433,0.82735,0.82576,0.8244,0.82724,0.52171,0.00831,0.02489,1.0,0.0,0.0,-0.0,0.40482,0.40482,0.0,0.0,0.0,0.0,0.0,0.0,0.0,0.0,0.0,0.0,220.0,220.0
1,71,1.42,0.40223,0.00745,0.00298,-1e-05,0.0,-0.0,0.82576,0.82433,0.82734,0.82576,0.82439,0.82723,0.52171,0.00831,0.02489,1.0,0.0,-0.0,-0.0,0.41052,0.41052,0.0,0.0,0.0,0.0,0.0,0.0,0.0,0.0,0.0,0.0,220.0,220.0
1,72,1.44,0.40793,0.00745,0.00298,-1e-05,0.0,-0.0,0.82575,0.82432,0.82733,0.82575,0.82438,0.82722,0.52171,0.00831,0.02489,1.0,0.0,0.0,-0.0,0.41622,0.41622,0.0,0.0,0.0,0.0,0.0,0.0,0.0,0.0,0.0,0.0,220.0,220.0
1,73,1.46,0.41363,0.00745,0.00298,-1e-05,0.0,-0.0,0.82577,0.82433,0.82735,0.82576,0.8244,0.82724,0.52171,0.00831,0.02489,1.0,0.0,-0.0,-0.0,0.42193,0.42193,0.0,0.0,0.0,0.0,0.0,0.0,0.0,0.0,0.0,0.0,220.0,220.0
1,74,1.48,0.41934,0.00745,0.00298,-1e-05,0.0,-0.0,0.82576,0.82433,0.82735,0.82576,0.8244,0.82723,0.52171,0.00831,0.02489,1.0,0.0,0.0,-0.0,0.42763,0.42763,0.0,0.0,0.0,0.0,0.0,0.0,0.0,0.0,0.0,0.0,220.0,220.0
1,75,1.5,0.42504,0.00745,0.00298,-1e-05,0.0,-0.0,0.82576,0.82433,0.82734,0.82576,0.82439,0.82723,0.52171,0.00831,0.02489,1.0,0.0,-0.0,-0.0,0.43333,0.43333,0.0,0.0,0.0,0.0,0.0,0.0,0.0,0.0,0.0,0.0,220.0,220.0
1,76,1.52,0.43074,0.00745,0.00298,-1e-05,0.0,-0.0,0.82576,0.82433,0.82735,0.82576,0.8244,0.82723,0.52171,0.00831,0.02489,1.0,0.0,0.0,-0.0,0.43904,0.43904,0.0,0.0,0.0,0.0,0.0,0.0,0.0,0.0,0.0,0.0,220.0,220.0
1,77,1.54,0.43645,0.00745,0.00298,-1e-05,0.0,-0.0,0.82575,0.82432,0.82734,0.82575,0.82439,0.82723,0.52171,0.00831,0.02489,1.0,0.0,0.0,-0.0,0.44474,0.44474,0.0,0.0,0.0,0.0,0.0,0.0,0.0,0.0,0.0,0.0,220.0,220.0
1,78,1.56,0.44215,0.00745,0.00298,-1e-05,0.0,-0.0,0.82576,0.82433,0.82735,0.82576,0.8244,0.82723,0.52171,0.00831,0.02489,1.0,0.0,-0.0,-0.0,0.45044,0.45044,0.0,0.0,0.0,0.0,0.0,0.0,0.0,0.0,0.0,0.0,220.0,220.0
1,79,1.58,0.44785,0.00745,0.00298,-1e-05,0.0,-0.0,0.82576,0.82433,0.82735,0.82576,0.8244,0.82723,0.52171,0.00831,0.02489,1.0,0.0,0.0,-0.0,0.45614,0.45614,0.0,0.0,0.0,0.0,0.0,0.0,0.0,0.0,0.0,0.0,220.0,220.0
1,80,1.6,0.45355,0.00745,0.00298,-1e-05,0.0,-0.0,0.82576,0.82432,0.82734,0.82575,0.82439,0.82723,0.52171,0.00831,0.02489,1.0,0.0,-0.0,-0.0,0.46185,0.46185,0.0,0.0,0.0,0.0,0.0,0.0,0.0,0.0,0.0,0.0,220.0,220.0
1,81,1.62,0.45926,0.00745,0.00298,-1e-05,0.0,-0.0,0.82575,0.82432,0.82734,0.82575,0.82438,0.82722,0.52171,0.00831,0.02489,1.0,0.0,0.0,-0.0,0.46755,0.46755,0.0,0.0,0.0,0.0,0.0,0.0,0.0,0.0,0.0,0.0,220.0,220.0
1,82,1.64,0.46496,0.00745,0.00298,-1e-05,0.0,-0.0,0.82576,0.82433,0.82735,0.82576,0.82439,0.82723,0.52171,0.00831,0.02489,1.0,0.0,0.0,-0.0,0.47325,0.47325,0.0,0.0,0.0,0.0,0.0,0.0,0.0,0.0,0.0,0.0,220.0,220.0
1,83,1.66,0.47066,0.00745,0.00298,-1e-05,0.0,-0.0,0.82576,0.82433,0.82735,0.82576,0.8244,0.82723,0.52171,0.00831,0.02489,1.0,0.0,-0.0,-0.0,0.47896,0.47896,0.0,0.0,0.0,0.0,0.0,0.0,0.0,0.0,0.0,0.0,220.0,220.0
1,84,1.68,0.47637,0.00745,0.00298,-1e-05,0.0,-0.0,0.82576,0.82433,0.82734,0.82576,0.82439,0.82723,0.52171,0.00831,0.02489,1.0,0.0,0.0,-0.0,0.48466,0.48466,0.0,0.0,0.0,0.0,0.0,0.0,0.0,0.0,0.0,0.0,220.0,220.0
1,85,1.7,0.48207,0.00745,0.00298,-1e-05,0.0,-0.0,0.82577,0.82434,0.82735,0.82577,0.8244,0.82724,0.52171,0.00831,0.02489,1.0,0.0,-0.0,-0.0,0.49036,0.49036,0.0,0.0,0.0,0.0,0.0,0.0,0.0,0.0,0.0,0.0,220.0,220.0
1,86,1.72,0.48777,0.00745,0.00298,-1e-05,0.0,-0.0,0.82576,0.82433,0.82735,0.82576,0.82439,0.82723,0.52171,0.00831,0.02489,1.0,0.0,0.0,-0.0,0.49607,0.49607,0.0,0.0,0.0,0.0,0.0,0.0,0.0,0.0,0.0,0.0,220.0,220.0
1,87,1.74,0.49348,0.00745,0.00298,-1e-05,0.0,-0.0,0.82575,0.82432,0.82734,0.82575,0.82439,0.82723,0.52171,0.00831,0.02489,1.0,0.0,-0.0,-0.0,0.50177,0.50177,0.0,0.0,0.0,0.0,0.0,0.0,0.0,0.0,0.0,0.0,220.0,220.0
1,88,1.76,0.49918,0.00745,0.00298,-1e-05,0.0,-0.0,0.82575,0.82432,0.82734,0.82575,0.82439,0.82722,0.52171,0.00831,0.02489,1.0,0.0,0.0,-0.0,0.50747,0.50747,0.0,0.0,0.0,0.0,0.0,0.0,0.0,0.0,0.0,0.0,220.0,220.0
1,89,1.78,0.50488,0.00745,0.00298,-1e-05,0.0,-0.0,0.82577,0.82434,0.82735,0.82577,0.8244,0.82724,0.52171,0.00831,0.02489,1.0,0.0,0.0,-0.0,0.51318,0.51318,0.0,0.0,0.0,0.0,0.0,0.0,0.0,0.0,0.0,0.0,220.0,220.0
1,90,1.8,0.51059,0.00745,0.00298,-1e-05,0.0,-0.0,0.82576,0.82433,0.82734,0.82576,0.82439,0.82723,0.52171,0.00831,0.02489,1.0,0.0,-0.0,-0.0,0.51888,0.51888,0.0,0.0,0.0,0.0,0.0,0.0,0.0,0.0,0.0,0.0,220.0,220.0
1,91,1.82,0.51629,0.00745,0.00298,-1e-05,0.0,-0.0,0.82575,0.82432,0.82734,0.82575,0.82439,0.82722,0.52171,0.00831,0.02489,1.0,0.0,0.0,-0.0,0.52458,0.52458,0.0,0.0,0.0,0.0,0.0,0.0,0.0,0.0,0.0,0.0,220.0,220.0
1,92,1.84,0.52199,0.00745,0.00298,-1e-05,0.0,-0.0,0.82576,0.82433,0.82735,0.82576,0.8244,0.82723,0.52171,0.00831,0.02489,1.0,0.0,-0.0,-0.0,0.53029,0.53029,0.0,0.0,0.0,0.0,0.0,0.0,0.0,0.0,0.0,0.0,220.0,220.0
1,93,1.86,0.52769,0.00745,0.00298,-1e-05,0.0,-0.0,0.82576,0.82433,0.82735,0.82576,0.82439,0.82724,0.52171,0.00831,0.02489,1.0,0.0,-0.0,-0.0,0.53599,0.53599,0.0,0.0,0.0,0.0,0.0,0.0,0.0,0.0,0.0,0.0,220.0,220.0
1,94,1.88,0.5334,0.00745,0.00298,-1e-05,0.0,-0.0,0.82576,0.82433,0.82735,0.82576,0.82439,0.82723,0.52171,0.00831,0.02489,1.0,0.0,0.0,-0.0,0.54169,0.54169,0.0,0.0,0.0,0.0,0.0,0.0,0.0,0.0,0.0,0.0,220.0,220.0
1,95,1.9,0.5391,0.00745,0.00298,-1e-05,0.0,-0.0,0.82576,0.82433,0.82734,0.82576,0.82439,0.82723,0.52171,0.00831,0.02489,1.0,0.0,-0.0,-0.0,0.54739,0.54739,0.0,0.0,0.0,0.0,0.0,0.0,0.0,0.0,0.0,0.0,220.0,220.0
1,96,1.92,0.5448,0.00745,0.00298,-1e-05,0.0,-0.0,0.82576,0.82432,0.82734,0.82575,0.82439,0.82723,0.52171,0.00831,0.02489,1.0,0.0,0.0,-0.0,0.5531,0.5531,0.0,0.0,0.0,0.0,0.0,0.0,0.0,0.0,0.0,0.0,220.0,220.0
1,97,1.94,0.55051,0.00745,0.00298,-1e-05,0.0,-0.0,0.82576,0.82433,0.82735,0.82576,0.82439,0.82723,0.52171,0.00831,0.02489,1.0,0.0,-0.0,-0.0,0.5588,0.5588,0.0,0.0,0.0,0.0,0.0,0.0,0.0,0.0,0.0,0.0,220.0,220.0
1,98,1.96,0.55621,0.00745,0.00298,-1e-05,0.0,-0.0,0.82577,0.82434,0.82735,0.82577,0.8244,0.82724,0.52171,0.00831,0.02489,1.0,0.0,0.0,-0.0,0.5645,0.5645,0.0,0.0,0.0,0.0,0.0,0.0,0.0,0.0,0.0,0.0,220.0,220.0
1,99,1.98,0.56191,0.00745,0.00298,-1e-05,0.0,-0.0,0.82576,0.82432,0.82734,0.82575,0.82439,0.82723,0.52171,0.00831,0.02489,1.0,0.0,-0.0,-0.0,0.57021,0.57021,0.0,0.0,0.0,0.0,0.0,0.0,0.0,0.0,0.0,0.0,220.0,220.0
1,100,2.0,0.56762,0.00745,0.00298,-1e-05,0.0,-0.0,0.82575,0.82432,0.82734,0.82575,0.82439,0.82722,0.52171,0.00831,0.02489,1.0,0.0,-0.0,-0.0,0.57591,0.57591,0.0,0.0,0.0,0.0,0.0,0.0,0.0,0.0,0.0,0.0,220.0,220.0
1,101,2.02,0.57332,0.00745,0.00298,-1e-05,0.0,-0.0,0.82576,0.82433,0.82735,0.82576,0.82439,0.82723,0.52171,0.00831,0.02489,1.0,0.0,0.0,-0.0,0.58161,0.58161,0.0,0.0,0.0,0.0,0.0,0.0,0.0,0.0,0.0,0.0,220.0,220.0
1,102,2.04,0.57902,0.00745,0.00298,-1e-05,0.0,-0.0,0.82576,0.82432,0.82734,0.82575,0.82439,0.82723,0.52171,0.00831,0.02489,1.0,0.0,-0.0,-0.0,0.58732,0.58732,0.0,0.0,0.0,0.0,0.0,0.0,0.0,0.0,0.0,0.0,220.0,220.0
1,103,2.06,0.58473,0.00745,0.00298,-1e-05,0.0,-0.0,0.82575,0.82432,0.82734,0.82575,0.82439,0.82722,0.52171,0.00831,0.02489,1.0,0.0,0.0,-0.0,0.59302,0.59302,0.0,0.0,0.0,0.0,0.0,0.0,0.0,0.0,0.0,0.0,220.0,220.0
1,104,2.08,0.59043,0.00745,0.00298,-1e-05,0.0,-0.0,0.82577,0.82434,0.82736,0.82577,0.8244,0.82724,0.52171,0.00831,0.02489,1.0,0.0,-0.0,-0.0,0.59872,0.59872,0.0,0.0,0.0,0.0,0.0,0.0,0.0,0.0,0.0,0.0,220.0,220.0
1,105,2.1,0.59613,0.00745,0.00298,-1e-05,0.0,-0.0,0.82576,0.82433,0.82735,0.82576,0.82439,0.82723,0.52171,0.00831,0.02489,1.0,0.0,0.0,-0.0,0.60443,0.60443,0.0,0.0,0.0,0.0,0.0,0.0,0.0,0.0,0.0,0.0,220.0,220.0
1,106,2.12,0.60183,0.00745,0.00298,-1e-05,0.0,-0.0,0.82577,0.82433,0.82735,0.82576,0.8244,0.82724,0.52171,0.00831,0.02489,1.0,0.0,-0.0,0.0,0.61013,0.61013,0.0,0.0,0.0,0.0,0.0,0.0,0.0,0.0,0.0,0.0,220.0,220.0
1,107,2.14,0.60754,0.00745,0.00298,-1e-05,0.0,-0.0,0.82576,0.82433,0.82734,0.82576,0.82439,0.82723,0.52171,0.00831,0.02489,1.0,0.0,0.0,-0.0,0.61583,0.61583,0.0,0.0,0.0,0.0,0.0,0.0,0.0,0.0,0.0,0.0,220.0,220.0
1,108,2.16,0.61324,0.00745,0.00298,-1e-05,0.0,-0.0,0.82575,0.82432,0.82734,0.82575,0.82439,0.82723,0.52171,0.00831,0.02489,1.0,0.0,-0.0,-0.0,0.62153,0.62153,0.0,0.0,0.0,0.0,0.0,0.0,0.0,0.0,0.0,0.0,220.0,220.0
1,109,2.18,0.61894,0.00745,0.00298,-1e-05,0.0,-0.0,0.82576,0.82433,0.82735,0.82576,0.82439,0.82723,0.52171,0.00831,0.02489,1.0,0.0,-0.0,-0.0,0.62724,0.62724,0.0,0.0,0.0,0.0,0.0,0.0,0.0,0.0,0.0,0.0,220.0,220.0
1,110,2.2,0.62465,0.00745,0.00298,-1e-05,0.0,-0.0,0.82576,0.82433,0.82735,0.82576,0.8244,0.82723,0.52171,0.00831,0.02489,1.0,0.0,0.0,0.0,0.63294,0.63294,0.0,0.0,0.0,0.0,0.0,0.0,0.0,0.0,0.0,0.0,220.0,220.0
1,111,2.22,0.63035,0.00745,0.00298,-1e-05,0.0,-0.0,0.82577,0.82434,0.82735,0.82577,0.8244,0.82724,0.52171,0.00831,0.02489,1.0,0.0,-0.0,0.0,0.63864,0.63864,0.0,0.0,0.0,0.0,0.0,0.0,0.0,0.0,0.0,0.0,220.0,220.0
1,112,2.24,0.63605,0.00745,0.00298,-1e-05,0.0,-0.0,0.82577,0.82434,0.82735,0.82577,0.8244,0.82724,0.52171,0.00831,0.02489,1.0,0.0,0.0,0.0,0.64435,0.64435,0.0,0.0,0.0,0.0,0.0,0.0,0.0,0.0,0.0,0.0,220.0,220.0
1,113,2.26,0.64176,0.00745,0.00298,-1e-05,0.0,-0.0,0.82577,0.82434,0.82735,0.82576,0.8244,0.82724,0.52171,0.00831,0.02489,1.0,0.0,-0.0,0.0,0.65005,0.65005,0.0,0.0,0.0,0.0,0.0,0.0,0.0,0.0,0.0,0.0,220.0,220.0
1,114,2.28,0.64746,0.00745,0.00298,-1e-05,0.0,-0.0,0.82578,0.82434,0.82736,0.82577,0.82441,0.82725,0.52171,0.00831,0.02489,1.0,0.0,0.0,0.0,0.65575,0.65575,0.0,0.0,0.0,0.0,0.0,0.0,0.0,0.0,0.0,0.0,220.0,220.0
1,115,2.3,0.65316,0.00745,0.00298,-1e-05,0.0,-0.0,0.82576,0.82433,0.82734,0.82576,0.82439,0.82723,0.52171,0.00831,0.02489,1.0,0.0,-0.0,0.0,0.66146,0.66146,0.0,0.0,0.0,0.0,0.0,0.0,0.0,0.0,0.0,0.0,220.0,220.0
1,116,2.32,0.65887,0.00745,0.00298,-1e-05,0.0,-0.0,0.82576,0.82433,0.82735,0.82576,0.8244,0.82724,0.52171,0.00831,0.02489,1.0,0.0,0.0,0.0,0.66716,0.66716,0.0,0.0,0.0,0.0,0.0,0.0,0.0,0.0,0.0,0.0,220.0,220.0
1,117,2.34,0.66457,0.00745,0.00298,-1e-05,0.0,-0.0,0.82576,0.82433,0.82735,0.82576,0.82439,0.82724,0.52171,0.00831,0.02489,1.0,0.0,-0.0,0.0,0.67286,0.67286,0.0,0.0,0.0,0.0,0.0,0.0,0.0,0.0,0.0,0.0,220.0,220.0
1,118,2.36,0.67027,0.00745,0.00298,-1e-05,0.0,-0.0,0.82576,0.82433,0.82735,0.82576,0.8244,0.82724,0.52171,0.00831,0.02489,1.0,0.0,0.0,0.0,0.67857,0.67857,0.0,0.0,0.0,0.0,0.0,0.0,0.0,0.0,0.0,0.0,220.0,220.0
1,119,2.38,0.67598,0.00745,0.00298,-1e-05,0.0,-0.0,0.82575,0.82432,0.82733,0.82575,0.82438,0.82722,0.52171,0.00831,0.02489,1.0,0.0,0.0,0.0,0.68427,0.68427,0.0,0.0,0.0,0.0,0.0,0.0,0.0,0.0,0.0,0.0,220.0,220.0
1,120,2.4,0.68168,0.00745,0.00298,-1e-05,0.0,-0.0,0.82576,0.82433,0.82735,0.82576,0.82439,0.82723,0.52171,0.00831,0.02489,1.0,0.0,0.0,0.0,0.68997,0.68997,0.0,0.0,0.0,0.0,0.0,0.0,0.0,0.0,0.0,0.0,220.0,220.0
1,121,2.42,0.68738,0.00745,0.00298,-1e-05,0.0,-0.0,0.82576,0.82433,0.82734,0.82575,0.82439,0.82723,0.52171,0.00831,0.02489,1.0,0.0,0.0,0.0,0.69567,0.69567,0.0,0.0,0.0,0.0,0.0,0.0,0.0,0.0,0.0,0.0,220.0,220.0
1,122,2.44,0.69308,0.00745,0.00298,-1e-05,0.0,-0.0,0.82575,0.82432,0.82734,0.82575,0.82439,0.82722,0.52171,0.00831,0.02489,1.0,0.0,-0.0,0.0,0.70138,0.70138,0.0,0.0,0.0,0.0,0.0,0.0,0.0,0.0,0.0,0.0,220.0,220.0
1,123,2.46,0.69879,0.00745,0.00298,-1e-05,0.0,-0.0,0.82576,0.82433,0.82735,0.82576,0.8244,0.82724,0.52171,0.00831,0.02489,1.0,0.0,0.0,0.0,0.70708,0.70708,0.0,0.0,0.0,0.0,0.0,0.0,0.0,0.0,0.0,0.0,220.0,220.0
1,124,2.48,0.70449,0.00745,0.00298,-1e-05,0.0,-0.0,0.82575,0.82432,0.82734,0.82575,0.82439,0.82722,0.52171,0.00831,0.02489,1.0,0.0,-0.0,0.0,0.71278,0.71278,0.0,0.0,0.0,0.0,0.0,0.0,0.0,0.0,0.0,0.0,220.0,220.0
1,125,2.5,0.71019,0.00745,0.00298,-1e-05,0.0,-0.0,0.82577,0.82433,0.82735,0.82576,0.8244,0.82724,0.52171,0.00831,0.02489,1.0,0.0,0.0,0.0,0.71849,0.71849,0.0,0.0,0.0,0.0,0.0,0.0,0.0,0.0,0.0,0.0,220.0,220.0
1,126,2.52,0.7159,0.00745,0.00298,-1e-05,0.0,-0.0,0.82577,0.82434,0.82736,0.82577,0.8244,0.82724,0.52171,0.00831,0.02489,1.0,0.0,-0.0,0.0,0.72419,0.72419,0.0,0.0,0.0,0.0,0.0,0.0,0.0,0.0,0.0,0.0,220.0,220.0
1,127,2.54,0.7216,0.00745,0.00298,-1e-05,0.0,-0.0,0.82577,0.82434,0.82735,0.82577,0.8244,0.82724,0.52171,0.00831,0.02489,1.0,0.0,0.0,0.0,0.72989,0.72989,0.0,0.0,0.0,0.0,0.0,0.0,0.0,0.0,0.0,0.0,220.0,220.0
1,128,2.56,0.7273,0.00745,0.00298,-1e-05,0.0,-0.0,0.82576,0.82433,0.82734,0.82576,0.82439,0.82723,0.52171,0.00831,0.02489,1.0,0.0,-0.0,0.0,0.7356,0.7356,0.0,0.0,0.0,0.0,0.0,0.0,0.0,0.0,0.0,0.0,220.0,220.0
1,129,2.58,0.73301,0.00745,0.00298,-1e-05,0.0,-0.0,0.82575,0.82432,0.82734,0.82575,0.82438,0.82722,0.52171,0.00831,0.02489,1.0,0.0,-0.0,0.0,0.7413,0.7413,0.0,0.0,0.0,0.0,0.0,0.0,0.0,0.0,0.0,0.0,220.0,220.0
1,130,2.6,0.73871,0.00745,0.00298,-1e-05,0.0,-0.0,0.82576,0.82433,0.82735,0.82576,0.8244,0.82724,0.52171,0.00831,0.02489,1.0,0.0,0.0,0.0,0.747,0.747,0.0,0.0,0.0,0.0,0.0,0.0,0.0,0.0,0.0,0.0,220.0,220.0
1,131,2.62,0.74441,0.00745,0.00298,-1e-05,0.0,-0.0,0.82576,0.82433,0.82735,0.82576,0.82439,0.82723,0.52171,0.00831,0.02489,1.0,0.0,-0.0,0.0,0.75271,0.75271,0.0,0.0,0.0,0.0,0.0,0.0,0.0,0.0,0.0,0.0,220.0,220.0
1,132,2.64,0.75012,0.00745,0.00298,-1e-05,0.0,-0.0,0.82576,0.82433,0.82735,0.82576,0.82439,0.82724,0.52171,0.00831,0.02489,1.0,0.0,-0.0,0.0,0.75841,0.75841,0.0,0.0,0.0,0.0,0.0,0.0,0.0,0.0,0.0,0.0,220.0,220.0
1,133,2.66,0.75582,0.00745,0.00298,-1e-05,0.0,-0.0,0.82577,0.82434,0.82735,0.82577,0.8244,0.82724,0.52171,0.00831,0.02489,1.0,0.0,0.0,0.0,0.76411,0.76411,0.0,0.0,0.0,0.0,0.0,0.0,0.0,0.0,0.0,0.0,220.0,220.0
1,134,2.68,0.76152,0.00745,0.00298,-1e-05,0.0,-0.0,0.82575,0.82432,0.82734,0.82575,0.82439,0.82723,0.52171,0.00831,0.02489,1.0,0.0,0.0,0.0,0.76982,0.76982,0.0,0.0,0.0,0.0,0.0,0.0,0.0,0.0,0.0,0.0,220.0,220.0
1,135,2.7,0.76722,0.00745,0.00298,-1e-05,0.0,-0.0,0.82575,0.82432,0.82734,0.82575,0.82439,0.82722,0.52171,0.00831,0.02489,1.0,0.0,-0.0,0.0,0.77552,0.77552,0.0,0.0,0.0,0.0,0.0,0.0,0.0,0.0,0.0,0.0,220.0,220.0
1,136,2.72,0.77293,0.00745,0.00298,-1e-05,0.0,-0.0,0.82577,0.82434,0.82735,0.82577,0.8244,0.82724,0.52171,0.00831,0.02489,1.0,0.0,0.0,0.0,0.78122,0.78122,0.0,0.0,0.0,0.0,0.0,0.0,0.0,0.0,0.0,0.0,220.0,220.0
1,137,2.74,0.77863,0.00745,0.00298,-1e-05,0.0,-0.0,0.82576,0.82433,0.82734,0.82576,0.82439,0.82723,0.52171,0.00831,0.02489,1.0,0.0,-0.0,0.0,0.78692,0.78692,0.0,0.0,0.0,0.0,0.0,0.0,0.0,0.0,0.0,0.0,220.0,220.0
1,138,2.76,0.78433,0.00745,0.00298,-1e-05,0.0,-0.0,0.82576,0.82433,0.82735,0.82576,0.82439,0.82723,0.52171,0.00831,0.02489,1.0,0.0,0.0,-0.0,0.79263,0.79263,0.0,0.0,0.0,0.0,0.0,0.0,0.0,0.0,0.0,0.0,220.0,220.0
1,139,2.78,0.79004,0.00745,0.00298,-1e-05,0.0,-0.0,0.82577,0.82434,0.82735,0.82577,0.8244,0.82724,0.52171,0.00831,0.02489,1.0,0.0,-0.0,-0.0,0.79833,0.79833,0.0,0.0,0.0,0.0,0.0,0.0,0.0,0.0,0.0,0.0,220.0,220.0
1,140,2.8,0.79574,0.00745,0.00298,-1e-05,0.0,-0.0,0.82575,0.82432,0.82734,0.82575,0.82439,0.82723,0.52171,0.00831,0.02489,1.0,0.0,0.0,-0.0,0.80403,0.80403,0.0,0.0,0.0,0.0,0.0,0.0,0.0,0.0,0.0,0.0,220.0,220.0
1,141,2.82,0.80144,0.00745,0.00298,-1e-05,0.0,-0.0,0.82576,0.82433,0.82734,0.82576,0.82439,0.82723,0.52171,0.00831,0.02489,1.0,0.0,-0.0,-0.0,0.80974,0.80974,0.0,0.0,0.0,0.0,0.0,0.0,0.0,0.0,0.0,0.0,220.0,220.0
1,142,2.84,0.80715,0.00745,0.00298,-1e-05,0.0,-0.0,0.82576,0.82433,0.82735,0.82576,0.8244,0.82724,0.52171,0.00831,0.02489,1.0,0.0,0.0,-0.0,0.81544,0.81544,0.0,0.0,0.0,0.0,0.0,0.0,0.0,0.0,0.0,0.0,220.0,220.0
1,143,2.86,0.81285,0.00745,0.00298,-1e-05,0.0,-0.0,0.82577,0.82434,0.82735,0.82577,0.8244,0.82724,0.52171,0.00831,0.02489,1.0,0.0,-0.0,-0.0,0.82114,0.82114,0.0,0.0,0.0,0.0,0.0,0.0,0.0,0.0,0.0,0.0,220.0,220.0
1,144,2.88,0.81855,0.00745,0.00298,-1e-05,0.0,-0.0,0.82576,0.82433,0.82735,0.82576,0.82439,0.82723,0.52171,0.00831,0.02489,1.0,0.0,0.0,-0.0,0.82685,0.82685,0.0,0.0,0.0,0.0,0.0,0.0,0.0,0.0,0.0,0.0,220.0,220.0
1,145,2.9,0.82426,0.00745,0.00298,-1e-05,0.0,-0.0,0.82576,0.82433,0.82735,0.82576,0.8244,0.82724,0.52171,0.00831,0.02489,1.0,0.0,0.0,-0.0,0.83255,0.83255,0.0,0.0,0.0,0.0,0.0,0.0,0.0,0.0,0.0,0.0,220.0,220.0
1,146,2.92,0.82996,0.00745,0.00298,-1e-05,0.0,-0.0,0.82575,0.82432,0.82734,0.82575,0.82439,0.82722,0.52171,0.00831,0.02489,1.0,0.0,-0.0,-0.0,0.83825,0.83825,0.0,0.0,0.0,0.0,0.0,0.0,0.0,0.0,0.0,0.0,220.0,220.0
1,147,2.94,0.83566,0.00745,0.00298,-1e-05,0.0,-0.0,0.82576,0.82433,0.82734,0.82576,0.82439,0.82723,0.52171,0.00831,0.02489,1.0,0.0,-0.0,-0.0,0.84396,0.84396,0.0,0.0,0.0,0.0,0.0,0.0,0.0,0.0,0.0,0.0,220.0,220.0
1,148,2.96,0.84136,0.00745,0.00298,-1e-05,0.0,-0.0,0.82576,0.82432,0.82734,0.82576,0.82439,0.82723,0.52171,0.00831,0.02489,1.0,0.0,0.0,-0.0,0.84966,0.84966,0.0,0.0,0.0,0.0,0.0,0.0,0.0,0.0,0.0,0.0,220.0,220.0
1,149,2.98,0.84707,0.00745,0.00298,-1e-05,0.0,-0.0,0.82575,0.82432,0.82734,0.82575,0.82439,0.82723,0.52171,0.00831,0.02489,1.0,0.0,0.0,-0.0,0.85536,0.85536,0.0,0.0,0.0,0.0,0.0,0.0,0.0,0.0,0.0,0.0,220.0,220.0
1,150,3.0,0.85277,0.00745,0.00298,-1e-05,0.0,-0.0,0.82576,0.82433,0.82735,0.82576,0.8244,0.82724,0.52171,0.00831,0.02489,1.0,0.0,0.0,-0.0,0.86106,0.86106,0.0,0.0,0.0,0.0,0.0,0.0,0.0,0.0,0.0,0.0,220.0,220.0
1,151,3.02,0.85847,0.00745,0.00298,-1e-05,0.0,-0.0,0.82576,0.82433,0.82735,0.82576,0.82439,0.82724,0.52171,0.00831,0.02489,1.0,0.0,-0.0,-0.0,0.86677,0.86677,0.0,0.0,0.0,0.0,0.0,0.0,0.0,0.0,0.0,0.0,220.0,220.0
1,152,3.04,0.86418,0.00745,0.00298,-1e-05,0.0,-0.0,0.82576,0.82433,0.82734,0.82576,0.82439,0.82723,0.52171,0.00831,0.02489,1.0,0.0,-0.0,-0.0,0.87247,0.87247,0.0,0.0,0.0,0.0,0.0,0.0,0.0,0.0,0.0,0.0,220.0,220.0
1,153,3.06,0.86988,0.00745,0.00298,-1e-05,0.0,-0.0,0.82575,0.82432,0.82733,0.82575,0.82438,0.82722,0.52171,0.00831,0.02489,1.0,0.0,0.0,-0.0,0.87817,0.87817,0.0,0.0,0.0,0.0,0.0,0.0,0.0,0.0,0.0,0.0,220.0,220.0
1,154,3.08,0.87558,0.00745,0.00298,-1e-05,0.0,-0.0,0.82576,0.82433,0.82734,0.82576,0.82439,0.82723,0.52171,0.00831,0.02489,1.0,0.0,-0.0,-0.0,0.88388,0.88388,0.0,0.0,0.0,0.0,0.0,0.0,0.0,0.0,0.0,0.0,220.0,220.0
1,155,3.1,0.88129,0.00745,0.00298,-1e-05,0.0,-0.0,0.82576,0.82432,0.82734,0.82575,0.82439,0.82723,0.52171,0.00831,0.02489,1.0,0.0,-0.0,-0.0,0.88958,0.88958,0.0,0.0,0.0,0.0,0.0,0.0,0.0,0.0,0.0,0.0,220.0,220.0
1,156,3.12,0.88699,0.00745,0.00298,-1e-05,0.0,-0.0,0.82576,0.82433,0.82735,0.82576,0.8244,0.82723,0.52171,0.00831,0.02489,1.0,0.0,-0.0,-0.0,0.89528,0.89528,0.0,0.0,0.0,0.0,0.0,0.0,0.0,0.0,0.0,0.0,220.0,220.0
1,157,3.14,0.89269,0.00745,0.00298,-1e-05,0.0,-0.0,0.82575,0.82432,0.82734,0.82575,0.82438,0.82722,0.52171,0.00831,0.02489,1.0,0.0,-0.0,-0.0,0.90099,0.90099,0.0,0.0,0.0,0.0,0.0,0.0,0.0,0.0,0.0,0.0,220.0,220.0
1,158,3.16,0.8984,0.00745,0.00298,-1e-05,0.0,-0.0,0.82575,0.82432,0.82734,0.82575,0.82439,0.82722,0.52171,0.00831,0.02489,1.0,0.0,-0.0,-0.0,0.90669,0.90669,0.0,0.0,0.0,0.0,0.0,0.0,0.0,0.0,0.0,0.0,220.0,220.0
1,159,3.18,0.9041,0.00745,0.00298,-1e-05,0.0,-0.0,0.82576,0.82433,0.82735,0.82576,0.82439,0.82723,0.52171,0.00831,0.02489,1.0,0.0,-0.0,-0.0,0.91239,0.91239,0.0,0.0,0.0,0.0,0.0,0.0,0.0,0.0,0.0,0.0,220.0,220.0
1,160,3.2,0.9098,0.00745,0.00298,-1e-05,0.0,-0.0,0.82575,0.82432,0.82734,0.82575,0.82438,0.82722,0.52171,0.00831,0.02489,1.0,0.0,0.0,-0.0,0.9181,0.9181,0.0,0.0,0.0,0.0,0.0,0.0,0.0,0.0,0.0,0.0,220.0,220.0
1,161,3.22,0.91551,0.00745,0.00298,-1e-05,0.0,-0.0,0.82576,0.82433,0.82735,0.82576,0.82439,0.82723,0.52171,0.00831,0.02489,1.0,0.0,-0.0,-0.0,0.9238,0.9238,0.0,0.0,0.0,0.0,0.0,0.0,0.0,0.0,0.0,0.0,220.0,220.0
1,162,3.24,0.92121,0.00745,0.00298,-1e-05,0.0,-0.0,0.82575,0.82432,0.82734,0.82575,0.82439,0.82722,0.52171,0.00831,0.02489,1.0,0.0,0.0,-0.0,0.9295,0.9295,0.0,0.0,0.0,0.0,0.0,0.0,0.0,0.0,0.0,0.0,220.0,220.0
1,163,3.26,0.92691,0.00745,0.00298,-1e-05,0.0,-0.0,0.82576,0.82433,0.82735,0.82576,0.82439,0.82723,0.52171,0.00831,0.02489,1.0,0.0,-0.0,-0.0,0.9352,0.9352,0.0,0.0,0.0,0.0,0.0,0.0,0.0,0.0,0.0,0.0,220.0,220.0
1,164,3.28,0.93261,0.00745,0.00298,-1e-05,0.0,-0.0,0.82577,0.82434,0.82735,0.82576,0.8244,0.82724,0.52171,0.00831,0.02489,1.0,0.0,-0.0,-0.0,0.94091,0.94091,0.0,0.0,0.0,0.0,0.0,0.0,0.0,0.0,0.0,0.0,220.0,220.0
1,165,3.3,0.93832,0.00745,0.00298,-1e-05,0.0,-0.0,0.82575,0.82432,0.82734,0.82575,0.82438,0.82722,0.52171,0.00831,0.02489,1.0,0.0,0.0,-0.0,0.94661,0.94661,0.0,0.0,0.0,0.0,0.0,0.0,0.0,0.0,0.0,0.0,220.0,220.0
1,166,3.32,0.94402,0.00745,0.00298,-1e-05,0.0,-0.0,0.82576,0.82433,0.82734,0.82576,0.82439,0.82723,0.52171,0.00831,0.02489,1.0,0.0,-0.0,-0.0,0.95231,0.95231,0.0,0.0,0.0,0.0,0.0,0.0,0.0,0.0,0.0,0.0,220.0,220.0
1,167,3.34,0.94972,0.00745,0.00298,-1e-05,0.0,-0.0,0.82576,0.82433,0.82735,0.82576,0.8244,0.82723,0.52171,0.00831,0.02489,1.0,0.0,0.0,-0.0,0.95802,0.95802,0.0,0.0,0.0,0.0,0.0,0.0,0.0,0.0,0.0,0.0,220.0,220.0
1,168,3.36,0.95543,0.00745,0.00298,-1e-05,0.0,-0.0,0.82576,0.82433,0.82734,0.82576,0.82439,0.82723,0.52171,0.00831,0.02489,1.0,0.0,-0.0,-0.0,0.96372,0.96372,0.0,0.0,0.0,0.0,0.0,0.0,0.0,0.0,0.0,0.0,220.0,220.0
1,169,3.38,0.96113,0.00745,0.00298,-1e-05,0.0,-0.0,0.82575,0.82432,0.82734,0.82575,0.82439,0.82722,0.52171,0.00831,0.02489,1.0,0.0,0.0,-0.0,0.96942,0.96942,0.0,0.0,0.0,0.0,0.0,0.0,0.0,0.0,0.0,0.0,220.0,220.0
1,170,3.4,0.96683,0.00745,0.00298,-1e-05,0.0,-0.0,0.82577,0.82434,0.82736,0.82577,0.82441,0.82725,0.52171,0.00831,0.02489,1.0,0.0,-0.0,-0.0,0.97513,0.97513,0.0,0.0,0.0,0.0,0.0,0.0,0.0,0.0,0.0,0.0,220.0,220.0
1,171,3.42,0.97254,0.00745,0.00298,-1e-05,0.0,-0.0,0.82576,0.82433,0.82735,0.82576,0.8244,0.82724,0.52171,0.00831,0.02489,1.0,0.0,-0.0,0.0,0.98083,0.98083,0.0,0.0,0.0,0.0,0.0,0.0,0.0,0.0,0.0,0.0,220.0,220.0
1,172,3.44,0.97824,0.00745,0.00298,-1e-05,0.0,-0.0,0.82576,0.82433,0.82734,0.82576,0.82439,0.82723,0.52171,0.00831,0.02489,1.0,0.0,-0.0,0.0,0.98653,0.98653,0.0,0.0,0.0,0.0,0.0,0.0,0.0,0.0,0.0,0.0,220.0,220.0
1,173,3.46,0.98394,0.00745,0.00298,-1e-05,0.0,-0.0,0.82575,0.82432,0.82734,0.82575,0.82439,0.82723,0.52171,0.00831,0.02489,1.0,0.0,-0.0,0.0,0.99224,0.99224,0.0,0.0,0.0,0.0,0.0,0.0,0.0,0.0,0.0,0.0,220.0,220.0
1,174,3.48,0.98965,0.00745,0.00298,-1e-05,0.0,-0.0,0.82576,0.82433,0.82735,0.82576,0.8244,0.82724,0.52171,0.00831,0.02489,1.0,0.0,0.0,0.0,0.99794,0.99794,0.0,0.0,0.0,0.0,0.0,0.0,0.0,0.0,0.0,0.0,220.0,220.0
1,175,3.5,0.99535,0.00745,0.00298,-1e-05,0.0,-0.0,0.82575,0.82432,0.82734,0.82575,0.82439,0.82722,0.52171,0.00831,0.02489,1.0,0.0,0.0,0.0,1.00364,1.00364,0.0,0.0,0.0,0.0,0.0,0.0,0.0,0.0,0.0,0.0,220.0,220.0
1,176,3.52,1.00105,0.00745,0.00298,-1e-05,0.0,-0.0,0.82575,0.82432,0.82734,0.82575,0.82438,0.82722,0.52171,0.00831,0.02489,1.0,0.0,0.0,0.0,1.00935,1.00935,0.0,0.0,0.0,0.0,0.0,0.0,0.0,0.0,0.0,0.0,220.0,220.0
1,177,3.54,1.00675,0.00745,0.00298,-1e-05,0.0,-0.0,0.82576,0.82433,0.82735,0.82576,0.8244,0.82724,0.52171,0.00831,0.02489,1.0,0.0,0.0,0.0,1.01505,1.01505,0.0,0.0,0.0,0.0,0.0,0.0,0.0,0.0,0.0,0.0,220.0,220.0
1,178,3.56,1.01246,0.00745,0.00298,-1e-05,0.0,-0.0,0.82576,0.82433,0.82734,0.82576,0.82439,0.82723,0.52171,0.00831,0.02489,1.0,0.0,0.0,0.0,1.02075,1.02075,0.0,0.0,0.0,0.0,0.0,0.0,0.0,0.0,0.0,0.0,220.0,220.0
1,179,3.58,1.01816,0.00745,0.00298,-1e-05,0.0,-0.0,0.82576,0.82433,0.82735,0.82576,0.82439,0.82723,0.52171,0.00831,0.02489,1.0,0.0,-0.0,0.0,1.02645,1.02645,0.0,0.0,0.0,0.0,0.0,0.0,0.0,0.0,0.0,0.0,220.0,220.0
1,180,3.6,1.02386,0.00745,0.00298,-1e-05,0.0,-0.0,0.82576,0.82433,0.82734,0.82576,0.82439,0.82723,0.52171,0.00831,0.02489,1.0,0.0,-0.0,0.0,1.03216,1.03216,0.0,0.0,0.0,0.0,0.0,0.0,0.0,0.0,0.0,0.0,220.0,220.0
1,181,3.62,1.02957,0.00745,0.00298,-1e-05,0.0,-0.0,0.82576,0.82433,0.82735,0.82576,0.82439,0.82724,0.52171,0.00831,0.02489,1.0,0.0,-0.0,0.0,1.03786,1.03786,0.0,0.0,0.0,0.0,0.0,0.0,0.0,0.0,0.0,0.0,220.0,220.0
1,182,3.64,1.03527,0.00745,0.00298,-1e-05,0.0,-0.0,0.82576,0.82433,0.82734,0.82576,0.82439,0.82723,0.52171,0.00831,0.02489,1.0,0.0,-0.0,0.0,1.04356,1.04356,0.0,0.0,0.0,0.0,0.0,0.0,0.0,0.0,0.0,0.0,220.0,220.0
1,183,3.66,1.04097,0.00745,0.00298,-1e-05,0.0,-0.0,0.82575,0.82432,0.82734,0.82575,0.82439,0.82723,0.52171,0.00831,0.02489,1.0,0.0,0.0,0.0,1.04927,1.04927,0.0,0.0,0.0,0.0,0.0,0.0,0.0,0.0,0.0,0.0,220.0,220.0
1,184,3.68,1.04668,0.00745,0.00298,-1e-05,0.0,-0.0,0.82576,0.82433,0.82735,0.82576,0.82439,0.82723,0.52171,0.00831,0.02489,1.0,0.0,0.0,0.0,1.05497,1.05497,0.0,0.0,0.0,0.0,0.0,0.0,0.0,0.0,0.0,0.0,220.0,220.0
1,185,3.7,1.05238,0.00745,0.00298,-1e-05,0.0,-0.0,0.82577,0.82434,0.82735,0.82577,0.8244,0.82724,0.52171,0.00831,0.02489,1.0,0.0,-0.0,0.0,1.06067,1.06067,0.0,0.0,0.0,0.0,0.0,0.0,0.0,0.0,0.0,0.0,220.0,220.0
1,186,3.72,1.05808,0.00745,0.00298,-1e-05,0.0,-0.0,0.82575,0.82432,0.82734,0.82575,0.82438,0.82722,0.52171,0.00831,0.02489,1.0,0.0,0.0,0.0,1.06638,1.06638,0.0,0.0,0.0,0.0,0.0,0.0,0.0,0.0,0.0,0.0,220.0,220.0
1,187,3.74,1.06379,0.00745,0.00298,-1e-05,0.0,-0.0,0.82576,0.82433,0.82735,0.82576,0.8244,0.82723,0.52171,0.00831,0.02489,1.0,0.0,-0.0,0.0,1.07208,1.07208,0.0,0.0,0.0,0.0,0.0,0.0,0.0,0.0,0.0,0.0,220.0,220.0
1,188,3.76,1.06949,0.00745,0.00298,-1e-05,0.0,-0.0,0.82577,0.82433,0.82735,0.82576,0.8244,0.82724,0.52171,0.00831,0.02489,1.0,0.0,-0.0,0.0,1.07778,1.07778,0.0,0.0,0.0,0.0,0.0,0.0,0.0,0.0,0.0,0.0,220.0,220.0
1,189,3.78,1.07519,0.00745,0.00298,-1e-05,0.0,-0.0,0.82576,0.82433,0.82735,0.82576,0.8244,0.82723,0.52171,0.00831,0.02489,1.0,0.0,-0.0,0.0,1.08349,1.08349,0.0,0.0,0.0,0.0,0.0,0.0,0.0,0.0,0.0,0.0,220.0,220.0
1,190,3.8,1.08089,0.00745,0.00298,-1e-05,0.0,-0.0,0.82576,0.82433,0.82735,0.82576,0.82439,0.82723,0.52171,0.00831,0.02489,1.0,0.0,-0.0,0.0,1.08919,1.08919,0.0,0.0,0.0,0.0,0.0,0.0,0.0,0.0,0.0,0.0,220.0,220.0
1,191,3.82,1.0866,0.00745,0.00298,-1e-05,0.0,-0.0,0.82576,0.82433,0.82735,0.82576,0.8244,0.82724,0.52171,0.00831,0.02489,1.0,0.0,0.0,0.0,1.09489,1.09489,0.0,0.0,0.0,0.0,0.0,0.0,0.0,0.0,0.0,0.0,220.0,220.0
1,192,3.84,1.0923,0.00745,0.00298,-1e-05,0.0,-0.0,0.82575,0.82431,0.82733,0.82574,0.82438,0.82722,0.52171,0.00831,0.02489,1.0,0.0,0.0,0.0,1.10059,1.10059,0.0,0.0,0.0,0.0,0.0,0.0,0.0,0.0,0.0,0.0,220.0,220.0
1,193,3.86,1.098,0.00745,0.00298,-1e-05,0.0,-0.0,0.82576,0.82433,0.82735,0.82576,0.8244,0.82723,0.52171,0.00831,0.02489,1.0,0.0,0.0,0.0,1.1063,1.1063,0.0,0.0,0.0,0.0,0.0,0.0,0.0,0.0,0.0,0.0,220.0,220.0
1,194,3.88,1.10371,0.00745,0.00298,-1e-05,0.0,-0.0,0.82577,0.82434,0.82735,0.82577,0.8244,0.82724,0.52171,0.00831,0.02489,1.0,0.0,0.0,0.0,1.112,1.112,0.0,0.0,0.0,0.0,0.0,0.0,0.0,0.0,0.0,0.0,220.0,220.0
1,195,3.9,1.10941,0.00745,0.00298,-1e-05,0.0,-0.0,0.82576,0.82433,0.82734,0.82575,0.82439,0.82723,0.52171,0.00831,0.02489,1.0,0.0,-0.0,0.0,1.1177,1.1177,0.0,0.0,0.0,0.0,0.0,0.0,0.0,0.0,0.0,0.0,220.0,220.0
1,196,3.92,1.11511,0.00745,0.00298,-1e-05,0.0,-0.0,0.82575,0.82432,0.82734,0.82575,0.82438,0.82722,0.52171,0.00831,0.02489,1.0,0.0,-0.0,0.0,1.12341,1.12341,0.0,0.0,0.0,0.0,0.0,0.0,0.0,0.0,0.0,0.0,220.0,220.0
1,197,3.94,1.12082,0.00745,0.00298,-1e-05,0.0,-0.0,0.82575,0.82432,0.82734,0.82575,0.82439,0.82722,0.52171,0.00831,0.02489,1.0,0.0,-0.0,0.0,1.12911,1.12911,0.0,0.0,0.0,0.0,0.0,0.0,0.0,0.0,0.0,0.0,220.0,220.0
1,198,3.96,1.12652,0.00745,0.00298,-1e-05,0.0,-0.0,0.82576,0.82433,0.82734,0.82576,0.82439,0.82723,0.52171,0.00831,0.02489,1.0,0.0,-0.0,0.0,1.13481,1.13481,0.0,0.0,0.0,0.0,0.0,0.0,0.0,0.0,0.0,0.0,220.0,220.0
1,199,3.98,1.13222,0.00745,0.00298,-1e-05,0.0,-0.0,0.82577,0.82433,0.82735,0.82576,0.8244,0.82724,0.52171,0.00831,0.02489,1.0,0.0,-0.0,0.0,1.14052,1.14052,0.0,0.0,0.0,0.0,0.0,0.0,0.0,0.0,0.0,0.0,220.0,220.0
1,200,4.0,1.13793,0.00745,0.00298,-1e-05,0.0,-0.0,0.82576,0.82433,0.82735,0.82576,0.8244,0.82723,0.52171,0.00831,0.02489,1.0,0.0,-0.0,0.0,1.14622,1.14622,0.0,0.0,0.0,0.0,0.0,0.0,0.0,0.0,0.0,0.0,220.0,220.0
1,201,4.02,1.14363,0.00745,0.00298,-1e-05,0.0,-0.0,0.82577,0.82434,0.82735,0.82577,0.8244,0.82724,0.52171,0.00831,0.02489,1.0,0.0,0.0,0.0,1.15192,1.15192,0.0,0.0,0.0,0.0,0.0,0.0,0.0,0.0,0.0,0.0,220.0,220.0
1,202,4.04,1.14933,0.00745,0.00298,-1e-05,0.0,-0.0,0.82576,0.82433,0.82734,0.82576,0.82439,0.82723,0.52171,0.00831,0.02489,1.0,0.0,0.0,0.0,1.15763,1.15763,0.0,0.0,0.0,0.0,0.0,0.0,0.0,0.0,0.0,0.0,220.0,220.0
1,203,4.06,1.15504,0.00745,0.00298,-1e-05,0.0,-0.0,0.82576,0.82433,0.82734,0.82576,0.82439,0.82723,0.52171,0.00831,0.02489,1.0,0.0,-0.0,0.0,1.16333,1.16333,0.0,0.0,0.0,0.0,0.0,0.0,0.0,0.0,0.0,0.0,220.0,220.0
1,204,4.08,1.16074,0.00745,0.00298,-1e-05,0.0,-0.0,0.82576,0.82433,0.82735,0.82576,0.82439,0.82723,0.52171,0.00831,0.02489,1.0,0.0,0.0,0.0,1.16903,1.16903,0.0,0.0,0.0,0.0,0.0,0.0,0.0,0.0,0.0,0.0,220.0,220.0
1,205,4.1,1.16644,0.00745,0.00298,-1e-05,0.0,-0.0,0.82576,0.82432,0.82734,0.82575,0.82439,0.82723,0.52171,0.00831,0.02489,1.0,0.0,-0.0,0.0,1.17473,1.17473,0.0,0.0,0.0,0.0,0.0,0.0,0.0,0.0,0.0,0.0,220.0,220.0
1,206,4.12,1.17214,0.00745,0.00298,-1e-05,0.0,-0.0,0.82577,0.82434,0.82736,0.82577,0.82441,0.82724,0.52171,0.00831,0.02489,1.0,0.0,0.0,0.0,1.18044,1.18044,0.0,0.0,0.0,0.0,0.0,0.0,0.0,0.0,0.0,0.0,220.0,220.0
1,207,4.14,1.17785,0.00745,0.00298,-1e-05,0.0,-0.0,0.82576,0.82432,0.82734,0.82575,0.82439,0.82723,0.52171,0.00831,0.02489,1.0,0.0,-0.0,0.0,1.18614,1.18614,0.0,0.0,0.0,0.0,0.0,0.0,0.0,0.0,0.0,0.0,220.0,220.0
1,208,4.16,1.18355,0.00745,0.00298,-1e-05,0.0,-0.0,0.82577,0.82433,0.82735,0.82576,0.8244,0.82724,0.52171,0.00831,0.02489,1.0,0.0,0.0,0.0,1.19184,1.19184,0.0,0.0,0.0,0.0,0.0,0.0,0.0,0.0,0.0,0.0,220.0,220.0
1,209,4.18,1.18925,0.00745,0.00298,-1e-05,0.0,-0.0,0.82577,0.82434,0.82735,0.82577,0.8244,0.82724,0.52171,0.00831,0.02489,1.0,0.0,-0.0,0.0,1.19755,1.19755,0.0,0.0,0.0,0.0,0.0,0.0,0.0,0.0,0.0,0.0,220.0,220.0
1,210,4.2,1.19496,0.00745,0.00298,-1e-05,0.0,-0.0,0.82576,0.82433,0.82735,0.82576,0.8244,0.82723,0.52171,0.00831,0.02489,1.0,0.0,0.0,0.0,1.20325,1.20325,0.0,0.0,0.0,0.0,0.0,0.0,0.0,0.0,0.0,0.0,220.0,220.0
1,211,4.22,1.20066,0.00745,0.00298,-1e-05,0.0,-0.0,0.82577,0.82433,0.82735,0.82576,0.8244,0.82724,0.52171,0.00831,0.02489,1.0,0.0,-0.0,0.0,1.20895,1.20895,0.0,0.0,0.0,0.0,0.0,0.0,0.0,0.0,0.0,0.0,220.0,220.0
1,212,4.24,1.20636,0.00745,0.00298,-1e-05,0.0,-0.0,0.82577,0.82433,0.82735,0.82576,0.8244,0.82724,0.52171,0.00831,0.02489,1.0,0.0,0.0,0.0,1.21466,1.21466,0.0,0.0,0.0,0.0,0.0,0.0,0.0,0.0,0.0,0.0,220.0,220.0
1,213,4.26,1.21207,0.00745,0.00298,-1e-05,0.0,-0.0,0.82577,0.82434,0.82735,0.82577,0.8244,0.82724,0.52171,0.00831,0.02489,1.0,0.0,0.0,0.0,1.22036,1.22036,0.0,0.0,0.0,0.0,0.0,0.0,0.0,0.0,0.0,0.0,220.0,220.0
1,214,4.28,1.21777,0.00745,0.00298,-1e-05,0.0,-0.0,0.82576,0.82433,0.82734,0.82576,0.82439,0.82723,0.52171,0.00831,0.02489,1.0,0.0,-0.0,0.0,1.22606,1.22606,0.0,0.0,0.0,0.0,0.0,0.0,0.0,0.0,0.0,0.0,220.0,220.0
1,215,4.3,1.22347,0.00745,0.00298,-1e-05,0.0,-0.0,0.82576,0.82433,0.82735,0.82576,0.82439,0.82723,0.52171,0.00831,0.02489,1.0,0.0,-0.0,0.0,1.23177,1.23177,0.0,0.0,0.0,0.0,0.0,0.0,0.0,0.0,0.0,0.0,220.0,220.0
1,216,4.32,1.22918,0.00745,0.00298,-1e-05,0.0,-0.0,0.82577,0.82434,0.82736,0.82577,0.8244,0.82724,0.52171,0.00831,0.02489,1.0,0.0,0.0,0.0,1.23747,1.23747,0.0,0.0,0.0,0.0,0.0,0.0,0.0,0.0,0.0,0.0,220.0,220.0
1,217,4.34,1.23488,0.00745,0.00298,-1e-05,0.0,-0.0,0.82577,0.82434,0.82735,0.82577,0.8244,0.82724,0.52171,0.00831,0.02489,1.0,0.0,-0.0,0.0,1.24317,1.24317,0.0,0.0,0.0,0.0,0.0,0.0,0.0,0.0,0.0,0.0,220.0,220.0
1,218,4.36,1.24058,0.00745,0.00298,-1e-05,0.0,-0.0,0.82577,0.82433,0.82735,0.82576,0.8244,0.82724,0.52171,0.00831,0.02489,1.0,0.0,-0.0,0.0,1.24887,1.24887,0.0,0.0,0.0,0.0,0.0,0.0,0.0,0.0,0.0,0.0,220.0,220.0
1,219,4.38,1.24628,0.00745,0.00298,-1e-05,0.0,-0.0,0.82576,0.82433,0.82735,0.82576,0.82439,0.82723,0.52171,0.00831,0.02489,1.0,0.0,-0.0,0.0,1.25458,1.25458,0.0,0.0,0.0,0.0,0.0,0.0,0.0,0.0,0.0,0.0,220.0,220.0
1,220,4.4,1.25199,0.00745,0.00298,-1e-05,0.0,-0.0,0.82575,0.82432,0.82734,0.82575,0.82439,0.82723,0.52171,0.00831,0.02489,1.0,0.0,-0.0,0.0,1.26028,1.26028,0.0,0.0,0.0,0.0,0.0,0.0,0.0,0.0,0.0,0.0,220.0,220.0
1,221,4.42,1.25769,0.00745,0.00298,-1e-05,0.0,-0.0,0.82576,0.82433,0.82735,0.82576,0.82439,0.82723,0.52171,0.00831,0.02489,1.0,0.0,0.0,0.0,1.26598,1.26598,0.0,0.0,0.0,0.0,0.0,0.0,0.0,0.0,0.0,0.0,220.0,220.0
1,222,4.44,1.26339,0.00745,0.00298,-1e-05,0.0,-0.0,0.82576,0.82432,0.82734,0.82575,0.82439,0.82723,0.52171,0.00831,0.02489,1.0,0.0,0.0,0.0,1.27169,1.27169,0.0,0.0,0.0,0.0,0.0,0.0,0.0,0.0,0.0,0.0,220.0,220.0
1,223,4.46,1.2691,0.00745,0.00298,-1e-05,0.0,-0.0,0.82575,0.82431,0.82733,0.82574,0.82438,0.82722,0.52171,0.00831,0.02489,1.0,0.0,-0.0,0.0,1.27739,1.27739,0.0,0.0,0.0,0.0,0.0,0.0,0.0,0.0,0.0,0.0,220.0,220.0
1,224,4.48,1.2748,0.00745,0.00298,-1e-05,0.0,-0.0,0.82576,0.82433,0.82735,0.82576,0.82439,0.82723,0.52171,0.00831,0.02489,1.0,0.0,-0.0,0.0,1.28309,1.28309,0.0,0.0,0.0,0.0,0.0,0.0,0.0,0.0,0.0,0.0,220.0,220.0
1,225,4.5,1.2805,0.00745,0.00298,-1e-05,0.0,-0.0,0.82575,0.82432,0.82734,0.82575,0.82439,0.82722,0.52171,0.00831,0.02489,1.0,0.0,-0.0,0.0,1.2888,1.2888,0.0,0.0,0.0,0.0,0.0,0.0,0.0,0.0,0.0,0.0,220.0,220.0
1,226,4.52,1.28621,0.00745,0.00298,-1e-05,0.0,-0.0,0.82576,0.82433,0.82734,0.82576,0.82439,0.82723,0.52171,0.00831,0.02489,1.0,0.0,-0.0,0.0,1.2945,1.2945,0.0,0.0,0.0,0.0,0.0,0.0,0.0,0.0,0.0,0.0,220.0,220.0
1,227,4.54,1.29191,0.00745,0.00298,-1e-05,0.0,-0.0,0.82575,0.82432,0.82734,0.82575,0.82439,0.82723,0.52171,0.00831,0.02489,1.0,0.0,0.0,0.0,1.3002,1.3002,0.0,0.0,0.0,0.0,0.0,0.0,0.0,0.0,0.0,0.0,220.0,220.0
1,228,4.56,1.29761,0.00745,0.00298,-1e-05,0.0,-0.0,0.82576,0.82433,0.82735,0.82576,0.8244,0.82723,0.52171,0.00831,0.02489,1.0,0.0,-0.0,0.0,1.30591,1.30591,0.0,0.0,0.0,0.0,0.0,0.0,0.0,0.0,0.0,0.0,220.0,220.0
1,229,4.58,1.30332,0.00745,0.00298,-1e-05,0.0,-0.0,0.82576,0.82433,0.82734,0.82575,0.82439,0.82723,0.52171,0.00831,0.02489,1.0,0.0,0.0,0.0,1.31161,1.31161,0.0,0.0,0.0,0.0,0.0,0.0,0.0,0.0,0.0,0.0,220.0,220.0
1,230,4.6,1.30902,0.00745,0.00298,-1e-05,0.0,-0.0,0.82577,0.82434,0.82735,0.82577,0.8244,0.82724,0.52171,0.00831,0.02489,1.0,0.0,-0.0,0.0,1.31731,1.31731,0.0,0.0,0.0,0.0,0.0,0.0,0.0,0.0,0.0,0.0,220.0,220.0
1,231,4.62,1.31472,0.00745,0.00298,-1e-05,0.0,-0.0,0.82575,0.82432,0.82734,0.82575,0.82439,0.82723,0.52171,0.00831,0.02489,1.0,0.0,0.0,0.0,1.32302,1.32302,0.0,0.0,0.0,0.0,0.0,0.0,0.0,0.0,0.0,0.0,220.0,220.0
1,232,4.64,1.32042,0.00745,0.00298,-1e-05,0.0,-0.0,0.82576,0.82433,0.82735,0.82576,0.8244,0.82723,0.52171,0.00831,0.02489,1.0,0.0,-0.0,0.0,1.32872,1.32872,0.0,0.0,0.0,0.0,0.0,0.0,0.0,0.0,0.0,0.0,220.0,220.0
1,233,4.66,1.32613,0.00745,0.00298,-1e-05,0.0,-0.0,0.82576,0.82433,0.82734,0.82576,0.82439,0.82723,0.52171,0.00831,0.02489,1.0,0.0,0.0,0.0,1.33442,1.33442,0.0,0.0,0.0,0.0,0.0,0.0,0.0,0.0,0.0,0.0,220.0,220.0
1,234,4.68,1.33183,0.00745,0.00298,-1e-05,0.0,-0.0,0.82577,0.82434,0.82735,0.82577,0.8244,0.82724,0.52171,0.00831,0.02489,1.0,0.0,-0.0,0.0,1.34012,1.34012,0.0,0.0,0.0,0.0,0.0,0.0,0.0,0.0,0.0,0.0,220.0,220.0
1,235,4.7,1.33753,0.00745,0.00298,-1e-05,0.0,-0.0,0.82575,0.82432,0.82734,0.82575,0.82439,0.82722,0.52171,0.00831,0.02489,1.0,0.0,0.0,0.0,1.34583,1.34583,0.0,0.0,0.0,0.0,0.0,0.0,0.0,0.0,0.0,0.0,220.0,220.0
1,236,4.72,1.34324,0.00745,0.00298,-1e-05,0.0,-0.0,0.82576,0.82433,0.82734,0.82576,0.82439,0.82723,0.52171,0.00831,0.02489,1.0,0.0,-0.0,0.0,1.35153,1.35153,0.0,0.0,0.0,0.0,0.0,0.0,0.0,0.0,0.0,0.0,220.0,220.0
1,237,4.74,1.34894,0.00745,0.00298,-1e-05,0.0,-0.0,0.82577,0.82434,0.82735,0.82577,0.8244,0.82724,0.52171,0.00831,0.02489,1.0,0.0,0.0,0.0,1.35723,1.35723,0.0,0.0,0.0,0.0,0.0,0.0,0.0,0.0,0.0,0.0,220.0,220.0
1,238,4.76,1.35464,0.00745,0.00298,-1e-05,0.0,-0.0,0.82576,0.82433,0.82735,0.82576,0.8244,0.82724,0.52171,0.00831,0.02489,1.0,0.0,0.0,0.0,1.36294,1.36294,0.0,0.0,0.0,0.0,0.0,0.0,0.0,0.0,0.0,0.0,220.0,220.0
1,239,4.78,1.36035,0.00745,0.00298,-1e-05,0.0,-0.0,0.82577,0.82434,0.82735,0.82577,0.8244,0.82724,0.52171,0.00831,0.02489,1.0,0.0,0.0,0.0,1.36864,1.36864,0.0,0.0,0.0,0.0,0.0,0.0,0.0,0.0,0.0,0.0,220.0,220.0
1,240,4.8,1.36605,0.00745,0.00298,-1e-05,0.0,-0.0,0.82576,0.82433,0.82735,0.82576,0.8244,0.82723,0.52171,0.00831,0.02489,1.0,0.0,0.0,0.0,1.37434,1.37434,0.0,0.0,0.0,0.0,0.0,0.0,0.0,0.0,0.0,0.0,220.0,220.0
1,241,4.82,1.37175,0.00745,0.00298,-1e-05,0.0,-0.0,0.82575,0.82432,0.82734,0.82575,0.82439,0.82723,0.52171,0.00831,0.02489,1.0,0.0,-0.0,0.0,1.38005,1.38005,0.0,0.0,0.0,0.0,0.0,0.0,0.0,0.0,0.0,0.0,220.0,220.0
1,242,4.84,1.37746,0.00745,0.00298,-1e-05,0.0,-0.0,0.82576,0.82433,0.82735,0.82576,0.82439,0.82723,0.52171,0.00831,0.02489,1.0,0.0,0.0,0.0,1.38575,1.38575,0.0,0.0,0.0,0.0,0.0,0.0,0.0,0.0,0.0,0.0,220.0,220.0
1,243,4.86,1.38316,0.00745,0.00298,-1e-05,0.0,-0.0,0.82577,0.82434,0.82735,0.82577,0.8244,0.82724,0.52171,0.00831,0.02489,1.0,0.0,-0.0,0.0,1.39145,1.39145,0.0,0.0,0.0,0.0,0.0,0.0,0.0,0.0,0.0,0.0,220.0,220.0
1,244,4.88,1.38886,0.00745,0.00298,-1e-05,0.0,-0.0,0.82576,0.82432,0.82734,0.82575,0.82439,0.82723,0.52171,0.00831,0.02489,1.0,0.0,0.0,0.0,1.39716,1.39716,0.0,0.0,0.0,0.0,0.0,0.0,0.0,0.0,0.0,0.0,220.0,220.0
1,245,4.9,1.39456,0.00745,0.00298,-1e-05,0.0,-0.0,0.82577,0.82434,0.82736,0.82577,0.82441,0.82725,0.52171,0.00831,0.02489,1.0,0.0,-0.0,0.0,1.40286,1.40286,0.0,0.0,0.0,0.0,0.0,0.0,0.0,0.0,0.0,0.0,220.0,220.0
1,246,4.92,1.40027,0.00745,0.00298,-1e-05,0.0,-0.0,0.82576,0.82433,0.82735,0.82576,0.8244,0.82723,0.52171,0.00831,0.02489,1.0,0.0,0.0,0.0,1.40856,1.40856,0.0,0.0,0.0,0.0,0.0,0.0,0.0,0.0,0.0,0.0,220.0,220.0
1,247,4.94,1.40597,0.00745,0.00298,-1e-05,0.0,-0.0,0.82576,0.82433,0.82735,0.82576,0.82439,0.82723,0.52171,0.00831,0.02489,1.0,0.0,0.0,0.0,1.41426,1.41426,0.0,0.0,0.0,0.0,0.0,0.0,0.0,0.0,0.0,0.0,220.0,220.0
1,248,4.96,1.41167,0.00745,0.00298,-1e-05,0.0,-0.0,0.82576,0.82433,0.82734,0.82576,0.82439,0.82723,0.52171,0.00831,0.02489,1.0,0.0,-0.0,0.0,1.41997,1.41997,0.0,0.0,0.0,0.0,0.0,0.0,0.0,0.0,0.0,0.0,220.0,220.0
1,249,4.98,1.41738,0.00745,0.00298,-1e-05,0.0,-0.0,0.82577,0.82434,0.82735,0.82576,0.8244,0.82724,0.52171,0.00831,0.02489,1.0,0.0,0.0,0.0,1.42567,1.42567,0.0,0.0,0.0,0.0,0.0,0.0,0.0,0.0,0.0,0.0,220.0,220.0
1,250,5.0,1.42308,0.00745,0.00298,-1e-05,0.0,-0.0,0.82577,0.82434,0.82735,0.82577,0.8244,0.82724,0.52171,0.00831,0.02489,1.0,0.0,-0.0,0.0,1.43137,1.43137,0.0,0.0,0.0,0.0,0.0,0.0,0.0,0.0,0.0,0.0,220.0,220.0
1,251,5.02,1.42878,0.00745,0.00298,-1e-05,0.0,-0.0,0.82575,0.82432,0.82734,0.82575,0.82438,0.82722,0.52171,0.00831,0.02489,1.0,0.0,0.0,0.0,1.43708,1.43708,0.0,0.0,0.0,0.0,0.0,0.0,0.0,0.0,0.0,0.0,220.0,220.0
1,252,5.04,1.43449,0.00745,0.00298,-1e-05,0.0,-0.0,0.82576,0.82433,0.82734,0.82576,0.82439,0.82723,0.52171,0.00831,0.02489,1.0,0.0,-0.0,0.0,1.44278,1.44278,0.0,0.0,0.0,0.0,0.0,0.0,0.0,0.0,0.0,0.0,220.0,220.0
1,253,5.06,1.44019,0.00745,0.00298,-1e-05,0.0,-0.0,0.82576,0.82432,0.82734,0.82576,0.82439,0.82723,0.52171,0.00831,0.02489,1.0,0.0,0.0,0.0,1.44848,1.44848,0.0,0.0,0.0,0.0,0.0,0.0,0.0,0.0,0.0,0.0,220.0,220.0
1,254,5.08,1.44589,0.00745,0.00298,-1e-05,0.0,-0.0,0.82576,0.82433,0.82734,0.82576,0.82439,0.82723,0.52171,0.00831,0.02489,1.0,0.0,-0.0,0.0,1.45419,1.45419,0.0,0.0,0.0,0.0,0.0,0.0,0.0,0.0,0.0,0.0,220.0,220.0
1,255,5.1,1.4516,0.00745,0.00298,-1e-05,0.0,-0.0,0.82577,0.82434,0.82736,0.82577,0.8244,0.82724,0.52171,0.00831,0.02489,1.0,0.0,0.0,0.0,1.45989,1.45989,0.0,0.0,0.0,0.0,0.0,0.0,0.0,0.0,0.0,0.0,220.0,220.0
1,256,5.12,1.4573,0.00745,0.00298,-1e-05,0.0,-0.0,0.82576,0.82433,0.82735,0.82576,0.8244,0.82724,0.52171,0.00831,0.02489,1.0,0.0,-0.0,0.0,1.46559,1.46559,0.0,0.0,0.0,0.0,0.0,0.0,0.0,0.0,0.0,0.0,220.0,220.0
1,257,5.14,1.463,0.00745,0.00298,-1e-05,0.0,-0.0,0.82576,0.82433,0.82734,0.82576,0.82439,0.82723,0.52171,0.00831,0.02489,1.0,0.0,0.0,0.0,1.4713,1.4713,0.0,0.0,0.0,0.0,0.0,0.0,0.0,0.0,0.0,0.0,220.0,220.0
1,258,5.16,1.46871,0.00745,0.00298,-1e-05,0.0,-0.0,0.82576,0.82433,0.82735,0.82576,0.8244,0.82723,0.52171,0.00831,0.02489,1.0,0.0,-0.0,0.0,1.477,1.477,0.0,0.0,0.0,0.0,0.0,0.0,0.0,0.0,0.0,0.0,220.0,220.0
1,259,5.18,1.47441,0.00745,0.00298,-1e-05,0.0,-0.0,0.82576,0.82432,0.82734,0.82575,0.82439,0.82723,0.52171,0.00831,0.02489,1.0,0.0,0.0,0.0,1.4827,1.4827,0.0,0.0,0.0,0.0,0.0,0.0,0.0,0.0,0.0,0.0,220.0,220.0
1,260,5.2,1.48011,0.00745,0.00298,-1e-05,0.0,-0.0,0.82576,0.82433,0.82735,0.82576,0.82439,0.82723,0.52171,0.00831,0.02489,1.0,0.0,-0.0,0.0,1.4884,1.4884,0.0,0.0,0.0,0.0,0.0,0.0,0.0,0.0,0.0,0.0,220.0,220.0
1,261,5.22,1.48581,0.00745,0.00298,-1e-05,0.0,-0.0,0.82576,0.82433,0.82735,0.82576,0.82439,0.82723,0.52171,0.00831,0.02489,1.0,0.0,-0.0,0.0,1.49411,1.49411,0.0,0.0,0.0,0.0,0.0,0.0,0.0,0.0,0.0,0.0,220.0,220.0
1,262,5.24,1.49152,0.00745,0.00298,-1e-05,0.0,-0.0,0.82576,0.82433,0.82735,0.82576,0.82439,0.82723,0.52171,0.00831,0.02489,1.0,0.0,0.0,0.0,1.49981,1.49981,0.0,0.0,0.0,0.0,0.0,0.0,0.0,0.0,0.0,0.0,220.0,220.0
1,263,5.26,1.49722,0.00745,0.00298,-1e-05,0.0,-0.0,0.82575,0.82432,0.82734,0.82575,0.82439,0.82722,0.52171,0.00831,0.02489,1.0,0.0,-0.0,0.0,1.50551,1.50551,0.0,0.0,0.0,0.0,0.0,0.0,0.0,0.0,0.0,0.0,220.0,220.0
1,264,5.28,1.50292,0.00745,0.00298,-1e-05,0.0,-0.0,0.82575,0.82432,0.82734,0.82575,0.82439,0.82723,0.52171,0.00831,0.02489,1.0,0.0,0.0,0.0,1.51122,1.51122,0.0,0.0,0.0,0.0,0.0,0.0,0.0,0.0,0.0,0.0,220.0,220.0
1,265,5.3,1.50863,0.00745,0.00298,-1e-05,0.0,-0.0,0.82576,0.82433,0.82735,0.82576,0.8244,0.82724,0.52171,0.00831,0.02489,1.0,0.0,0.0,0.0,1.51692,1.51692,0.0,0.0,0.0,0.0,0.0,0.0,0.0,0.0,0.0,0.0,220.0,220.0
1,266,5.32,1.51433,0.00745,0.00298,-1e-05,0.0,-0.0,0.82576,0.82432,0.82734,0.82575,0.82439,0.82723,0.52171,0.00831,0.02489,1.0,0.0,-0.0,0.0,1.52262,1.52262,0.0,0.0,0.0,0.0,0.0,0.0,0.0,0.0,0.0,0.0,220.0,220.0
1,267,5.34,1.52003,0.00745,0.00298,-1e-05,0.0,-0.0,0.82575,0.82432,0.82734,0.82575,0.82438,0.82722,0.52171,0.00831,0.02489,1.0,0.0,0.0,0.0,1.52833,1.52833,0.0,0.0,0.0,0.0,0.0,0.0,0.0,0.0,0.0,0.0,220.0,220.0
1,268,5.36,1.52574,0.00745,0.00298,-1e-05,0.0,-0.0,0.82575,0.82432,0.82734,0.82575,0.82439,0.82723,0.52171,0.00831,0.02489,1.0,0.0,-0.0,0.0,1.53403,1.53403,0.0,0.0,0.0,0.0,0.0,0.0,0.0,0.0,0.0,0.0,220.0,220.0
1,269,5.38,1.53144,0.00745,0.00298,-1e-05,0.0,-0.0,0.82575,0.82432,0.82734,0.82575,0.82439,0.82723,0.52171,0.00831,0.02489,1.0,0.0,0.0,0.0,1.53973,1.53973,0.0,0.0,0.0,0.0,0.0,0.0,0.0,0.0,0.0,0.0,220.0,220.0
1,270,5.4,1.53714,0.00745,0.00298,-1e-05,0.0,-0.0,0.82576,0.82433,0.82734,0.82576,0.82439,0.82723,0.52171,0.00831,0.02489,1.0,0.0,-0.0,0.0,1.54544,1.54544,0.0,0.0,0.0,0.0,0.0,0.0,0.0,0.0,0.0,0.0,220.0,220.0
1,271,5.42,1.54285,0.00745,0.00298,-1e-05,0.0,-0.0,0.82575,0.82432,0.82734,0.82575,0.82439,0.82723,0.52171,0.00831,0.02489,1.0,0.0,0.0,0.0,1.55114,1.55114,0.0,0.0,0.0,0.0,0.0,0.0,0.0,0.0,0.0,0.0,220.0,220.0
1,272,5.44,1.54855,0.00745,0.00298,-1e-05,0.0,-0.0,0.82576,0.82433,0.82735,0.82576,0.8244,0.82724,0.52171,0.00831,0.02489,1.0,0.0,-0.0,0.0,1.55684,1.55684,0.0,0.0,0.0,0.0,0.0,0.0,0.0,0.0,0.0,0.0,220.0,220.0
1,273,5.46,1.55425,0.00745,0.00298,-1e-05,0.0,-0.0,0.82575,0.82432,0.82734,0.82575,0.82438,0.82722,0.52171,0.00831,0.02489,1.0,0.0,-0.0,0.0,1.56255,1.56255,0.0,0.0,0.0,0.0,0.0,0.0,0.0,0.0,0.0,0.0,220.0,220.0
1,274,5.48,1.55995,0.00745,0.00298,-1e-05,0.0,-0.0,0.82576,0.82432,0.82734,0.82575,0.82439,0.82723,0.52171,0.00831,0.02489,1.0,0.0,0.0,0.0,1.56825,1.56825,0.0,0.0,0.0,0.0,0.0,0.0,0.0,0.0,0.0,0.0,220.0,220.0
1,275,5.5,1.56566,0.00745,0.00298,-1e-05,0.0,-0.0,0.82575,0.82432,0.82734,0.82575,0.82438,0.82722,0.52171,0.00831,0.02489,1.0,0.0,-0.0,0.0,1.57395,1.57395,0.0,0.0,0.0,0.0,0.0,0.0,0.0,0.0,0.0,0.0,220.0,220.0
1,276,5.52,1.57136,0.00745,0.00298,-1e-05,0.0,-0.0,0.82577,0.82434,0.82735,0.82577,0.8244,0.82724,0.52171,0.00831,0.02489,1.0,0.0,0.0,0.0,1.57965,1.57965,0.0,0.0,0.0,0.0,0.0,0.0,0.0,0.0,0.0,0.0,220.0,220.0
1,277,5.54,1.57706,0.00745,0.00298,-1e-05,0.0,-0.0,0.82576,0.82433,0.82734,0.82576,0.82439,0.82723,0.52171,0.00831,0.02489,1.0,0.0,-0.0,0.0,1.58536,1.58536,0.0,0.0,0.0,0.0,0.0,0.0,0.0,0.0,0.0,0.0,220.0,220.0
1,278,5.56,1.58277,0.00745,0.00298,-1e-05,0.0,-0.0,0.82575,0.82432,0.82734,0.82575,0.82439,0.82723,0.52171,0.00831,0.02489,1.0,0.0,0.0,0.0,1.59106,1.59106,0.0,0.0,0.0,0.0,0.0,0.0,0.0,0.0,0.0,0.0,220.0,220.0
1,279,5.58,1.58847,0.00745,0.00298,-1e-05,0.0,-0.0,0.82576,0.82433,0.82734,0.82576,0.82439,0.82723,0.52171,0.00831,0.02489,1.0,0.0,-0.0,0.0,1.59676,1.59676,0.0,0.0,0.0,0.0,0.0,0.0,0.0,0.0,0.0,0.0,220.0,220.0
1,280,5.6,1.59417,0.00745,0.00298,-1e-05,0.0,-0.0,0.82576,0.82433,0.82735,0.82576,0.8244,0.82724,0.52171,0.00831,0.02489,1.0,0.0,0.0,0.0,1.60247,1.60247,0.0,0.0,0.0,0.0,0.0,0.0,0.0,0.0,0.0,0.0,220.0,220.0
1,281,5.62,1.59988,0.00745,0.00298,-1e-05,0.0,-0.0,0.82576,0.82433,0.82735,0.82576,0.8244,0.82724,0.52171,0.00831,0.02489,1.0,0.0,0.0,0.0,1.60817,1.60817,0.0,0.0,0.0,0.0,0.0,0.0,0.0,0.0,0.0,0.0,220.0,220.0
1,282,5.64,1.60558,0.00745,0.00298,-1e-05,0.0,-0.0,0.82576,0.82433,0.82735,0.82576,0.8244,0.82724,0.52171,0.00831,0.02489,1.0,0.0,0.0,0.0,1.61387,1.61387,0.0,0.0,0.0,0.0,0.0,0.0,0.0,0.0,0.0,0.0,220.0,220.0
1,283,5.66,1.61128,0.00745,0.00298,-1e-05,0.0,-0.0,0.82576,0.82433,0.82734,0.82575,0.82439,0.82723,0.52171,0.00831,0.02489,1.0,0.0,-0.0,0.0,1.61958,1.61958,0.0,0.0,0.0,0.0,0.0,0.0,0.0,0.0,0.0,0.0,220.0,220.0
1,284,5.68,1.61699,0.00745,0.00298,-1e-05,0.0,-0.0,0.82577,0.82433,0.82735,0.82576,0.8244,0.82724,0.52171,0.00831,0.02489,1.0,0.0,0.0,0.0,1.62528,1.62528,0.0,0.0,0.0,0.0,0.0,0.0,0.0,0.0,0.0,0.0,220.0,220.0
1,285,5.7,1.62269,0.00745,0.00298,-1e-05,0.0,-0.0,0.82577,0.82434,0.82735,0.82577,0.8244,0.82724,0.52171,0.00831,0.02489,1.0,0.0,0.0,0.0,1.63098,1.63098,0.0,0.0,0.0,0.0,0.0,0.0,0.0,0.0,0.0,0.0,220.0,220.0
1,286,5.72,1.62839,0.00745,0.00298,-1e-05,0.0,-0.0,0.82576,0.82433,0.82735,0.82576,0.82439,0.82723,0.52171,0.00831,0.02489,1.0,0.0,-0.0,0.0,1.63669,1.63669,0.0,0.0,0.0,0.0,0.0,0.0,0.0,0.0,0.0,0.0,220.0,220.0
1,287,5.74,1.63409,0.00745,0.00298,-1e-05,0.0,-0.0,0.82575,0.82431,0.82733,0.82574,0.82438,0.82722,0.52171,0.00831,0.02489,1.0,0.0,0.0,0.0,1.64239,1.64239,0.0,0.0,0.0,0.0,0.0,0.0,0.0,0.0,0.0,0.0,220.0,220.0
1,288,5.76,1.6398,0.00745,0.00298,-1e-05,0.0,-0.0,0.82575,0.82432,0.82734,0.82575,0.82438,0.82722,0.52171,0.00831,0.02489,1.0,0.0,-0.0,0.0,1.64809,1.64809,0.0,0.0,0.0,0.0,0.0,0.0,0.0,0.0,0.0,0.0,220.0,220.0
1,289,5.78,1.6455,0.00745,0.00298,-1e-05,0.0,-0.0,0.82576,0.82433,0.82735,0.82576,0.82439,0.82723,0.52171,0.00831,0.02489,1.0,0.0,0.0,0.0,1.65379,1.65379,0.0,0.0,0.0,0.0,0.0,0.0,0.0,0.0,0.0,0.0,220.0,220.0
1,290,5.8,1.6512,0.00745,0.00298,-1e-05,0.0,-0.0,0.82576,0.82432,0.82734,0.82575,0.82439,0.82723,0.52171,0.00831,0.02489,1.0,0.0,0.0,0.0,1.6595,1.6595,0.0,0.0,0.0,0.0,0.0,0.0,0.0,0.0,0.0,0.0,220.0,220.0
1,291,5.82,1.65691,0.00745,0.00298,-1e-05,0.0,-0.0,0.82576,0.82433,0.82735,0.82576,0.82439,0.82723,0.52171,0.00831,0.02489,1.0,0.0,-0.0,0.0,1.6652,1.6652,0.0,0.0,0.0,0.0,0.0,0.0,0.0,0.0,0.0,0.0,220.0,220.0
1,292,5.84,1.66261,0.00745,0.00298,-1e-05,0.0,-0.0,0.82576,0.82433,0.82734,0.82576,0.82439,0.82723,0.52171,0.00831,0.02489,1.0,0.0,0.0,0.0,1.6709,1.6709,0.0,0.0,0.0,0.0,0.0,0.0,0.0,0.0,0.0,0.0,220.0,220.0
1,293,5.86,1.66831,0.00745,0.00298,-1e-05,0.0,-0.0,0.82577,0.82433,0.82735,0.82576,0.8244,0.82724,0.52171,0.00831,0.02489,1.0,0.0,-0.0,0.0,1.67661,1.67661,0.0,0.0,0.0,0.0,0.0,0.0,0.0,0.0,0.0,0.0,220.0,220.0
1,294,5.88,1.67402,0.00745,0.00298,-1e-05,0.0,-0.0,0.82576,0.82433,0.82735,0.82576,0.82439,0.82723,0.52171,0.00831,0.02489,1.0,0.0,-0.0,0.0,1.68231,1.68231,0.0,0.0,0.0,0.0,0.0,0.0,0.0,0.0,0.0,0.0,220.0,220.0
1,295,5.9,1.67972,0.00745,0.00298,-1e-05,0.0,-0.0,0.82575,0.82432,0.82734,0.82575,0.82439,0.82723,0.52171,0.00831,0.02489,1.0,0.0,0.0,0.0,1.68801,1.68801,0.0,0.0,0.0,0.0,0.0,0.0,0.0,0.0,0.0,0.0,220.0,220.0
1,296,5.92,1.68542,0.00745,0.00298,-1e-05,0.0,-0.0,0.82576,0.82433,0.82735,0.82576,0.82439,0.82723,0.52171,0.00831,0.02489,1.0,0.0,0.0,0.0,1.69372,1.69372,0.0,0.0,0.0,0.0,0.0,0.0,0.0,0.0,0.0,0.0,220.0,220.0
1,297,5.94,1.69113,0.00745,0.00298,-1e-05,0.0,-0.0,0.82576,0.82433,0.82735,0.82576,0.82439,0.82723,0.52171,0.00831,0.02489,1.0,0.0,-0.0,0.0,1.69942,1.69942,0.0,0.0,0.0,0.0,0.0,0.0,0.0,0.0,0.0,0.0,220.0,220.0
1,298,5.96,1.69683,0.00745,0.00298,-1e-05,0.0,-0.0,0.82576,0.82433,0.82735,0.82576,0.8244,0.82724,0.52171,0.00831,0.02489,1.0,0.0,0.0,0.0,1.70512,1.70512,0.0,0.0,0.0,0.0,0.0,0.0,0.0,0.0,0.0,0.0,220.0,220.0
1,299,5.98,1.70253,0.00745,0.00298,-1e-05,0.0,-0.0,0.82575,0.82432,0.82734,0.82575,0.82439,0.82722,0.52171,0.00831,0.02489,1.0,0.0,-0.0,0.0,1.71083,1.71083,0.0,0.0,0.0,0.0,0.0,0.0,0.0,0.0,0.0,0.0,220.0,220.0
1,300,6.0,1.70824,0.00745,0.00298,-1e-05,0.0,-0.0,0.82576,0.82433,0.82735,0.82576,0.82439,0.82723,0.52171,0.00831,0.02489,1.0,0.0,-0.0,0.0,1.71653,1.71653,0.0,0.0,0.0,0.0,0.0,0.0,0.0,0.0,0.0,0.0,220.0,220.0
1,301,6.02,1.71394,0.00745,0.00298,-1e-05,0.0,-0.0,0.82575,0.82432,0.82734,0.82575,0.82439,0.82722,0.52171,0.00831,0.02489,1.0,0.0,0.0,0.0,1.72223,1.72223,0.0,0.0,0.0,0.0,0.0,0.0,0.0,0.0,0.0,0.0,220.0,220.0
1,302,6.04,1.71964,0.00745,0.00298,-1e-05,0.0,-0.0,0.82577,0.82433,0.82735,0.82576,0.8244,0.82724,0.52171,0.00831,0.02489,1.0,0.0,-0.0,0.0,1.72793,1.72793,0.0,0.0,0.0,0.0,0.0,0.0,0.0,0.0,0.0,0.0,220.0,220.0
1,303,6.06,1.72534,0.00745,0.00298,-1e-05,0.0,-0.0,0.82576,0.82433,0.82735,0.82576,0.82439,0.82723,0.52171,0.00831,0.02489,1.0,0.0,-0.0,0.0,1.73364,1.73364,0.0,0.0,0.0,0.0,0.0,0.0,0.0,0.0,0.0,0.0,220.0,220.0
1,304,6.08,1.73105,0.00745,0.00298,-1e-05,0.0,-0.0,0.82575,0.82432,0.82734,0.82575,0.82439,0.82723,0.52171,0.00831,0.02489,1.0,0.0,-0.0,0.0,1.73934,1.73934,0.0,0.0,0.0,0.0,0.0,0.0,0.0,0.0,0.0,0.0,220.0,220.0
1,305,6.1,1.73675,0.00745,0.00298,-1e-05,0.0,-0.0,0.82577,0.82434,0.82735,0.82576,0.8244,0.82724,0.52171,0.00831,0.02489,1.0,0.0,-0.0,0.0,1.74504,1.74504,0.0,0.0,0.0,0.0,0.0,0.0,0.0,0.0,0.0,0.0,220.0,220.0
1,306,6.12,1.74245,0.00745,0.00298,-1e-05,0.0,-0.0,0.82577,0.82434,0.82735,0.82577,0.8244,0.82724,0.52171,0.00831,0.02489,1.0,0.0,0.0,0.0,1.75075,1.75075,0.0,0.0,0.0,0.0,0.0,0.0,0.0,0.0,0.0,0.0,220.0,220.0
1,307,6.14,1.74816,0.00745,0.00298,-1e-05,0.0,-0.0,0.82576,0.82433,0.82735,0.82576,0.82439,0.82723,0.52171,0.00831,0.02489,1.0,0.0,0.0,0.0,1.75645,1.75645,0.0,0.0,0.0,0.0,0.0,0.0,0.0,0.0,0.0,0.0,220.0,220.0
1,308,6.16,1.75386,0.00745,0.00298,-1e-05,0.0,-0.0,0.82576,0.82433,0.82734,0.82576,0.82439,0.82723,0.52171,0.00831,0.02489,1.0,0.0,-0.0,0.0,1.76215,1.76215,0.0,0.0,0.0,0.0,0.0,0.0,0.0,0.0,0.0,0.0,220.0,220.0
1,309,6.18,1.75956,0.00745,0.00298,-1e-05,0.0,-0.0,0.82576,0.82433,0.82735,0.82576,0.82439,0.82723,0.52171,0.00831,0.02489,1.0,0.0,-0.0,0.0,1.76786,1.76786,0.0,0.0,0.0,0.0,0.0,0.0,0.0,0.0,0.0,0.0,220.0,220.0
1,310,6.2,1.76527,0.00745,0.00298,-1e-05,0.0,-0.0,0.82576,0.82433,0.82734,0.82576,0.82439,0.82723,0.52171,0.00831,0.02489,1.0,0.0,-0.0,0.0,1.77356,1.77356,0.0,0.0,0.0,0.0,0.0,0.0,0.0,0.0,0.0,0.0,220.0,220.0
1,311,6.22,1.77097,0.00745,0.00298,-1e-05,0.0,-0.0,0.82576,0.82433,0.82735,0.82576,0.82439,0.82723,0.52171,0.00831,0.02489,1.0,0.0,-0.0,0.0,1.77926,1.77926,0.0,0.0,0.0,0.0,0.0,0.0,0.0,0.0,0.0,0.0,220.0,220.0
1,312,6.24,1.77667,0.00745,0.00298,-1e-05,0.0,-0.0,0.82576,0.82433,0.82735,0.82576,0.8244,0.82724,0.52171,0.00831,0.02489,1.0,0.0,-0.0,0.0,1.78497,1.78497,0.0,0.0,0.0,0.0,0.0,0.0,0.0,0.0,0.0,0.0,220.0,220.0
1,313,6.26,1.78238,0.00745,0.00298,-1e-05,0.0,-0.0,0.82575,0.82432,0.82734,0.82575,0.82439,0.82723,0.52171,0.00831,0.02489,1.0,0.0,0.0,0.0,1.79067,1.79067,0.0,0.0,0.0,0.0,0.0,0.0,0.0,0.0,0.0,0.0,220.0,220.0
1,314,6.28,1.78808,0.00745,0.00298,-1e-05,0.0,-0.0,0.82576,0.82433,0.82735,0.82576,0.82439,0.82723,0.52171,0.00831,0.02489,1.0,0.0,-0.0,0.0,1.79637,1.79637,0.0,0.0,0.0,0.0,0.0,0.0,0.0,0.0,0.0,0.0,220.0,220.0
1,315,6.3,1.79378,0.00745,0.00298,-1e-05,0.0,-0.0,0.82577,0.82434,0.82735,0.82577,0.8244,0.82724,0.52171,0.00831,0.02489,1.0,0.0,0.0,0.0,1.80208,1.80208,0.0,0.0,0.0,0.0,0.0,0.0,0.0,0.0,0.0,0.0,220.0,220.0
1,316,6.32,1.79948,0.00745,0.00298,-1e-05,0.0,-0.0,0.82576,0.82433,0.82735,0.82576,0.8244,0.82724,0.52171,0.00831,0.02489,1.0,0.0,-0.0,0.0,1.80778,1.80778,0.0,0.0,0.0,0.0,0.0,0.0,0.0,0.0,0.0,0.0,220.0,220.0
1,317,6.34,1.80519,0.00745,0.00298,-1e-05,0.0,-0.0,0.82576,0.82433,0.82734,0.82576,0.82439,0.82723,0.52171,0.00831,0.02489,1.0,0.0,-0.0,0.0,1.81348,1.81348,0.0,0.0,0.0,0.0,0.0,0.0,0.0,0.0,0.0,0.0,220.0,220.0
1,318,6.36,1.81089,0.00745,0.00298,-1e-05,0.0,-0.0,0.82575,0.82432,0.82734,0.82575,0.82438,0.82722,0.52171,0.00831,0.02489,1.0,0.0,0.0,0.0,1.81918,1.81918,0.0,0.0,0.0,0.0,0.0,0.0,0.0,0.0,0.0,0.0,220.0,220.0
1,319,6.38,1.81659,0.00745,0.00298,-1e-05,0.0,-0.0,0.82577,0.82433,0.82735,0.82576,0.8244,0.82724,0.52171,0.00831,0.02489,1.0,0.0,-0.0,0.0,1.82489,1.82489,0.0,0.0,0.0,0.0,0.0,0.0,0.0,0.0,0.0,0.0,220.0,220.0
1,320,6.4,1.8223,0.00745,0.00298,-1e-05,0.0,-0.0,0.82575,0.82432,0.82734,0.82575,0.82438,0.82722,0.52171,0.00831,0.02489,1.0,0.0,0.0,0.0,1.83059,1.83059,0.0,0.0,0.0,0.0,0.0,0.0,0.0,0.0,0.0,0.0,220.0,220.0
1,321,6.42,1.828,0.00745,0.00298,-1e-05,0.0,-0.0,0.82575,0.82432,0.82734,0.82575,0.82439,0.82723,0.52171,0.00831,0.02489,1.0,0.0,-0.0,0.0,1.83629,1.83629,0.0,0.0,0.0,0.0,0.0,0.0,0.0,0.0,0.0,0.0,220.0,220.0
1,322,6.44,1.8337,0.00745,0.00298,-1e-05,0.0,-0.0,0.82577,0.82433,0.82735,0.82576,0.8244,0.82724,0.52171,0.00831,0.02489,1.0,0.0,0.0,0.0,1.842,1.842,0.0,0.0,0.0,0.0,0.0,0.0,0.0,0.0,0.0,0.0,220.0,220.0
1,323,6.46,1.83941,0.00745,0.00298,-1e-05,0.0,-0.0,0.82577,0.82434,0.82736,0.82577,0.8244,0.82724,0.52171,0.00831,0.02489,1.0,0.0,-0.0,0.0,1.8477,1.8477,0.0,0.0,0.0,0.0,0.0,0.0,0.0,0.0,0.0,0.0,220.0,220.0
1,324,6.48,1.84511,0.00745,0.00298,-1e-05,0.0,-0.0,0.82576,0.82433,0.82735,0.82576,0.8244,0.82724,0.52171,0.00831,0.02489,1.0,0.0,0.0,0.0,1.8534,1.8534,0.0,0.0,0.0,0.0,0.0,0.0,0.0,0.0,0.0,0.0,220.0,220.0
1,325,6.5,1.85081,0.00745,0.00298,-1e-05,0.0,-0.0,0.82576,0.82433,0.82735,0.82576,0.8244,0.82724,0.52171,0.00831,0.02489,1.0,0.0,-0.0,0.0,1.85911,1.85911,0.0,0.0,0.0,0.0,0.0,0.0,0.0,0.0,0.0,0.0,220.0,220.0
1,326,6.52,1.85652,0.00745,0.00298,-1e-05,0.0,-0.0,0.82575,0.82432,0.82733,0.82575,0.82438,0.82722,0.52171,0.00831,0.02489,1.0,0.0,-0.0,0.0,1.86481,1.86481,0.0,0.0,0.0,0.0,0.0,0.0,0.0,0.0,0.0,0.0,220.0,220.0
1,327,6.54,1.86222,0.00745,0.00298,-1e-05,0.0,-0.0,0.82576,0.82433,0.82735,0.82576,0.8244,0.82723,0.52171,0.00831,0.02489,1.0,0.0,-0.0,0.0,1.87051,1.87051,0.0,0.0,0.0,0.0,0.0,0.0,0.0,0.0,0.0,0.0,220.0,220.0
1,328,6.56,1.86792,0.00745,0.00298,-1e-05,0.0,-0.0,0.82577,0.82434,0.82736,0.82577,0.82441,0.82724,0.52171,0.00831,0.02489,1.0,0.0,-0.0,0.0,1.87622,1.87622,0.0,0.0,0.0,0.0,0.0,0.0,0.0,0.0,0.0,0.0,220.0,220.0
1,329,6.58,1.87362,0.00745,0.00298,-1e-05,0.0,-0.0,0.82577,0.82434,0.82735,0.82577,0.8244,0.82724,0.52171,0.00831,0.02489,1.0,0.0,0.0,0.0,1.88192,1.88192,0.0,0.0,0.0,0.0,0.0,0.0,0.0,0.0,0.0,0.0,220.0,220.0
1,330,6.6,1.87933,0.00745,0.00298,-1e-05,0.0,-0.0,0.82577,0.82434,0.82735,0.82576,0.8244,0.82724,0.52171,0.00831,0.02489,1.0,0.0,-0.0,0.0,1.88762,1.88762,0.0,0.0,0.0,0.0,0.0,0.0,0.0,0.0,0.0,0.0,220.0,220.0
1,331,6.62,1.88503,0.00745,0.00298,-1e-05,0.0,-0.0,0.82576,0.82432,0.82734,0.82575,0.82439,0.82723,0.52171,0.00831,0.02489,1.0,0.0,0.0,0.0,1.89332,1.89332,0.0,0.0,0.0,0.0,0.0,0.0,0.0,0.0,0.0,0.0,220.0,220.0
1,332,6.64,1.89073,0.00745,0.00298,-1e-05,0.0,-0.0,0.82576,0.82432,0.82734,0.82575,0.82439,0.82723,0.52171,0.00831,0.02489,1.0,0.0,-0.0,0.0,1.89903,1.89903,0.0,0.0,0.0,0.0,0.0,0.0,0.0,0.0,0.0,0.0,220.0,220.0
1,333,6.66,1.89644,0.00745,0.00298,-1e-05,0.0,-0.0,0.82576,0.82432,0.82734,0.82576,0.82439,0.82723,0.52171,0.00831,0.02489,1.0,0.0,0.0,0.0,1.90473,1.90473,0.0,0.0,0.0,0.0,0.0,0.0,0.0,0.0,0.0,0.0,220.0,220.0
1,334,6.68,1.90214,0.00745,0.00298,-1e-05,0.0,-0.0,0.82576,0.82433,0.82734,0.82576,0.82439,0.82723,0.52171,0.00831,0.02489,1.0,0.0,-0.0,0.0,1.91043,1.91043,0.0,0.0,0.0,0.0,0.0,0.0,0.0,0.0,0.0,0.0,220.0,220.0
1,335,6.7,1.90784,0.00745,0.00298,-1e-05,0.0,-0.0,0.82576,0.82432,0.82734,0.82575,0.82439,0.82723,0.52171,0.00831,0.02489,1.0,0.0,0.0,0.0,1.91614,1.91614,0.0,0.0,0.0,0.0,0.0,0.0,0.0,0.0,0.0,0.0,220.0,220.0
1,336,6.72,1.91355,0.00745,0.00298,-1e-05,0.0,-0.0,0.82577,0.82434,0.82736,0.82577,0.8244,0.82724,0.52171,0.00831,0.02489,1.0,0.0,-0.0,0.0,1.92184,1.92184,0.0,0.0,0.0,0.0,0.0,0.0,0.0,0.0,0.0,0.0,220.0,220.0
1,337,6.74,1.91925,0.00745,0.00298,-1e-05,0.0,-0.0,0.82576,0.82433,0.82735,0.82576,0.8244,0.82724,0.52171,0.00831,0.02489,1.0,0.0,-0.0,0.0,1.92754,1.92754,0.0,0.0,0.0,0.0,0.0,0.0,0.0,0.0,0.0,0.0,220.0,220.0
1,338,6.76,1.92495,0.00745,0.00298,-1e-05,0.0,-0.0,0.82576,0.82433,0.82735,0.82576,0.8244,0.82723,0.52171,0.00831,0.02489,1.0,0.0,0.0,0.0,1.93325,1.93325,0.0,0.0,0.0,0.0,0.0,0.0,0.0,0.0,0.0,0.0,220.0,220.0
1,339,6.78,1.93066,0.00745,0.00298,-1e-05,0.0,-0.0,0.82576,0.82433,0.82735,0.82576,0.82439,0.82723,0.52171,0.00831,0.02489,1.0,0.0,-0.0,0.0,1.93895,1.93895,0.0,0.0,0.0,0.0,0.0,0.0,0.0,0.0,0.0,0.0,220.0,220.0
1,340,6.8,1.93636,0.00745,0.00298,-1e-05,0.0,-0.0,0.82576,0.82432,0.82734,0.82575,0.82439,0.82723,0.52171,0.00831,0.02489,1.0,0.0,0.0,0.0,1.94465,1.94465,0.0,0.0,0.0,0.0,0.0,0.0,0.0,0.0,0.0,0.0,220.0,220.0
1,341,6.82,1.94206,0.00745,0.00298,-1e-05,0.0,-0.0,0.82577,0.82434,0.82735,0.82576,0.8244,0.82724,0.52171,0.00831,0.02489,1.0,0.0,0.0,0.0,1.95036,1.95036,0.0,0.0,0.0,0.0,0.0,0.0,0.0,0.0,0.0,0.0,220.0,220.0
1,342,6.84,1.94777,0.00745,0.00298,-1e-05,0.0,-0.0,0.82577,0.82433,0.82735,0.82576,0.8244,0.82724,0.52171,0.00831,0.02489,1.0,0.0,-0.0,0.0,1.95606,1.95606,0.0,0.0,0.0,0.0,0.0,0.0,0.0,0.0,0.0,0.0,220.0,220.0
1,343,6.86,1.95347,0.00745,0.00298,-1e-05,0.0,-0.0,0.82575,0.82432,0.82734,0.82575,0.82439,0.82722,0.52171,0.00831,0.02489,1.0,0.0,0.0,0.0,1.96176,1.96176,0.0,0.0,0.0,0.0,0.0,0.0,0.0,0.0,0.0,0.0,220.0,220.0
1,344,6.88,1.95917,0.00745,0.00298,-1e-05,0.0,-0.0,0.82576,0.82432,0.82734,0.82575,0.82439,0.82723,0.52171,0.00831,0.02489,1.0,0.0,-0.0,0.0,1.96746,1.96746,0.0,0.0,0.0,0.0,0.0,0.0,0.0,0.0,0.0,0.0,220.0,220.0
1,345,6.9,1.96487,0.00745,0.00298,-1e-05,0.0,-0.0,0.82576,0.82433,0.82734,0.82576,0.82439,0.82723,0.52171,0.00831,0.02489,1.0,0.0,-0.0,0.0,1.97317,1.97317,0.0,0.0,0.0,0.0,0.0,0.0,0.0,0.0,0.0,0.0,220.0,220.0
1,346,6.92,1.97058,0.00745,0.00298,-1e-05,0.0,-0.0,0.82576,0.82433,0.82735,0.82576,0.82439,0.82723,0.52171,0.00831,0.02489,1.0,0.0,-0.0,0.0,1.97887,1.97887,0.0,0.0,0.0,0.0,0.0,0.0,0.0,0.0,0.0,0.0,220.0,220.0
1,347,6.94,1.97628,0.00745,0.00298,-1e-05,0.0,-0.0,0.82577,0.82433,0.82735,0.82576,0.8244,0.82724,0.52171,0.00831,0.02489,1.0,0.0,0.0,0.0,1.98457,1.98457,0.0,0.0,0.0,0.0,0.0,0.0,0.0,0.0,0.0,0.0,220.0,220.0
1,348,6.96,1.98198,0.00745,0.00298,-1e-05,0.0,-0.0,0.82577,0.82433,0.82735,0.82576,0.8244,0.82724,0.52171,0.00831,0.02489,1.0,0.0,-0.0,0.0,1.99028,1.99028,0.0,0.0,0.0,0.0,0.0,0.0,0.0,0.0,0.0,0.0,220.0,220.0
1,349,6.98,1.98769,0.00745,0.00298,-1e-05,0.0,-0.0,0.82575,0.82432,0.82734,0.82575,0.82439,0.82722,0.52171,0.00831,0.02489,1.0,0.0,0.0,0.0,1.99598,1.99598,0.0,0.0,0.0,0.0,0.0,0.0,0.0,0.0,0.0,0.0,220.0,220.0
1,350,7.0,1.99339,0.00745,0.00298,-1e-05,0.0,-0.0,0.82576,0.82433,0.82735,0.82576,0.8244,0.82724,0.52171,0.00831,0.02489,1.0,0.0,0.0,0.0,2.00168,2.00168,0.0,0.0,0.0,0.0,0.0,0.0,0.0,0.0,0.0,0.0,220.0,220.0
1,351,7.02,1.99909,0.00745,0.00298,-1e-05,0.0,-0.0,0.82576,0.82433,0.82735,0.82576,0.8244,0.82724,0.52171,0.00831,0.02489,1.0,0.0,-0.0,0.0,2.00739,2.00739,0.0,0.0,0.0,0.0,0.0,0.0,0.0,0.0,0.0,0.0,220.0,220.0
1,352,7.04,2.0048,0.00745,0.00298,-1e-05,0.0,-0.0,0.82576,0.82433,0.82734,0.82576,0.82439,0.82723,0.52171,0.00831,0.02489,1.0,0.0,0.0,0.0,2.01309,2.01309,0.0,0.0,0.0,0.0,0.0,0.0,0.0,0.0,0.0,0.0,220.0,220.0
1,353,7.06,2.0105,0.00745,0.00298,-1e-05,0.0,-0.0,0.82577,0.82434,0.82736,0.82577,0.82441,0.82724,0.52171,0.00831,0.02489,1.0,0.0,-0.0,0.0,2.01879,2.01879,0.0,0.0,0.0,0.0,0.0,0.0,0.0,0.0,0.0,0.0,220.0,220.0
1,354,7.08,2.0162,0.00745,0.00298,-1e-05,0.0,-0.0,0.82576,0.82432,0.82734,0.82575,0.82439,0.82723,0.52171,0.00831,0.02489,1.0,0.0,0.0,0.0,2.0245,2.0245,0.0,0.0,0.0,0.0,0.0,0.0,0.0,0.0,0.0,0.0,220.0,220.0
1,355,7.1,2.02191,0.00745,0.00298,-1e-05,0.0,-0.0,0.82575,0.82432,0.82734,0.82575,0.82439,0.82723,0.52171,0.00831,0.02489,1.0,0.0,-0.0,0.0,2.0302,2.0302,0.0,0.0,0.0,0.0,0.0,0.0,0.0,0.0,0.0,0.0,220.0,220.0
1,356,7.12,2.02761,0.00745,0.00298,-1e-05,0.0,-0.0,0.82575,0.82432,0.82734,0.82575,0.82438,0.82722,0.52171,0.00831,0.02489,1.0,0.0,-0.0,0.0,2.0359,2.0359,0.0,0.0,0.0,0.0,0.0,0.0,0.0,0.0,0.0,0.0,220.0,220.0
1,357,7.14,2.03331,0.00745,0.00298,-1e-05,0.0,-0.0,0.82576,0.82433,0.82734,0.82576,0.82439,0.82723,0.52171,0.00831,0.02489,1.0,0.0,-0.0,0.0,2.04161,2.04161,0.0,0.0,0.0,0.0,0.0,0.0,0.0,0.0,0.0,0.0,220.0,220.0
1,358,7.16,2.03901,0.00745,0.00298,-1e-05,0.0,-0.0,0.82576,0.82433,0.82734,0.82575,0.82439,0.82723,0.52171,0.00831,0.02489,1.0,0.0,-0.0,0.0,2.04731,2.04731,0.0,0.0,0.0,0.0,0.0,0.0,0.0,0.0,0.0,0.0,220.0,220.0
1,359,7.18,2.04472,0.00745,0.00298,-1e-05,0.0,-0.0,0.82576,0.82433,0.82735,0.82576,0.8244,0.82723,0.52171,0.00831,0.02489,1.0,0.0,0.0,0.0,2.05301,2.05301,0.0,0.0,0.0,0.0,0.0,0.0,0.0,0.0,0.0,0.0,220.0,220.0
1,360,7.2,2.05042,0.00745,0.00298,-1e-05,0.0,-0.0,0.82577,0.82433,0.82735,0.82576,0.8244,0.82724,0.52171,0.00831,0.02489,1.0,0.0,-0.0,0.0,2.05871,2.05871,0.0,0.0,0.0,0.0,0.0,0.0,0.0,0.0,0.0,0.0,220.0,220.0
1,361,7.22,2.05612,0.00745,0.00298,-1e-05,0.0,-0.0,0.82577,0.82434,0.82736,0.82577,0.82441,0.82725,0.52171,0.00831,0.02489,1.0,0.0,0.0,0.0,2.06442,2.06442,0.0,0.0,0.0,0.0,0.0,0.0,0.0,0.0,0.0,0.0,220.0,220.0
1,362,7.24,2.06183,0.00745,0.00298,-1e-05,0.0,-0.0,0.82575,0.82432,0.82734,0.82575,0.82439,0.82722,0.52171,0.00831,0.02489,1.0,0.0,-0.0,0.0,2.07012,2.07012,0.0,0.0,0.0,0.0,0.0,0.0,0.0,0.0,0.0,0.0,220.0,220.0
1,363,7.26,2.06753,0.00745,0.00298,-1e-05,0.0,-0.0,0.82576,0.82433,0.82735,0.82576,0.82439,0.82723,0.52171,0.00831,0.02489,1.0,0.0,0.0,0.0,2.07582,2.07582,0.0,0.0,0.0,0.0,0.0,0.0,0.0,0.0,0.0,0.0,220.0,220.0
1,364,7.28,2.07323,0.00745,0.00298,-1e-05,0.0,-0.0,0.82576,0.82433,0.82735,0.82576,0.8244,0.82724,0.52171,0.00831,0.02489,1.0,0.0,0.0,0.0,2.08153,2.08153,0.0,0.0,0.0,0.0,0.0,0.0,0.0,0.0,0.0,0.0,220.0,220.0
1,365,7.3,2.07894,0.00745,0.00298,-1e-05,0.0,-0.0,0.82575,0.82432,0.82734,0.82575,0.82439,0.82723,0.52171,0.00831,0.02489,1.0,0.0,-0.0,0.0,2.08723,2.08723,0.0,0.0,0.0,0.0,0.0,0.0,0.0,0.0,0.0,0.0,220.0,220.0
1,366,7.32,2.08464,0.00745,0.00298,-1e-05,0.0,-0.0,0.82576,0.82433,0.82734,0.82576,0.82439,0.82723,0.52171,0.00831,0.02489,1.0,0.0,-0.0,0.0,2.09293,2.09293,0.0,0.0,0.0,0.0,0.0,0.0,0.0,0.0,0.0,0.0,220.0,220.0
1,367,7.34,2.09034,0.00745,0.00298,-1e-05,0.0,-0.0,0.82576,0.82433,0.82735,0.82576,0.82439,0.82723,0.52171,0.00831,0.02489,1.0,0.0,0.0,0.0,2.09864,2.09864,0.0,0.0,0.0,0.0,0.0,0.0,0.0,0.0,0.0,0.0,220.0,220.0
1,368,7.36,2.09605,0.00745,0.00298,-1e-05,0.0,-0.0,0.82575,0.82432,0.82734,0.82575,0.82438,0.82722,0.52171,0.00831,0.02489,1.0,0.0,-0.0,0.0,2.10434,2.10434,0.0,0.0,0.0,0.0,0.0,0.0,0.0,0.0,0.0,0.0,220.0,220.0
1,369,7.38,2.10175,0.00745,0.00298,-1e-05,0.0,-0.0,0.82576,0.82433,0.82735,0.82576,0.8244,0.82723,0.52171,0.00831,0.02489,1.0,0.0,0.0,0.0,2.11004,2.11004,0.0,0.0,0.0,0.0,0.0,0.0,0.0,0.0,0.0,0.0,220.0,220.0
1,370,7.4,2.10745,0.00745,0.00298,-1e-05,0.0,-0.0,0.82576,0.82433,0.82735,0.82576,0.82439,0.82723,0.52171,0.00831,0.02489,1.0,0.0,-0.0,0.0,2.11575,2.11575,0.0,0.0,0.0,0.0,0.0,0.0,0.0,0.0,0.0,0.0,220.0,220.0
1,371,7.42,2.11315,0.00745,0.00298,-1e-05,0.0,-0.0,0.82576,0.82433,0.82735,0.82576,0.8244,0.82723,0.52171,0.00831,0.02489,1.0,0.0,-0.0,0.0,2.12145,2.12145,0.0,0.0,0.0,0.0,0.0,0.0,0.0,0.0,0.0,0.0,220.0,220.0
1,372,7.44,2.11886,0.00745,0.00298,-1e-05,0.0,-0.0,0.82576,0.82433,0.82735,0.82576,0.8244,0.82723,0.52171,0.00831,0.02489,1.0,0.0,0.0,0.0,2.12715,2.12715,0.0,0.0,0.0,0.0,0.0,0.0,0.0,0.0,0.0,0.0,220.0,220.0
1,373,7.46,2.12456,0.00745,0.00298,-1e-05,0.0,-0.0,0.82576,0.82432,0.82734,0.82575,0.82439,0.82723,0.52171,0.00831,0.02489,1.0,0.0,-0.0,0.0,2.13285,2.13285,0.0,0.0,0.0,0.0,0.0,0.0,0.0,0.0,0.0,0.0,220.0,220.0
1,374,7.48,2.13026,0.00745,0.00298,-1e-05,0.0,-0.0,0.82576,0.82433,0.82734,0.82576,0.82439,0.82723,0.52171,0.00831,0.02489,1.0,0.0,0.0,0.0,2.13856,2.13856,0.0,0.0,0.0,0.0,0.0,0.0,0.0,0.0,0.0,0.0,220.0,220.0
1,375,7.5,2.13597,0.00745,0.00298,-1e-05,0.0,-0.0,0.82576,0.82433,0.82735,0.82576,0.8244,0.82723,0.52171,0.00831,0.02489,1.0,0.0,-0.0,0.0,2.14426,2.14426,0.0,0.0,0.0,0.0,0.0,0.0,0.0,0.0,0.0,0.0,220.0,220.0
1,376,7.52,2.14167,0.00745,0.00298,-1e-05,0.0,-0.0,0.82576,0.82433,0.82735,0.82576,0.82439,0.82723,0.52171,0.00831,0.02489,1.0,0.0,0.0,0.0,2.14996,2.14996,0.0,0.0,0.0,0.0,0.0,0.0,0.0,0.0,0.0,0.0,220.0,220.0
1,377,7.54,2.14737,0.00745,0.00298,-1e-05,0.0,-0.0,0.82576,0.82433,0.82735,0.82576,0.82439,0.82723,0.52171,0.00831,0.02489,1.0,0.0,-0.0,0.0,2.15567,2.15567,0.0,0.0,0.0,0.0,0.0,0.0,0.0,0.0,0.0,0.0,220.0,220.0
1,378,7.56,2.15308,0.00745,0.00298,-1e-05,0.0,-0.0,0.82576,0.82433,0.82735,0.82576,0.8244,0.82724,0.52171,0.00831,0.02489,1.0,0.0,0.0,0.0,2.16137,2.16137,0.0,0.0,0.0,0.0,0.0,0.0,0.0,0.0,0.0,0.0,220.0,220.0
1,379,7.58,2.15878,0.00745,0.00298,-1e-05,0.0,-0.0,0.82576,0.82433,0.82735,0.82576,0.8244,0.82724,0.52171,0.00831,0.02489,1.0,0.0,-0.0,0.0,2.16707,2.16707,0.0,0.0,0.0,0.0,0.0,0.0,0.0,0.0,0.0,0.0,220.0,220.0
1,380,7.6,2.16448,0.00745,0.00298,-1e-05,0.0,-0.0,0.82576,0.82433,0.82735,0.82576,0.82439,0.82723,0.52171,0.00831,0.02489,1.0,0.0,0.0,0.0,2.17278,2.17278,0.0,0.0,0.0,0.0,0.0,0.0,0.0,0.0,0.0,0.0,220.0,220.0
1,381,7.62,2.17019,0.00745,0.00298,-1e-05,0.0,-0.0,0.82575,0.82432,0.82734,0.82575,0.82438,0.82722,0.52171,0.00831,0.02489,1.0,0.0,-0.0,0.0,2.17848,2.17848,0.0,0.0,0.0,0.0,0.0,0.0,0.0,0.0,0.0,0.0,220.0,220.0
1,382,7.64,2.17589,0.00745,0.00298,-1e-05,0.0,-0.0,0.82576,0.82433,0.82735,0.82576,0.8244,0.82724,0.52171,0.00831,0.02489,1.0,0.0,0.0,0.0,2.18418,2.18418,0.0,0.0,0.0,0.0,0.0,0.0,0.0,0.0,0.0,0.0,220.0,220.0
1,383,7.66,2.18159,0.00745,0.00298,-1e-05,0.0,-0.0,0.82576,0.82433,0.82735,0.82576,0.8244,0.82723,0.52171,0.00831,0.02489,1.0,0.0,0.0,0.0,2.18989,2.18989,0.0,0.0,0.0,0.0,0.0,0.0,0.0,0.0,0.0,0.0,220.0,220.0
1,384,7.68,2.18729,0.00745,0.00298,-1e-05,0.0,-0.0,0.82576,0.82433,0.82735,0.82576,0.82439,0.82723,0.52171,0.00831,0.02489,1.0,0.0,-0.0,0.0,2.19559,2.19559,0.0,0.0,0.0,0.0,0.0,0.0,0.0,0.0,0.0,0.0,220.0,220.0
1,385,7.7,2.193,0.00745,0.00298,-1e-05,0.0,-0.0,0.82576,0.82433,0.82735,0.82576,0.82439,0.82723,0.52171,0.00831,0.02489,1.0,0.0,0.0,0.0,2.20129,2.20129,0.0,0.0,0.0,0.0,0.0,0.0,0.0,0.0,0.0,0.0,220.0,220.0
1,386,7.72,2.1987,0.00745,0.00298,-1e-05,0.0,-0.0,0.82576,0.82432,0.82734,0.82575,0.82439,0.82723,0.52171,0.00831,0.02489,1.0,0.0,-0.0,0.0,2.20699,2.20699,0.0,0.0,0.0,0.0,0.0,0.0,0.0,0.0,0.0,0.0,220.0,220.0
1,387,7.74,2.2044,0.00745,0.00298,-1e-05,0.0,-0.0,0.82576,0.82433,0.82735,0.82576,0.82439,0.82723,0.52171,0.00831,0.02489,1.0,0.0,0.0,0.0,2.2127,2.2127,0.0,0.0,0.0,0.0,0.0,0.0,0.0,0.0,0.0,0.0,220.0,220.0
1,388,7.76,2.21011,0.00745,0.00298,-1e-05,0.0,-0.0,0.82577,0.82434,0.82736,0.82577,0.8244,0.82724,0.52171,0.00831,0.02489,1.0,0.0,-0.0,0.0,2.2184,2.2184,0.0,0.0,0.0,0.0,0.0,0.0,0.0,0.0,0.0,0.0,220.0,220.0
1,389,7.78,2.21581,0.00745,0.00298,-1e-05,0.0,-0.0,0.82575,0.82432,0.82734,0.82575,0.82439,0.82722,0.52171,0.00831,0.02489,1.0,0.0,0.0,0.0,2.2241,2.2241,0.0,0.0,0.0,0.0,0.0,0.0,0.0,0.0,0.0,0.0,220.0,220.0
1,390,7.8,2.22151,0.00745,0.00298,-1e-05,0.0,-0.0,0.82577,0.82434,0.82735,0.82576,0.8244,0.82724,0.52171,0.00831,0.02489,1.0,0.0,-0.0,0.0,2.22981,2.22981,0.0,0.0,0.0,0.0,0.0,0.0,0.0,0.0,0.0,0.0,220.0,220.0
1,391,7.82,2.22722,0.00745,0.00298,-1e-05,0.0,-0.0,0.82576,0.82433,0.82735,0.82576,0.82439,0.82723,0.52171,0.00831,0.02489,1.0,0.0,0.0,0.0,2.23551,2.23551,0.0,0.0,0.0,0.0,0.0,0.0,0.0,0.0,0.0,0.0,220.0,220.0
1,392,7.84,2.23292,0.00745,0.00298,-1e-05,0.0,-0.0,0.82576,0.82433,0.82735,0.82576,0.8244,0.82724,0.52171,0.00831,0.02489,1.0,0.0,-0.0,0.0,2.24121,2.24121,0.0,0.0,0.0,0.0,0.0,0.0,0.0,0.0,0.0,0.0,220.0,220.0
1,393,7.86,2.23862,0.00745,0.00298,-1e-05,0.0,-0.0,0.82575,0.82432,0.82734,0.82575,0.82439,0.82723,0.52171,0.00831,0.02489,1.0,0.0,0.0,0.0,2.24692,2.24692,0.0,0.0,0.0,0.0,0.0,0.0,0.0,0.0,0.0,0.0,220.0,220.0
1,394,7.88,2.24433,0.00745,0.00298,-1e-05,0.0,-0.0,0.82576,0.82433,0.82734,0.82576,0.82439,0.82723,0.52171,0.00831,0.02489,1.0,0.0,-0.0,0.0,2.25262,2.25262,0.0,0.0,0.0,0.0,0.0,0.0,0.0,0.0,0.0,0.0,220.0,220.0
1,395,7.9,2.25003,0.00745,0.00298,-1e-05,0.0,-0.0,0.82575,0.82432,0.82734,0.82575,0.82438,0.82722,0.52171,0.00831,0.02489,1.0,0.0,0.0,0.0,2.25832,2.25832,0.0,0.0,0.0,0.0,0.0,0.0,0.0,0.0,0.0,0.0,220.0,220.0
1,396,7.92,2.25573,0.00745,0.00298,-1e-05,0.0,-0.0,0.82575,0.82432,0.82734,0.82575,0.82439,0.82723,0.52171,0.00831,0.02489,1.0,0.0,0.0,0.0,2.26403,2.26403,0.0,0.0,0.0,0.0,0.0,0.0,0.0,0.0,0.0,0.0,220.0,220.0
1,397,7.94,2.26144,0.00745,0.00298,-1e-05,0.0,-0.0,0.82576,0.82433,0.82735,0.82576,0.82439,0.82723,0.52171,0.00831,0.02489,1.0,0.0,-0.0,0.0,2.26973,2.26973,0.0,0.0,0.0,0.0,0.0,0.0,0.0,0.0,0.0,0.0,220.0,220.0
1,398,7.96,2.26714,0.00745,0.00298,-1e-05,0.0,-0.0,0.82577,0.82434,0.82736,0.82577,0.8244,0.82724,0.52171,0.00831,0.02489,1.0,0.0,-0.0,0.0,2.27543,2.27543,0.0,0.0,0.0,0.0,0.0,0.0,0.0,0.0,0.0,0.0,220.0,220.0
1,399,7.98,2.27284,0.00745,0.00298,-1e-05,0.0,-0.0,0.82576,0.82433,0.82734,0.82576,0.82439,0.82723,0.52171,0.00831,0.02489,1.0,0.0,-0.0,0.0,2.28113,2.28113,0.0,0.0,0.0,0.0,0.0,0.0,0.0,0.0,0.0,0.0,220.0,220.0
1,400,8.0,2.27854,0.00745,0.00298,-1e-05,0.0,-0.0,0.82576,0.82433,0.82735,0.82576,0.8244,0.82723,0.52171,0.00831,0.02489,1.0,0.0,-0.0,0.0,2.28684,2.28684,0.0,0.0,0.0,0.0,0.0,0.0,0.0,0.0,0.0,0.0,220.0,220.0
1,401,8.02,2.28425,0.00745,0.00298,-1e-05,0.0,-0.0,0.82576,0.82432,0.82734,0.82575,0.82439,0.82723,0.52171,0.00831,0.02489,1.0,0.0,-0.0,0.0,2.29254,2.29254,0.0,0.0,0.0,0.0,0.0,0.0,0.0,0.0,0.0,0.0,220.0,220.0
1,402,8.04,2.28995,0.00745,0.00298,-1e-05,0.0,-0.0,0.82576,0.82433,0.82735,0.82576,0.82439,0.82723,0.52171,0.00831,0.02489,1.0,0.0,-0.0,0.0,2.29824,2.29824,0.0,0.0,0.0,0.0,0.0,0.0,0.0,0.0,0.0,0.0,220.0,220.0
1,403,8.06,2.29565,0.00745,0.00298,-1e-05,0.0,-0.0,0.82576,0.82433,0.82734,0.82576,0.82439,0.82723,0.52171,0.00831,0.02489,1.0,0.0,0.0,0.0,2.30395,2.30395,0.0,0.0,0.0,0.0,0.0,0.0,0.0,0.0,0.0,0.0,220.0,220.0
1,404,8.08,2.30136,0.00745,0.00298,-1e-05,0.0,-0.0,0.82576,0.82433,0.82735,0.82576,0.8244,0.82723,0.52171,0.00831,0.02489,1.0,0.0,0.0,0.0,2.30965,2.30965,0.0,0.0,0.0,0.0,0.0,0.0,0.0,0.0,0.0,0.0,220.0,220.0
1,405,8.1,2.30706,0.00745,0.00298,-1e-05,0.0,-0.0,0.82576,0.82432,0.82734,0.82575,0.82439,0.82723,0.52171,0.00831,0.02489,1.0,0.0,0.0,0.0,2.31535,2.31535,0.0,0.0,0.0,0.0,0.0,0.0,0.0,0.0,0.0,0.0,220.0,220.0
1,406,8.12,2.31276,0.00745,0.00298,-1e-05,0.0,-0.0,0.82575,0.82432,0.82734,0.82575,0.82439,0.82723,0.52171,0.00831,0.02489,1.0,0.0,-0.0,0.0,2.32106,2.32106,0.0,0.0,0.0,0.0,0.0,0.0,0.0,0.0,0.0,0.0,220.0,220.0
1,407,8.14,2.31847,0.00745,0.00298,-1e-05,0.0,-0.0,0.82576,0.82433,0.82735,0.82576,0.8244,0.82724,0.52171,0.00831,0.02489,1.0,0.0,-0.0,0.0,2.32676,2.32676,0.0,0.0,0.0,0.0,0.0,0.0,0.0,0.0,0.0,0.0,220.0,220.0
1,408,8.16,2.32417,0.00745,0.00298,-1e-05,0.0,-0.0,0.82577,0.82434,0.82736,0.82577,0.8244,0.82724,0.52171,0.00831,0.02489,1.0,0.0,-0.0,0.0,2.33246,2.33246,0.0,0.0,0.0,0.0,0.0,0.0,0.0,0.0,0.0,0.0,220.0,220.0
1,409,8.18,2.32987,0.00745,0.00298,-1e-05,0.0,-0.0,0.82577,0.82434,0.82735,0.82577,0.8244,0.82724,0.52171,0.00831,0.02489,1.0,0.0,0.0,0.0,2.33817,2.33817,0.0,0.0,0.0,0.0,0.0,0.0,0.0,0.0,0.0,0.0,220.0,220.0
1,410,8.2,2.33558,0.00745,0.00298,-1e-05,0.0,-0.0,0.82576,0.82433,0.82735,0.82576,0.82439,0.82723,0.52171,0.00831,0.02489,1.0,0.0,0.0,0.0,2.34387,2.34387,0.0,0.0,0.0,0.0,0.0,0.0,0.0,0.0,0.0,0.0,220.0,220.0
1,411,8.22,2.34128,0.00745,0.00298,-1e-05,0.0,-0.0,0.82577,0.82433,0.82735,0.82576,0.8244,0.82724,0.52171,0.00831,0.02489,1.0,0.0,0.0,0.0,2.34957,2.34957,0.0,0.0,0.0,0.0,0.0,0.0,0.0,0.0,0.0,0.0,220.0,220.0
1,412,8.24,2.34698,0.00745,0.00298,-1e-05,0.0,-0.0,0.82576,0.82433,0.82734,0.82576,0.82439,0.82723,0.52171,0.00831,0.02489,1.0,0.0,-0.0,0.0,2.35528,2.35528,0.0,0.0,0.0,0.0,0.0,0.0,0.0,0.0,0.0,0.0,220.0,220.0
1,413,8.26,2.35268,0.00745,0.00298,-1e-05,0.0,-0.0,0.82576,0.82433,0.82735,0.82576,0.8244,0.82723,0.52171,0.00831,0.02489,1.0,0.0,-0.0,0.0,2.36098,2.36098,0.0,0.0,0.0,0.0,0.0,0.0,0.0,0.0,0.0,0.0,220.0,220.0
1,414,8.28,2.35839,0.00745,0.00298,-1e-05,0.0,-0.0,0.82576,0.82433,0.82735,0.82576,0.8244,0.82724,0.52171,0.00831,0.02489,1.0,0.0,0.0,0.0,2.36668,2.36668,0.0,0.0,0.0,0.0,0.0,0.0,0.0,0.0,0.0,0.0,220.0,220.0
1,415,8.3,2.36409,0.00745,0.00298,-1e-05,0.0,-0.0,0.82577,0.82433,0.82735,0.82576,0.8244,0.82724,0.52171,0.00831,0.02489,1.0,0.0,-0.0,0.0,2.37238,2.37238,0.0,0.0,0.0,0.0,0.0,0.0,0.0,0.0,0.0,0.0,220.0,220.0
1,416,8.32,2.36979,0.00745,0.00298,-1e-05,0.0,-0.0,0.82577,0.82434,0.82735,0.82576,0.8244,0.82724,0.52171,0.00831,0.02489,1.0,0.0,0.0,0.0,2.37809,2.37809,0.0,0.0,0.0,0.0,0.0,0.0,0.0,0.0,0.0,0.0,220.0,220.0
1,417,8.34,2.3755,0.00745,0.00298,-1e-05,0.0,-0.0,0.82577,0.82434,0.82735,0.82577,0.8244,0.82724,0.52171,0.00831,0.02489,1.0,0.0,-0.0,0.0,2.38379,2.38379,0.0,0.0,0.0,0.0,0.0,0.0,0.0,0.0,0.0,0.0,220.0,220.0
1,418,8.36,2.3812,0.00745,0.00298,-1e-05,0.0,-0.0,0.82576,0.82433,0.82735,0.82576,0.8244,0.82723,0.52171,0.00831,0.02489,1.0,0.0,0.0,0.0,2.38949,2.38949,0.0,0.0,0.0,0.0,0.0,0.0,0.0,0.0,0.0,0.0,220.0,220.0
1,419,8.38,2.3869,0.00745,0.00298,-1e-05,0.0,-0.0,0.82576,0.82433,0.82735,0.82576,0.82439,0.82723,0.52171,0.00831,0.02489,1.0,0.0,-0.0,0.0,2.3952,2.3952,0.0,0.0,0.0,0.0,0.0,0.0,0.0,0.0,0.0,0.0,220.0,220.0
1,420,8.4,2.39261,0.00745,0.00298,-1e-05,0.0,-0.0,0.82576,0.82433,0.82735,0.82576,0.8244,0.82723,0.52171,0.00831,0.02489,1.0,0.0,0.0,0.0,2.4009,2.4009,0.0,0.0,0.0,0.0,0.0,0.0,0.0,0.0,0.0,0.0,220.0,220.0
1,421,8.42,2.39831,0.00745,0.00298,-1e-05,0.0,-0.0,0.82575,0.82432,0.82734,0.82575,0.82438,0.82722,0.52171,0.00831,0.02489,1.0,0.0,-0.0,0.0,2.4066,2.4066,0.0,0.0,0.0,0.0,0.0,0.0,0.0,0.0,0.0,0.0,220.0,220.0
1,422,8.44,2.40401,0.00745,0.00298,-1e-05,0.0,-0.0,0.82575,0.82432,0.82734,0.82575,0.82439,0.82723,0.52171,0.00831,0.02489,1.0,0.0,0.0,0.0,2.41231,2.41231,0.0,0.0,0.0,0.0,0.0,0.0,0.0,0.0,0.0,0.0,220.0,220.0
1,423,8.46,2.40972,0.00745,0.00298,-1e-05,0.0,-0.0,0.82576,0.82433,0.82735,0.82576,0.82439,0.82723,0.52171,0.00831,0.02489,1.0,0.0,-0.0,0.0,2.41801,2.41801,0.0,0.0,0.0,0.0,0.0,0.0,0.0,0.0,0.0,0.0,220.0,220.0
1,424,8.48,2.41542,0.00745,0.00298,-1e-05,0.0,-0.0,0.82575,0.82432,0.82734,0.82575,0.82438,0.82722,0.52171,0.00831,0.02489,1.0,0.0,-0.0,0.0,2.42371,2.42371,0.0,0.0,0.0,0.0,0.0,0.0,0.0,0.0,0.0,0.0,220.0,220.0
1,425,8.5,2.42112,0.00745,0.00298,-1e-05,0.0,-0.0,0.82577,0.82434,0.82735,0.82576,0.8244,0.82724,0.52171,0.00831,0.02489,1.0,0.0,0.0,0.0,2.42942,2.42942,0.0,0.0,0.0,0.0,0.0,0.0,0.0,0.0,0.0,0.0,220.0,220.0
1,426,8.52,2.42682,0.00745,0.00298,-1e-05,0.0,-0.0,0.82577,0.82434,0.82735,0.82576,0.8244,0.82724,0.52171,0.00831,0.02489,1.0,0.0,-0.0,0.0,2.43512,2.43512,0.0,0.0,0.0,0.0,0.0,0.0,0.0,0.0,0.0,0.0,220.0,220.0
1,427,8.54,2.43253,0.00745,0.00298,-1e-05,0.0,-0.0,0.82576,0.82433,0.82735,0.82576,0.8244,0.82723,0.52171,0.00831,0.02489,1.0,0.0,0.0,0.0,2.44082,2.44082,0.0,0.0,0.0,0.0,0.0,0.0,0.0,0.0,0.0,0.0,220.0,220.0
1,428,8.56,2.43823,0.00745,0.00298,-1e-05,0.0,-0.0,0.82577,0.82434,0.82736,0.82577,0.82441,0.82725,0.52171,0.00831,0.02489,1.0,0.0,-0.0,0.0,2.44652,2.44652,0.0,0.0,0.0,0.0,0.0,0.0,0.0,0.0,0.0,0.0,220.0,220.0
1,429,8.58,2.44393,0.00745,0.00298,-1e-05,0.0,-0.0,0.82576,0.82433,0.82734,0.82576,0.82439,0.82723,0.52171,0.00831,0.02489,1.0,0.0,0.0,0.0,2.45223,2.45223,0.0,0.0,0.0,0.0,0.0,0.0,0.0,0.0,0.0,0.0,220.0,220.0
1,430,8.6,2.44964,0.00745,0.00298,-1e-05,0.0,-0.0,0.82575,0.82432,0.82734,0.82575,0.82439,0.82723,0.52171,0.00831,0.02489,1.0,0.0,0.0,0.0,2.45793,2.45793,0.0,0.0,0.0,0.0,0.0,0.0,0.0,0.0,0.0,0.0,220.0,220.0
1,431,8.62,2.45534,0.00745,0.00298,-1e-05,0.0,-0.0,0.82577,0.82433,0.82735,0.82576,0.8244,0.82724,0.52171,0.00831,0.02489,1.0,0.0,-0.0,0.0,2.46363,2.46363,0.0,0.0,0.0,0.0,0.0,0.0,0.0,0.0,0.0,0.0,220.0,220.0
1,432,8.64,2.46104,0.00745,0.00298,-1e-05,0.0,-0.0,0.82576,0.82433,0.82735,0.82576,0.82439,0.82723,0.52171,0.00831,0.02489,1.0,0.0,0.0,0.0,2.46934,2.46934,0.0,0.0,0.0,0.0,0.0,0.0,0.0,0.0,0.0,0.0,220.0,220.0
1,433,8.66,2.46675,0.00745,0.00298,-1e-05,0.0,-0.0,0.82575,0.82432,0.82733,0.82575,0.82438,0.82722,0.52171,0.00831,0.02489,1.0,0.0,-0.0,0.0,2.47504,2.47504,0.0,0.0,0.0,0.0,0.0,0.0,0.0,0.0,0.0,0.0,220.0,220.0
1,434,8.68,2.47245,0.00745,0.00298,-1e-05,0.0,-0.0,0.82576,0.82433,0.82735,0.82576,0.8244,0.82723,0.52171,0.00831,0.02489,1.0,0.0,0.0,0.0,2.48074,2.48074,0.0,0.0,0.0,0.0,0.0,0.0,0.0,0.0,0.0,0.0,220.0,220.0
1,435,8.7,2.47815,0.00745,0.00298,-1e-05,0.0,-0.0,0.82576,0.82432,0.82734,0.82575,0.82439,0.82723,0.52171,0.00831,0.02489,1.0,0.0,-0.0,0.0,2.48645,2.48645,0.0,0.0,0.0,0.0,0.0,0.0,0.0,0.0,0.0,0.0,220.0,220.0
1,436,8.72,2.48386,0.00745,0.00298,-1e-05,0.0,-0.0,0.82577,0.82434,0.82736,0.82577,0.8244,0.82724,0.52171,0.00831,0.02489,1.0,0.0,0.0,0.0,2.49215,2.49215,0.0,0.0,0.0,0.0,0.0,0.0,0.0,0.0,0.0,0.0,220.0,220.0
1,437,8.74,2.48956,0.00745,0.00298,-1e-05,0.0,-0.0,0.82576,0.82433,0.82735,0.82576,0.82439,0.82723,0.52171,0.00831,0.02489,1.0,0.0,-0.0,0.0,2.49785,2.49785,0.0,0.0,0.0,0.0,0.0,0.0,0.0,0.0,0.0,0.0,220.0,220.0
1,438,8.76,2.49526,0.00745,0.00298,-1e-05,0.0,-0.0,0.82575,0.82432,0.82734,0.82575,0.82438,0.82722,0.52171,0.00831,0.02489,1.0,0.0,-0.0,0.0,2.50356,2.50356,0.0,0.0,0.0,0.0,0.0,0.0,0.0,0.0,0.0,0.0,220.0,220.0
1,439,8.78,2.50097,0.00745,0.00298,-1e-05,0.0,-0.0,0.82576,0.82433,0.82735,0.82576,0.82439,0.82723,0.52171,0.00831,0.02489,1.0,0.0,0.0,0.0,2.50926,2.50926,0.0,0.0,0.0,0.0,0.0,0.0,0.0,0.0,0.0,0.0,220.0,220.0
1,440,8.8,2.50667,0.00745,0.00298,-1e-05,0.0,-0.0,0.82576,0.82433,0.82734,0.82576,0.82439,0.82723,0.52171,0.00831,0.02489,1.0,0.0,-0.0,0.0,2.51496,2.51496,0.0,0.0,0.0,0.0,0.0,0.0,0.0,0.0,0.0,0.0,220.0,220.0
1,441,8.82,2.51237,0.00745,0.00298,-1e-05,0.0,-0.0,0.82576,0.82433,0.82735,0.82576,0.8244,0.82723,0.52171,0.00831,0.02489,1.0,0.0,0.0,0.0,2.52066,2.52066,0.0,0.0,0.0,0.0,0.0,0.0,0.0,0.0,0.0,0.0,220.0,220.0
1,442,8.84,2.51807,0.00745,0.00298,-1e-05,0.0,-0.0,0.82575,0.82432,0.82734,0.82575,0.82439,0.82723,0.52171,0.00831,0.02489,1.0,0.0,-0.0,0.0,2.52637,2.52637,0.0,0.0,0.0,0.0,0.0,0.0,0.0,0.0,0.0,0.0,220.0,220.0
1,443,8.86,2.52378,0.00745,0.00298,-1e-05,0.0,-0.0,0.82576,0.82433,0.82735,0.82576,0.8244,0.82724,0.52171,0.00831,0.02489,1.0,0.0,0.0,0.0,2.53207,2.53207,0.0,0.0,0.0,0.0,0.0,0.0,0.0,0.0,0.0,0.0,220.0,220.0
1,444,8.88,2.52948,0.00745,0.00298,-1e-05,0.0,-0.0,0.82576,0.82433,0.82735,0.82576,0.8244,0.82723,0.52171,0.00831,0.02489,1.0,0.0,-0.0,0.0,2.53777,2.53777,0.0,0.0,0.0,0.0,0.0,0.0,0.0,0.0,0.0,0.0,220.0,220.0
1,445,8.9,2.53518,0.00745,0.00298,-1e-05,0.0,-0.0,0.82575,0.82432,0.82734,0.82575,0.82439,0.82723,0.52171,0.00831,0.02489,1.0,0.0,0.0,0.0,2.54348,2.54348,0.0,0.0,0.0,0.0,0.0,0.0,0.0,0.0,0.0,0.0,220.0,220.0
1,446,8.92,2.54089,0.00745,0.00298,-1e-05,0.0,-0.0,0.82576,0.82433,0.82735,0.82576,0.8244,0.82723,0.52171,0.00831,0.02489,1.0,0.0,-0.0,0.0,2.54918,2.54918,0.0,0.0,0.0,0.0,0.0,0.0,0.0,0.0,0.0,0.0,220.0,220.0
1,447,8.94,2.54659,0.00745,0.00298,-1e-05,0.0,-0.0,0.82576,0.82433,0.82735,0.82576,0.82439,0.82723,0.52171,0.00831,0.02489,1.0,0.0,0.0,0.0,2.55488,2.55488,0.0,0.0,0.0,0.0,0.0,0.0,0.0,0.0,0.0,0.0,220.0,220.0
1,448,8.96,2.55229,0.00745,0.00298,-1e-05,0.0,-0.0,0.82575,0.82432,0.82734,0.82575,0.82438,0.82722,0.52171,0.00831,0.02489,1.0,0.0,0.0,0.0,2.56059,2.56059,0.0,0.0,0.0,0.0,0.0,0.0,0.0,0.0,0.0,0.0,220.0,220.0
1,449,8.98,2.558,0.00745,0.00298,-1e-05,0.0,-0.0,0.82576,0.82433,0.82734,0.82576,0.82439,0.82723,0.52171,0.00831,0.02489,1.0,0.0,-0.0,0.0,2.56629,2.56629,0.0,0.0,0.0,0.0,0.0,0.0,0.0,0.0,0.0,0.0,220.0,220.0
1,450,9.0,2.5637,0.00745,0.00298,-1e-05,0.0,-0.0,0.82576,0.82433,0.82735,0.82576,0.82439,0.82723,0.52171,0.00831,0.02489,1.0,0.0,0.0,0.0,2.57199,2.57199,0.0,0.0,0.0,0.0,0.0,0.0,0.0,0.0,0.0,0.0,220.0,220.0
1,451,9.02,2.5694,0.00745,0.00298,-1e-05,0.0,-0.0,0.82575,0.82432,0.82734,0.82575,0.82439,0.82722,0.52171,0.00831,0.02489,1.0,0.0,-0.0,0.0,2.5777,2.5777,0.0,0.0,0.0,0.0,0.0,0.0,0.0,0.0,0.0,0.0,220.0,220.0
1,452,9.04,2.57511,0.00745,0.00298,-1e-05,0.0,-0.0,0.82575,0.82432,0.82734,0.82575,0.82439,0.82723,0.52171,0.00831,0.02489,1.0,0.0,0.0,0.0,2.5834,2.5834,0.0,0.0,0.0,0.0,0.0,0.0,0.0,0.0,0.0,0.0,220.0,220.0
1,453,9.06,2.58081,0.00745,0.00298,-1e-05,0.0,-0.0,0.82577,0.82434,0.82735,0.82577,0.8244,0.82724,0.52171,0.00831,0.02489,1.0,0.0,-0.0,0.0,2.5891,2.5891,0.0,0.0,0.0,0.0,0.0,0.0,0.0,0.0,0.0,0.0,220.0,220.0
1,454,9.08,2.58651,0.00745,0.00298,-1e-05,0.0,-0.0,0.82576,0.82433,0.82735,0.82576,0.8244,0.82724,0.52171,0.00831,0.02489,1.0,0.0,0.0,0.0,2.59481,2.59481,0.0,0.0,0.0,0.0,0.0,0.0,0.0,0.0,0.0,0.0,220.0,220.0
1,455,9.1,2.59221,0.00745,0.00298,-1e-05,0.0,-0.0,0.82577,0.82434,0.82735,0.82577,0.8244,0.82724,0.52171,0.00831,0.02489,1.0,0.0,-0.0,0.0,2.60051,2.60051,0.0,0.0,0.0,0.0,0.0,0.0,0.0,0.0,0.0,0.0,220.0,220.0
1,456,9.12,2.59792,0.00745,0.00298,-1e-05,0.0,-0.0,0.82576,0.82433,0.82735,0.82576,0.82439,0.82723,0.52171,0.00831,0.02489,1.0,0.0,-0.0,0.0,2.60621,2.60621,0.0,0.0,0.0,0.0,0.0,0.0,0.0,0.0,0.0,0.0,220.0,220.0
1,457,9.14,2.60362,0.00745,0.00298,-1e-05,0.0,-0.0,0.82576,0.82433,0.82735,0.82576,0.82439,0.82723,0.52171,0.00831,0.02489,1.0,0.0,-0.0,0.0,2.61191,2.61191,0.0,0.0,0.0,0.0,0.0,0.0,0.0,0.0,0.0,0.0,220.0,220.0
1,458,9.16,2.60932,0.00745,0.00298,-1e-05,0.0,-0.0,0.82576,0.82433,0.82734,0.82576,0.82439,0.82723,0.52171,0.00831,0.02489,1.0,0.0,-0.0,0.0,2.61762,2.61762,0.0,0.0,0.0,0.0,0.0,0.0,0.0,0.0,0.0,0.0,220.0,220.0
1,459,9.18,2.61503,0.00745,0.00298,-1e-05,0.0,-0.0,0.82576,0.82433,0.82735,0.82576,0.8244,0.82723,0.52171,0.00831,0.02489,1.0,0.0,-0.0,0.0,2.62332,2.62332,0.0,0.0,0.0,0.0,0.0,0.0,0.0,0.0,0.0,0.0,220.0,220.0
1,460,9.2,2.62073,0.00745,0.00298,-1e-05,0.0,-0.0,0.82576,0.82433,0.82735,0.82576,0.8244,0.82724,0.52171,0.00831,0.02489,1.0,0.0,-0.0,0.0,2.62902,2.62902,0.0,0.0,0.0,0.0,0.0,0.0,0.0,0.0,0.0,0.0,220.0,220.0
1,461,9.22,2.62643,0.00745,0.00298,-1e-05,0.0,-0.0,0.82575,0.82432,0.82734,0.82575,0.82438,0.82722,0.52171,0.00831,0.02489,1.0,0.0,0.0,0.0,2.63473,2.63473,0.0,0.0,0.0,0.0,0.0,0.0,0.0,0.0,0.0,0.0,220.0,220.0
1,462,9.24,2.63214,0.00745,0.00298,-1e-05,0.0,-0.0,0.82575,0.82432,0.82734,0.82575,0.82439,0.82722,0.52171,0.00831,0.02489,1.0,0.0,-0.0,0.0,2.64043,2.64043,0.0,0.0,0.0,0.0,0.0,0.0,0.0,0.0,0.0,0.0,220.0,220.0
1,463,9.26,2.63784,0.00745,0.00298,-1e-05,0.0,-0.0,0.82577,0.82434,0.82735,0.82577,0.8244,0.82724,0.52171,0.00831,0.02489,1.0,0.0,-0.0,0.0,2.64613,2.64613,0.0,0.0,0.0,0.0,0.0,0.0,0.0,0.0,0.0,0.0,220.0,220.0
1,464,9.28,2.64354,0.00745,0.00298,-1e-05,0.0,-0.0,0.82576,0.82432,0.82734,0.82575,0.82439,0.82723,0.52171,0.00831,0.02489,1.0,0.0,-0.0,0.0,2.65184,2.65184,0.0,0.0,0.0,0.0,0.0,0.0,0.0,0.0,0.0,0.0,220.0,220.0
1,465,9.3,2.64925,0.00745,0.00298,-1e-05,0.0,-0.0,0.82576,0.82433,0.82735,0.82576,0.8244,0.82724,0.52171,0.00831,0.02489,1.0,0.0,-0.0,0.0,2.65754,2.65754,0.0,0.0,0.0,0.0,0.0,0.0,0.0,0.0,0.0,0.0,220.0,220.0
1,466,9.32,2.65495,0.00745,0.00298,-1e-05,0.0,-0.0,0.82575,0.82432,0.82734,0.82575,0.82438,0.82722,0.52171,0.00831,0.02489,1.0,0.0,0.0,0.0,2.66324,2.66324,0.0,0.0,0.0,0.0,0.0,0.0,0.0,0.0,0.0,0.0,220.0,220.0
1,467,9.34,2.66065,0.00745,0.00298,-1e-05,0.0,-0.0,0.82576,0.82433,0.82734,0.82576,0.82439,0.82723,0.52171,0.00831,0.02489,1.0,0.0,-0.0,0.0,2.66895,2.66895,0.0,0.0,0.0,0.0,0.0,0.0,0.0,0.0,0.0,0.0,220.0,220.0
1,468,9.36,2.66635,0.00745,0.00298,-1e-05,0.0,-0.0,0.82576,0.82433,0.82734,0.82576,0.82439,0.82723,0.52171,0.00831,0.02489,1.0,0.0,-0.0,0.0,2.67465,2.67465,0.0,0.0,0.0,0.0,0.0,0.0,0.0,0.0,0.0,0.0,220.0,220.0
1,469,9.38,2.67206,0.00745,0.00298,-1e-05,0.0,-0.0,0.82577,0.82433,0.82735,0.82576,0.8244,0.82724,0.52171,0.00831,0.02489,1.0,0.0,0.0,0.0,2.68035,2.68035,0.0,0.0,0.0,0.0,0.0,0.0,0.0,0.0,0.0,0.0,220.0,220.0
1,470,9.4,2.67776,0.00745,0.00298,-1e-05,0.0,-0.0,0.82577,0.82434,0.82736,0.82577,0.8244,0.82724,0.52171,0.00831,0.02489,1.0,0.0,-0.0,0.0,2.68605,2.68605,0.0,0.0,0.0,0.0,0.0,0.0,0.0,0.0,0.0,0.0,220.0,220.0
1,471,9.42,2.68346,0.00745,0.00298,-1e-05,0.0,-0.0,0.82576,0.82433,0.82734,0.82575,0.82439,0.82723,0.52171,0.00831,0.02489,1.0,0.0,0.0,0.0,2.69176,2.69176,0.0,0.0,0.0,0.0,0.0,0.0,0.0,0.0,0.0,0.0,220.0,220.0
1,472,9.44,2.68917,0.00745,0.00298,-1e-05,0.0,-0.0,0.82576,0.82433,0.82735,0.82576,0.8244,0.82724,0.52171,0.00831,0.02489,1.0,0.0,-0.0,0.0,2.69746,2.69746,0.0,0.0,0.0,0.0,0.0,0.0,0.0,0.0,0.0,0.0,220.0,220.0
1,473,9.46,2.69487,0.00745,0.00298,-1e-05,0.0,-0.0,0.82576,0.82433,0.82735,0.82576,0.82439,0.82723,0.52171,0.00831,0.02489,1.0,0.0,-0.0,0.0,2.70316,2.70316,0.0,0.0,0.0,0.0,0.0,0.0,0.0,0.0,0.0,0.0,220.0,220.0
1,474,9.48,2.70057,0.00745,0.00298,-1e-05,0.0,-0.0,0.82576,0.82433,0.82734,0.82576,0.82439,0.82723,0.52171,0.00831,0.02489,1.0,0.0,0.0,0.0,2.70887,2.70887,0.0,0.0,0.0,0.0,0.0,0.0,0.0,0.0,0.0,0.0,220.0,220.0
1,475,9.5,2.70628,0.00745,0.00298,-1e-05,0.0,-0.0,0.82576,0.82433,0.82735,0.82576,0.82439,0.82723,0.52171,0.00831,0.02489,1.0,0.0,-0.0,0.0,2.71457,2.71457,0.0,0.0,0.0,0.0,0.0,0.0,0.0,0.0,0.0,0.0,220.0,220.0
1,476,9.52,2.71198,0.00745,0.00298,-1e-05,0.0,-0.0,0.82577,0.82434,0.82735,0.82577,0.8244,0.82724,0.52171,0.00831,0.02489,1.0,0.0,0.0,0.0,2.72027,2.72027,0.0,0.0,0.0,0.0,0.0,0.0,0.0,0.0,0.0,0.0,220.0,220.0
1,477,9.54,2.71768,0.00745,0.00298,-1e-05,0.0,-0.0,0.82576,0.82432,0.82734,0.82575,0.82439,0.82723,0.52171,0.00831,0.02489,1.0,0.0,-0.0,0.0,2.72598,2.72598,0.0,0.0,0.0,0.0,0.0,0.0,0.0,0.0,0.0,0.0,220.0,220.0
